;Project Frame NeoPixel 32x32
;Created by Estlcam version 11 build 11,244
;Machining time about 02:23:54 hours

G90
M03 S30000
G00 Z30.0000 F480


;No. 1: Ausschnitt 28
G00 X33.7294 Y38.3850 F2100
G00 Z0.5000 F480
G01 Z0.0000 F100 S30000
G01 Z-2.0000 F100
G01 X106.3971 F900
G01 Y42.8850 F900
G01 X33.7294 F900
G01 X33.1294 Y42.8547 F900
G01 Y46.2033 F900
G01 X106.9971 F900
G01 X107.8758 Y47.0820 F900
G01 X106.9971 Y46.2033 F900
G01 Y35.0700 F900
G01 X107.8776 Y34.1880 F900
G01 X106.9971 Y35.0700 F900
G01 X33.1294 Y35.1981 F900
G01 Y42.8547 F900
G01 X33.7294 Y42.8850 F900
G01 Z-4.0000 F100
G01 X106.3971 F900
G01 Y38.3850 F900
G01 X33.7294 F900
G01 X33.1294 Y38.4179 F900
G01 Y46.2033 F900
G01 X106.9971 F900
G01 X107.8758 Y47.0820 F900
G01 X106.9971 Y46.2033 F900
G01 Y35.0700 F900
G01 X107.8776 Y34.1880 F900
G01 X106.9971 Y35.0700 F900
G01 X33.1294 Y35.1981 F900
G01 Y38.4179 F900
G01 X33.7294 Y38.3850 F900
G01 Z-6.0000 F100
G01 X106.3971 F900
G01 Y42.8850 F900
G01 X33.7294 F900
G01 X33.1294 Y42.8547 F900
G01 Y46.2033 F900
G01 X106.9971 F900
G01 X107.8758 Y47.0820 F900
G01 X106.9971 Y46.2033 F900
G01 Y35.0700 F900
G01 X107.8776 Y34.1880 F900
G01 X106.9971 Y35.0700 F900
G01 X33.1294 Y35.1981 F900
G01 Y42.8547 F900
G01 X33.7294 Y42.8850 F900
G01 Z-7.0000 F100
G01 X106.3971 F900
G01 Y38.3850 F900
G01 X33.7294 F900
G01 X33.1294 Y38.4179 F900
G01 Y46.2033 F900
G01 X106.9971 F900
G01 X107.8758 Y47.0820 F900
G01 X106.9971 Y46.2033 F900
G01 Y35.0700 F900
G01 X107.8776 Y34.1880 F900
G01 X106.9971 Y35.0700 F900
G01 X33.1294 Y35.1981 F900
G01 Y38.4179 F900
G01 X33.7294 Y38.3850 F900
G00 Z30.0000 F480


;No. 2: Ausschnitt 37
G00 X33.7294 Y80.4533 Z30.0000 F2100
G00 Z0.5000 F480
G01 Z0.0000 F100
G01 Z-2.0000 F100
G01 X106.3971 F900
G01 Y84.9533 F900
G01 X33.7294 F900
G01 X33.1294 Y84.9217 F900
G01 Y88.2033 F900
G01 X106.9971 F900
G01 X107.8758 Y89.0820 F900
G01 X106.9971 Y88.2033 F900
G01 Y77.2033 F900
G01 X107.8758 Y76.3247 F900
G01 X106.9971 Y77.2033 F900
G01 X33.1294 F900
G01 Y84.9217 F900
G01 X33.7294 Y84.9533 F900
G01 Z-4.0000 F100
G01 X106.3971 F900
G01 Y80.4533 F900
G01 X33.7294 F900
G01 X33.1294 Y80.4850 F900
G01 Y88.2033 F900
G01 X106.9971 F900
G01 X107.8758 Y89.0820 F900
G01 X106.9971 Y88.2033 F900
G01 Y77.2033 F900
G01 X107.8758 Y76.3247 F900
G01 X106.9971 Y77.2033 F900
G01 X33.1294 F900
G01 Y80.4850 F900
G01 X33.7294 Y80.4533 F900
G01 Z-6.0000 F100
G01 X106.3971 F900
G01 Y84.9533 F900
G01 X33.7294 F900
G01 X33.1294 Y84.9217 F900
G01 Y88.2033 F900
G01 X106.9971 F900
G01 X107.8758 Y89.0820 F900
G01 X106.9971 Y88.2033 F900
G01 Y77.2033 F900
G01 X107.8758 Y76.3247 F900
G01 X106.9971 Y77.2033 F900
G01 X33.1294 F900
G01 Y84.9217 F900
G01 X33.7294 Y84.9533 F900
G01 Z-7.0000 F100
G01 X106.3971 F900
G01 Y80.4533 F900
G01 X33.7294 F900
G01 X33.1294 Y80.4850 F900
G01 Y88.2033 F900
G01 X106.9971 F900
G01 X107.8758 Y89.0820 F900
G01 X106.9971 Y88.2033 F900
G01 Y77.2033 F900
G01 X107.8758 Y76.3247 F900
G01 X106.9971 Y77.2033 F900
G01 X33.1294 F900
G01 Y80.4850 F900
G01 X33.7294 Y80.4533 F900
G00 Z30.0000 F480


;No. 3: Ausschnitt 41
G00 X33.7294 Y103.4533 Z30.0000 F2100
G00 Z0.5000 F480
G01 Z0.0000 F100
G01 Z-2.0000 F100
G01 X106.3971 F900
G01 Y107.9533 F900
G01 X33.7294 F900
G01 X33.1294 Y107.9217 F900
G01 Y111.2033 F900
G01 X106.9971 F900
G01 X107.8758 Y112.0820 F900
G01 X106.9971 Y111.2033 F900
G01 Y100.2033 F900
G01 X107.8758 Y99.3247 F900
G01 X106.9971 Y100.2033 F900
G01 X33.1294 F900
G01 Y107.9217 F900
G01 X33.7294 Y107.9533 F900
G01 Z-4.0000 F100
G01 X106.3971 F900
G01 Y103.4533 F900
G01 X33.7294 F900
G01 X33.1294 Y103.4850 F900
G01 Y111.2033 F900
G01 X106.9971 F900
G01 X107.8758 Y112.0820 F900
G01 X106.9971 Y111.2033 F900
G01 Y100.2033 F900
G01 X107.8758 Y99.3247 F900
G01 X106.9971 Y100.2033 F900
G01 X33.1294 F900
G01 Y103.4850 F900
G01 X33.7294 Y103.4533 F900
G01 Z-6.0000 F100
G01 X106.3971 F900
G01 Y107.9533 F900
G01 X33.7294 F900
G01 X33.1294 Y107.9217 F900
G01 Y111.2033 F900
G01 X106.9971 F900
G01 X107.8758 Y112.0820 F900
G01 X106.9971 Y111.2033 F900
G01 Y100.2033 F900
G01 X107.8758 Y99.3247 F900
G01 X106.9971 Y100.2033 F900
G01 X33.1294 F900
G01 Y107.9217 F900
G01 X33.7294 Y107.9533 F900
G01 Z-7.0000 F100
G01 X106.3971 F900
G01 Y103.4533 F900
G01 X33.7294 F900
G01 X33.1294 Y103.4850 F900
G01 Y111.2033 F900
G01 X106.9971 F900
G01 X107.8758 Y112.0820 F900
G01 X106.9971 Y111.2033 F900
G01 Y100.2033 F900
G01 X107.8758 Y99.3247 F900
G01 X106.9971 Y100.2033 F900
G01 X33.1294 F900
G01 Y103.4850 F900
G01 X33.7294 Y103.4533 F900
G00 Z30.0000 F480


;No. 4: Ausschnitt 55
G00 X33.4648 Y168.7179 Z30.0000 F2100
G00 Z0.5000 F480
G01 Z0.0000 F100
G01 Z-2.0000 F100
G01 X106.3971 F900
G01 Y173.2179 F900
G01 X33.4648 F900
G01 X32.8648 Y173.1863 F900
G01 Y176.4679 F900
G01 X106.9971 F900
G01 X107.8758 Y177.3466 F900
G01 X106.9971 Y176.4679 F900
G01 Y165.4679 F900
G01 X107.8758 Y164.5893 F900
G01 X106.9971 Y165.4679 F900
G01 X32.8648 F900
G01 Y173.1863 F900
G01 X33.4648 Y173.2179 F900
G01 Z-4.0000 F100
G01 X106.3971 F900
G01 Y168.7179 F900
G01 X33.4648 F900
G01 X32.8648 Y168.7495 F900
G01 Y176.4679 F900
G01 X106.9971 F900
G01 X107.8758 Y177.3466 F900
G01 X106.9971 Y176.4679 F900
G01 Y165.4679 F900
G01 X107.8758 Y164.5893 F900
G01 X106.9971 Y165.4679 F900
G01 X32.8648 F900
G01 Y168.7495 F900
G01 X33.4648 Y168.7179 F900
G01 Z-6.0000 F100
G01 X106.3971 F900
G01 Y173.2179 F900
G01 X33.4648 F900
G01 X32.8648 Y173.1863 F900
G01 Y176.4679 F900
G01 X106.9971 F900
G01 X107.8758 Y177.3466 F900
G01 X106.9971 Y176.4679 F900
G01 Y165.4679 F900
G01 X107.8758 Y164.5893 F900
G01 X106.9971 Y165.4679 F900
G01 X32.8648 F900
G01 Y173.1863 F900
G01 X33.4648 Y173.2179 F900
G01 Z-7.0000 F100
G01 X106.3971 F900
G01 Y168.7179 F900
G01 X33.4648 F900
G01 X32.8648 Y168.7495 F900
G01 Y176.4679 F900
G01 X106.9971 F900
G01 X107.8758 Y177.3466 F900
G01 X106.9971 Y176.4679 F900
G01 Y165.4679 F900
G01 X107.8758 Y164.5893 F900
G01 X106.9971 Y165.4679 F900
G01 X32.8648 F900
G01 Y168.7495 F900
G01 X33.4648 Y168.7179 F900
G00 Z30.0000 F480


;No. 5: Ausschnitt 56
G00 X33.4648 Y210.7179 Z30.0000 F2100
G00 Z0.5000 F480
G01 Z0.0000 F100
G01 Z-2.0000 F100
G01 X106.3971 F900
G01 Y215.2179 F900
G01 X33.4648 F900
G01 X32.8648 Y215.1863 F900
G01 Y218.4679 F900
G01 X106.9971 F900
G01 X107.8758 Y219.3466 F900
G01 X106.9971 Y218.4679 F900
G01 Y207.4679 F900
G01 X107.8758 Y206.5893 F900
G01 X106.9971 Y207.4679 F900
G01 X32.8648 F900
G01 Y215.1863 F900
G01 X33.4648 Y215.2179 F900
G01 Z-4.0000 F100
G01 X106.3971 F900
G01 Y210.7179 F900
G01 X33.4648 F900
G01 X32.8648 Y210.7495 F900
G01 Y218.4679 F900
G01 X106.9971 F900
G01 X107.8758 Y219.3466 F900
G01 X106.9971 Y218.4679 F900
G01 Y207.4679 F900
G01 X107.8758 Y206.5893 F900
G01 X106.9971 Y207.4679 F900
G01 X32.8648 F900
G01 Y210.7495 F900
G01 X33.4648 Y210.7179 F900
G01 Z-6.0000 F100
G01 X106.3971 F900
G01 Y215.2179 F900
G01 X33.4648 F900
G01 X32.8648 Y215.1863 F900
G01 Y218.4679 F900
G01 X106.9971 F900
G01 X107.8758 Y219.3466 F900
G01 X106.9971 Y218.4679 F900
G01 Y207.4679 F900
G01 X107.8758 Y206.5893 F900
G01 X106.9971 Y207.4679 F900
G01 X32.8648 F900
G01 Y215.1863 F900
G01 X33.4648 Y215.2179 F900
G01 Z-7.0000 F100
G01 X106.3971 F900
G01 Y210.7179 F900
G01 X33.4648 F900
G01 X32.8648 Y210.7495 F900
G01 Y218.4679 F900
G01 X106.9971 F900
G01 X107.8758 Y219.3466 F900
G01 X106.9971 Y218.4679 F900
G01 Y207.4679 F900
G01 X107.8758 Y206.5893 F900
G01 X106.9971 Y207.4679 F900
G01 X32.8648 F900
G01 Y210.7495 F900
G01 X33.4648 Y210.7179 F900
G00 Z30.0000 F480


;No. 6: Ausschnitt 47
G00 X32.8648 Y224.4679 Z30.0000 F2100
G00 Z0.5000 F480
G01 Z0.0000 F100
G01 Z-2.0000 F100
G01 Y224.7325 F900
G01 X286.8648 F900
G01 Y224.4679 F900
G01 X32.8648 F900
G01 Z-3.0000 F100
G01 Y224.7325 F900
G01 X286.8648 F900
G01 Y224.4679 F900
G01 X32.8648 F900
G00 Z30.0000 F480


;No. 7: Ausschnitt 57
G00 X33.4648 Y233.9825 Z30.0000 F2100
G00 Z0.5000 F480
G01 Z0.0000 F100
G01 Z-2.0000 F100
G01 X106.3971 F900
G01 Y238.4825 F900
G01 X33.4648 F900
G01 X32.8648 Y238.4509 F900
G01 Y241.7325 F900
G01 X106.9971 F900
G01 X107.8758 Y242.6112 F900
G01 X106.9971 Y241.7325 F900
G01 Y230.7325 F900
G01 X107.8758 Y229.8538 F900
G01 X106.9971 Y230.7325 F900
G01 X32.8648 F900
G01 Y238.4509 F900
G01 X33.4648 Y238.4825 F900
G01 Z-4.0000 F100
G01 X106.3971 F900
G01 Y233.9825 F900
G01 X33.4648 F900
G01 X32.8648 Y234.0141 F900
G01 Y241.7325 F900
G01 X106.9971 F900
G01 X107.8758 Y242.6112 F900
G01 X106.9971 Y241.7325 F900
G01 Y230.7325 F900
G01 X107.8758 Y229.8538 F900
G01 X106.9971 Y230.7325 F900
G01 X32.8648 F900
G01 Y234.0141 F900
G01 X33.4648 Y233.9825 F900
G01 Z-6.0000 F100
G01 X106.3971 F900
G01 Y238.4825 F900
G01 X33.4648 F900
G01 X32.8648 Y238.4509 F900
G01 Y241.7325 F900
G01 X106.9971 F900
G01 X107.8758 Y242.6112 F900
G01 X106.9971 Y241.7325 F900
G01 Y230.7325 F900
G01 X107.8758 Y229.8538 F900
G01 X106.9971 Y230.7325 F900
G01 X32.8648 F900
G01 Y238.4509 F900
G01 X33.4648 Y238.4825 F900
G01 Z-7.0000 F100
G01 X106.3971 F900
G01 Y233.9825 F900
G01 X33.4648 F900
G01 X32.8648 Y234.0141 F900
G01 Y241.7325 F900
G01 X106.9971 F900
G01 X107.8758 Y242.6112 F900
G01 X106.9971 Y241.7325 F900
G01 Y230.7325 F900
G01 X107.8758 Y229.8538 F900
G01 X106.9971 Y230.7325 F900
G01 X32.8648 F900
G01 Y234.0141 F900
G01 X33.4648 Y233.9825 F900
G00 Z30.0000 F480


;No. 8: Ausschnitt 72
G00 X33.4648 Y276.0478 Z30.0000 F2100
G00 Z0.5000 F480
G01 Z0.0000 F100
G01 Z-2.0000 F100
G01 X106.3971 F900
G01 Y280.5478 F900
G01 X33.4648 F900
G01 X32.8648 Y280.5150 F900
G01 Y283.7375 F900
G01 X106.9971 Y283.8598 F900
G01 X107.8775 Y284.7417 F900
G01 X106.9971 Y283.8598 F900
G01 Y272.7325 F900
G01 X107.8758 Y271.8538 F900
G01 X106.9971 Y272.7325 F900
G01 X32.8648 F900
G01 Y280.5150 F900
G01 X33.4648 Y280.5478 F900
G01 Z-4.0000 F100
G01 X106.3971 F900
G01 Y276.0478 F900
G01 X33.4648 F900
G01 X32.8648 Y276.0782 F900
G01 Y283.7375 F900
G01 X106.9971 Y283.8598 F900
G01 X107.8775 Y284.7417 F900
G01 X106.9971 Y283.8598 F900
G01 Y272.7325 F900
G01 X107.8758 Y271.8538 F900
G01 X106.9971 Y272.7325 F900
G01 X32.8648 F900
G01 Y276.0782 F900
G01 X33.4648 Y276.0478 F900
G01 Z-6.0000 F100
G01 X106.3971 F900
G01 Y280.5478 F900
G01 X33.4648 F900
G01 X32.8648 Y280.5150 F900
G01 Y283.7375 F900
G01 X106.9971 Y283.8598 F900
G01 X107.8775 Y284.7417 F900
G01 X106.9971 Y283.8598 F900
G01 Y272.7325 F900
G01 X107.8758 Y271.8538 F900
G01 X106.9971 Y272.7325 F900
G01 X32.8648 F900
G01 Y280.5150 F900
G01 X33.4648 Y280.5478 F900
G01 Z-7.0000 F100
G01 X106.3971 F900
G01 Y276.0478 F900
G01 X33.4648 F900
G01 X32.8648 Y276.0782 F900
G01 Y283.7375 F900
G01 X106.9971 Y283.8598 F900
G01 X107.8775 Y284.7417 F900
G01 X106.9971 Y283.8598 F900
G01 Y272.7325 F900
G01 X107.8758 Y271.8538 F900
G01 X106.9971 Y272.7325 F900
G01 X32.8648 F900
G01 Y276.0782 F900
G01 X33.4648 Y276.0478 F900
G00 Z30.0000 F480


;No. 9: Ausschnitt 71
G00 X143.5947 Y276.0487 Z30.0000 F2100
G00 Z0.5000 F480
G01 Z0.0000 F100
G01 Z-2.0000 F100
G01 X176.3972 F900
G01 Y280.5487 F900
G01 X143.5947 F900
G01 X142.9947 Y280.5179 F900
G01 Y283.8648 F900
G01 X142.1161 Y284.7435 F900
G01 X142.9947 Y283.8648 F900
G01 X176.9972 F900
G01 X177.8759 Y284.7435 F900
G01 X176.9972 Y283.8648 F900
G01 Y272.7325 F900
G01 X177.8759 Y271.8538 F900
G01 X176.9972 Y272.7325 F900
G01 X142.9947 F900
G01 X142.1161 Y271.8538 F900
G01 X142.9947 Y272.7325 F900
G01 Y280.5179 F900
G01 X143.5947 Y280.5487 F900
G01 Z-4.0000 F100
G01 X176.3972 F900
G01 Y276.0487 F900
G01 X143.5947 F900
G01 X142.9947 Y276.0794 F900
G01 Y283.8648 F900
G01 X142.1161 Y284.7435 F900
G01 X142.9947 Y283.8648 F900
G01 X176.9972 F900
G01 X177.8759 Y284.7435 F900
G01 X176.9972 Y283.8648 F900
G01 Y272.7325 F900
G01 X177.8759 Y271.8538 F900
G01 X176.9972 Y272.7325 F900
G01 X142.9947 F900
G01 X142.1161 Y271.8538 F900
G01 X142.9947 Y272.7325 F900
G01 Y276.0794 F900
G01 X143.5947 Y276.0487 F900
G01 Z-6.0000 F100
G01 X176.3972 F900
G01 Y280.5487 F900
G01 X143.5947 F900
G01 X142.9947 Y280.5179 F900
G01 Y283.8648 F900
G01 X142.1161 Y284.7435 F900
G01 X142.9947 Y283.8648 F900
G01 X176.9972 F900
G01 X177.8759 Y284.7435 F900
G01 X176.9972 Y283.8648 F900
G01 Y272.7325 F900
G01 X177.8759 Y271.8538 F900
G01 X176.9972 Y272.7325 F900
G01 X142.9947 F900
G01 X142.1161 Y271.8538 F900
G01 X142.9947 Y272.7325 F900
G01 Y280.5179 F900
G01 X143.5947 Y280.5487 F900
G01 Z-7.0000 F100
G01 X176.3972 F900
G01 Y276.0487 F900
G01 X143.5947 F900
G01 X142.9947 Y276.0794 F900
G01 Y283.8648 F900
G01 X142.1161 Y284.7435 F900
G01 X142.9947 Y283.8648 F900
G01 X176.9972 F900
G01 X177.8759 Y284.7435 F900
G01 X176.9972 Y283.8648 F900
G01 Y272.7325 F900
G01 X177.8759 Y271.8538 F900
G01 X176.9972 Y272.7325 F900
G01 X142.9947 F900
G01 X142.1161 Y271.8538 F900
G01 X142.9947 Y272.7325 F900
G01 Y276.0794 F900
G01 X143.5947 Y276.0487 F900
G00 Z30.0000 F480


;No. 10: Ausschnitt 61
G00 X143.5947 Y238.4825 Z30.0000 F2100
G00 Z0.5000 F480
G01 Z0.0000 F100
G01 Z-2.0000 F100
G01 X176.3972 F900
G01 Y233.9825 F900
G01 X143.5947 F900
G01 X142.9947 Y234.0141 F900
G01 Y241.7325 F900
G01 X142.1161 Y242.6112 F900
G01 X142.9947 Y241.7325 F900
G01 X176.9972 F900
G01 X177.8759 Y242.6112 F900
G01 X176.9972 Y241.7325 F900
G01 Y230.7325 F900
G01 X177.8759 Y229.8538 F900
G01 X176.9972 Y230.7325 F900
G01 X142.9947 F900
G01 X142.1161 Y229.8538 F900
G01 X142.9947 Y230.7325 F900
G01 Y234.0141 F900
G01 X143.5947 Y233.9825 F900
G01 Z-4.0000 F100
G01 X176.3972 F900
G01 Y238.4825 F900
G01 X143.5947 F900
G01 X142.9947 Y238.4509 F900
G01 Y241.7325 F900
G01 X142.1161 Y242.6112 F900
G01 X142.9947 Y241.7325 F900
G01 X176.9972 F900
G01 X177.8759 Y242.6112 F900
G01 X176.9972 Y241.7325 F900
G01 Y230.7325 F900
G01 X177.8759 Y229.8538 F900
G01 X176.9972 Y230.7325 F900
G01 X142.9947 F900
G01 X142.1161 Y229.8538 F900
G01 X142.9947 Y230.7325 F900
G01 Y238.4509 F900
G01 X143.5947 Y238.4825 F900
G01 Z-6.0000 F100
G01 X176.3972 F900
G01 Y233.9825 F900
G01 X143.5947 F900
G01 X142.9947 Y234.0141 F900
G01 Y241.7325 F900
G01 X142.1161 Y242.6112 F900
G01 X142.9947 Y241.7325 F900
G01 X176.9972 F900
G01 X177.8759 Y242.6112 F900
G01 X176.9972 Y241.7325 F900
G01 Y230.7325 F900
G01 X177.8759 Y229.8538 F900
G01 X176.9972 Y230.7325 F900
G01 X142.9947 F900
G01 X142.1161 Y229.8538 F900
G01 X142.9947 Y230.7325 F900
G01 Y234.0141 F900
G01 X143.5947 Y233.9825 F900
G01 Z-7.0000 F100
G01 X176.3972 F900
G01 Y238.4825 F900
G01 X143.5947 F900
G01 X142.9947 Y238.4509 F900
G01 Y241.7325 F900
G01 X142.1161 Y242.6112 F900
G01 X142.9947 Y241.7325 F900
G01 X176.9972 F900
G01 X177.8759 Y242.6112 F900
G01 X176.9972 Y241.7325 F900
G01 Y230.7325 F900
G01 X177.8759 Y229.8538 F900
G01 X176.9972 Y230.7325 F900
G01 X142.9947 F900
G01 X142.1161 Y229.8538 F900
G01 X142.9947 Y230.7325 F900
G01 Y238.4509 F900
G01 X143.5947 Y238.4825 F900
G00 Z30.0000 F480


;No. 11: Ausschnitt 64
G00 X143.5947 Y215.2179 Z30.0000 F2100
G00 Z0.5000 F480
G01 Z0.0000 F100
G01 Z-2.0000 F100
G01 X176.3972 F900
G01 Y210.7179 F900
G01 X143.5947 F900
G01 X142.9947 Y210.7495 F900
G01 Y218.4679 F900
G01 X142.1161 Y219.3466 F900
G01 X142.9947 Y218.4679 F900
G01 X176.9972 F900
G01 X177.8759 Y219.3466 F900
G01 X176.9972 Y218.4679 F900
G01 Y207.4679 F900
G01 X177.8759 Y206.5893 F900
G01 X176.9972 Y207.4679 F900
G01 X142.9947 F900
G01 X142.1161 Y206.5893 F900
G01 X142.9947 Y207.4679 F900
G01 Y210.7495 F900
G01 X143.5947 Y210.7179 F900
G01 Z-4.0000 F100
G01 X176.3972 F900
G01 Y215.2179 F900
G01 X143.5947 F900
G01 X142.9947 Y215.1863 F900
G01 Y218.4679 F900
G01 X142.1161 Y219.3466 F900
G01 X142.9947 Y218.4679 F900
G01 X176.9972 F900
G01 X177.8759 Y219.3466 F900
G01 X176.9972 Y218.4679 F900
G01 Y207.4679 F900
G01 X177.8759 Y206.5893 F900
G01 X176.9972 Y207.4679 F900
G01 X142.9947 F900
G01 X142.1161 Y206.5893 F900
G01 X142.9947 Y207.4679 F900
G01 Y215.1863 F900
G01 X143.5947 Y215.2179 F900
G01 Z-6.0000 F100
G01 X176.3972 F900
G01 Y210.7179 F900
G01 X143.5947 F900
G01 X142.9947 Y210.7495 F900
G01 Y218.4679 F900
G01 X142.1161 Y219.3466 F900
G01 X142.9947 Y218.4679 F900
G01 X176.9972 F900
G01 X177.8759 Y219.3466 F900
G01 X176.9972 Y218.4679 F900
G01 Y207.4679 F900
G01 X177.8759 Y206.5893 F900
G01 X176.9972 Y207.4679 F900
G01 X142.9947 F900
G01 X142.1161 Y206.5893 F900
G01 X142.9947 Y207.4679 F900
G01 Y210.7495 F900
G01 X143.5947 Y210.7179 F900
G01 Z-7.0000 F100
G01 X176.3972 F900
G01 Y215.2179 F900
G01 X143.5947 F900
G01 X142.9947 Y215.1863 F900
G01 Y218.4679 F900
G01 X142.1161 Y219.3466 F900
G01 X142.9947 Y218.4679 F900
G01 X176.9972 F900
G01 X177.8759 Y219.3466 F900
G01 X176.9972 Y218.4679 F900
G01 Y207.4679 F900
G01 X177.8759 Y206.5893 F900
G01 X176.9972 Y207.4679 F900
G01 X142.9947 F900
G01 X142.1161 Y206.5893 F900
G01 X142.9947 Y207.4679 F900
G01 Y215.1863 F900
G01 X143.5947 Y215.2179 F900
G00 Z30.0000 F480


;No. 12: Ausschnitt 65
G00 X143.5947 Y173.2179 Z30.0000 F2100
G00 Z0.5000 F480
G01 Z0.0000 F100
G01 Z-2.0000 F100
G01 X176.3972 F900
G01 Y168.7179 F900
G01 X143.5947 F900
G01 X142.9947 Y168.7495 F900
G01 Y176.4679 F900
G01 X142.1161 Y177.3466 F900
G01 X142.9947 Y176.4679 F900
G01 X176.9972 F900
G01 X177.8759 Y177.3466 F900
G01 X176.9972 Y176.4679 F900
G01 Y165.4679 F900
G01 X177.8759 Y164.5893 F900
G01 X176.9972 Y165.4679 F900
G01 X142.9947 F900
G01 X142.1161 Y164.5893 F900
G01 X142.9947 Y165.4679 F900
G01 Y168.7495 F900
G01 X143.5947 Y168.7179 F900
G01 Z-4.0000 F100
G01 X176.3972 F900
G01 Y173.2179 F900
G01 X143.5947 F900
G01 X142.9947 Y173.1863 F900
G01 Y176.4679 F900
G01 X142.1161 Y177.3466 F900
G01 X142.9947 Y176.4679 F900
G01 X176.9972 F900
G01 X177.8759 Y177.3466 F900
G01 X176.9972 Y176.4679 F900
G01 Y165.4679 F900
G01 X177.8759 Y164.5893 F900
G01 X176.9972 Y165.4679 F900
G01 X142.9947 F900
G01 X142.1161 Y164.5893 F900
G01 X142.9947 Y165.4679 F900
G01 Y173.1863 F900
G01 X143.5947 Y173.2179 F900
G01 Z-6.0000 F100
G01 X176.3972 F900
G01 Y168.7179 F900
G01 X143.5947 F900
G01 X142.9947 Y168.7495 F900
G01 Y176.4679 F900
G01 X142.1161 Y177.3466 F900
G01 X142.9947 Y176.4679 F900
G01 X176.9972 F900
G01 X177.8759 Y177.3466 F900
G01 X176.9972 Y176.4679 F900
G01 Y165.4679 F900
G01 X177.8759 Y164.5893 F900
G01 X176.9972 Y165.4679 F900
G01 X142.9947 F900
G01 X142.1161 Y164.5893 F900
G01 X142.9947 Y165.4679 F900
G01 Y168.7495 F900
G01 X143.5947 Y168.7179 F900
G01 Z-7.0000 F100
G01 X176.3972 F900
G01 Y173.2179 F900
G01 X143.5947 F900
G01 X142.9947 Y173.1863 F900
G01 Y176.4679 F900
G01 X142.1161 Y177.3466 F900
G01 X142.9947 Y176.4679 F900
G01 X176.9972 F900
G01 X177.8759 Y177.3466 F900
G01 X176.9972 Y176.4679 F900
G01 Y165.4679 F900
G01 X177.8759 Y164.5893 F900
G01 X176.9972 Y165.4679 F900
G01 X142.9947 F900
G01 X142.1161 Y164.5893 F900
G01 X142.9947 Y165.4679 F900
G01 Y173.1863 F900
G01 X143.5947 Y173.2179 F900
G00 Z30.0000 F480


;No. 13: Ausschnitt 66
G00 X143.5947 Y149.9533 Z30.0000 F2100
G00 Z0.5000 F480
G01 Z0.0000 F100
G01 Z-2.0000 F100
G01 X176.3972 F900
G01 Y145.4533 F900
G01 X143.5947 F900
G01 X142.9947 Y145.4850 F900
G01 Y153.2033 F900
G01 X142.1161 Y154.0820 F900
G01 X142.9947 Y153.2033 F900
G01 X176.9972 F900
G01 X177.8759 Y154.0820 F900
G01 X176.9972 Y153.2033 F900
G01 Y142.2033 F900
G01 X177.8759 Y141.3247 F900
G01 X176.9972 Y142.2033 F900
G01 X142.9947 F900
G01 X142.1161 Y141.3247 F900
G01 X142.9947 Y142.2033 F900
G01 Y145.4850 F900
G01 X143.5947 Y145.4533 F900
G01 Z-4.0000 F100
G01 X176.3972 F900
G01 Y149.9533 F900
G01 X143.5947 F900
G01 X142.9947 Y149.9217 F900
G01 Y153.2033 F900
G01 X142.1161 Y154.0820 F900
G01 X142.9947 Y153.2033 F900
G01 X176.9972 F900
G01 X177.8759 Y154.0820 F900
G01 X176.9972 Y153.2033 F900
G01 Y142.2033 F900
G01 X177.8759 Y141.3247 F900
G01 X176.9972 Y142.2033 F900
G01 X142.9947 F900
G01 X142.1161 Y141.3247 F900
G01 X142.9947 Y142.2033 F900
G01 Y149.9217 F900
G01 X143.5947 Y149.9533 F900
G01 Z-6.0000 F100
G01 X176.3972 F900
G01 Y145.4533 F900
G01 X143.5947 F900
G01 X142.9947 Y145.4850 F900
G01 Y153.2033 F900
G01 X142.1161 Y154.0820 F900
G01 X142.9947 Y153.2033 F900
G01 X176.9972 F900
G01 X177.8759 Y154.0820 F900
G01 X176.9972 Y153.2033 F900
G01 Y142.2033 F900
G01 X177.8759 Y141.3247 F900
G01 X176.9972 Y142.2033 F900
G01 X142.9947 F900
G01 X142.1161 Y141.3247 F900
G01 X142.9947 Y142.2033 F900
G01 Y145.4850 F900
G01 X143.5947 Y145.4533 F900
G01 Z-7.0000 F100
G01 X176.3972 F900
G01 Y149.9533 F900
G01 X143.5947 F900
G01 X142.9947 Y149.9217 F900
G01 Y153.2033 F900
G01 X142.1161 Y154.0820 F900
G01 X142.9947 Y153.2033 F900
G01 X176.9972 F900
G01 X177.8759 Y154.0820 F900
G01 X176.9972 Y153.2033 F900
G01 Y142.2033 F900
G01 X177.8759 Y141.3247 F900
G01 X176.9972 Y142.2033 F900
G01 X142.9947 F900
G01 X142.1161 Y141.3247 F900
G01 X142.9947 Y142.2033 F900
G01 Y149.9217 F900
G01 X143.5947 Y149.9533 F900
G00 Z30.0000 F480


;No. 14: Ausschnitt 35
G00 X143.5947 Y107.9533 Z30.0000 F2100
G00 Z0.5000 F480
G01 Z0.0000 F100
G01 Z-2.0000 F100
G01 X176.3972 F900
G01 Y103.4533 F900
G01 X143.5947 F900
G01 X142.9947 Y103.4850 F900
G01 Y111.2033 F900
G01 X142.1161 Y112.0820 F900
G01 X142.9947 Y111.2033 F900
G01 X176.9972 F900
G01 X177.8759 Y112.0820 F900
G01 X176.9972 Y111.2033 F900
G01 Y100.2033 F900
G01 X177.8759 Y99.3247 F900
G01 X176.9972 Y100.2033 F900
G01 X142.9947 F900
G01 X142.1161 Y99.3247 F900
G01 X142.9947 Y100.2033 F900
G01 Y103.4850 F900
G01 X143.5947 Y103.4533 F900
G01 Z-4.0000 F100
G01 X176.3972 F900
G01 Y107.9533 F900
G01 X143.5947 F900
G01 X142.9947 Y107.9217 F900
G01 Y111.2033 F900
G01 X142.1161 Y112.0820 F900
G01 X142.9947 Y111.2033 F900
G01 X176.9972 F900
G01 X177.8759 Y112.0820 F900
G01 X176.9972 Y111.2033 F900
G01 Y100.2033 F900
G01 X177.8759 Y99.3247 F900
G01 X176.9972 Y100.2033 F900
G01 X142.9947 F900
G01 X142.1161 Y99.3247 F900
G01 X142.9947 Y100.2033 F900
G01 Y107.9217 F900
G01 X143.5947 Y107.9533 F900
G01 Z-6.0000 F100
G01 X176.3972 F900
G01 Y103.4533 F900
G01 X143.5947 F900
G01 X142.9947 Y103.4850 F900
G01 Y111.2033 F900
G01 X142.1161 Y112.0820 F900
G01 X142.9947 Y111.2033 F900
G01 X176.9972 F900
G01 X177.8759 Y112.0820 F900
G01 X176.9972 Y111.2033 F900
G01 Y100.2033 F900
G01 X177.8759 Y99.3247 F900
G01 X176.9972 Y100.2033 F900
G01 X142.9947 F900
G01 X142.1161 Y99.3247 F900
G01 X142.9947 Y100.2033 F900
G01 Y103.4850 F900
G01 X143.5947 Y103.4533 F900
G01 Z-7.0000 F100
G01 X176.3972 F900
G01 Y107.9533 F900
G01 X143.5947 F900
G01 X142.9947 Y107.9217 F900
G01 Y111.2033 F900
G01 X142.1161 Y112.0820 F900
G01 X142.9947 Y111.2033 F900
G01 X176.9972 F900
G01 X177.8759 Y112.0820 F900
G01 X176.9972 Y111.2033 F900
G01 Y100.2033 F900
G01 X177.8759 Y99.3247 F900
G01 X176.9972 Y100.2033 F900
G01 X142.9947 F900
G01 X142.1161 Y99.3247 F900
G01 X142.9947 Y100.2033 F900
G01 Y107.9217 F900
G01 X143.5947 Y107.9533 F900
G00 Z30.0000 F480


;No. 15: Ausschnitt 32
G00 X143.5947 Y84.9533 Z30.0000 F2100
G00 Z0.5000 F480
G01 Z0.0000 F100
G01 Z-2.0000 F100
G01 X176.3972 F900
G01 Y80.4533 F900
G01 X143.5947 F900
G01 X142.9947 Y80.4850 F900
G01 Y88.2033 F900
G01 X142.1161 Y89.0820 F900
G01 X142.9947 Y88.2033 F900
G01 X176.9972 F900
G01 X177.8759 Y89.0820 F900
G01 X176.9972 Y88.2033 F900
G01 Y77.2033 F900
G01 X177.8759 Y76.3247 F900
G01 X176.9972 Y77.2033 F900
G01 X142.9947 F900
G01 X142.1161 Y76.3247 F900
G01 X142.9947 Y77.2033 F900
G01 Y80.4850 F900
G01 X143.5947 Y80.4533 F900
G01 Z-4.0000 F100
G01 X176.3972 F900
G01 Y84.9533 F900
G01 X143.5947 F900
G01 X142.9947 Y84.9217 F900
G01 Y88.2033 F900
G01 X142.1161 Y89.0820 F900
G01 X142.9947 Y88.2033 F900
G01 X176.9972 F900
G01 X177.8759 Y89.0820 F900
G01 X176.9972 Y88.2033 F900
G01 Y77.2033 F900
G01 X177.8759 Y76.3247 F900
G01 X176.9972 Y77.2033 F900
G01 X142.9947 F900
G01 X142.1161 Y76.3247 F900
G01 X142.9947 Y77.2033 F900
G01 Y84.9217 F900
G01 X143.5947 Y84.9533 F900
G01 Z-6.0000 F100
G01 X176.3972 F900
G01 Y80.4533 F900
G01 X143.5947 F900
G01 X142.9947 Y80.4850 F900
G01 Y88.2033 F900
G01 X142.1161 Y89.0820 F900
G01 X142.9947 Y88.2033 F900
G01 X176.9972 F900
G01 X177.8759 Y89.0820 F900
G01 X176.9972 Y88.2033 F900
G01 Y77.2033 F900
G01 X177.8759 Y76.3247 F900
G01 X176.9972 Y77.2033 F900
G01 X142.9947 F900
G01 X142.1161 Y76.3247 F900
G01 X142.9947 Y77.2033 F900
G01 Y80.4850 F900
G01 X143.5947 Y80.4533 F900
G01 Z-7.0000 F100
G01 X176.3972 F900
G01 Y84.9533 F900
G01 X143.5947 F900
G01 X142.9947 Y84.9217 F900
G01 Y88.2033 F900
G01 X142.1161 Y89.0820 F900
G01 X142.9947 Y88.2033 F900
G01 X176.9972 F900
G01 X177.8759 Y89.0820 F900
G01 X176.9972 Y88.2033 F900
G01 Y77.2033 F900
G01 X177.8759 Y76.3247 F900
G01 X176.9972 Y77.2033 F900
G01 X142.9947 F900
G01 X142.1161 Y76.3247 F900
G01 X142.9947 Y77.2033 F900
G01 Y84.9217 F900
G01 X143.5947 Y84.9533 F900
G00 Z30.0000 F480


;No. 16: Ausschnitt 29
G00 X143.5947 Y42.8841 Z30.0000 F2100
G00 Z0.5000 F480
G01 Z0.0000 F100
G01 Z-2.0000 F100
G01 X176.3972 F900
G01 Y38.3841 F900
G01 X143.5947 F900
G01 X142.9947 Y38.4148 F900
G01 Y46.2033 F900
G01 X142.1161 Y47.0820 F900
G01 X142.9947 Y46.2033 F900
G01 X176.9972 F900
G01 X177.8759 Y47.0820 F900
G01 X176.9972 Y46.2033 F900
G01 Y35.0648 F900
G01 X177.8759 Y34.1861 F900
G01 X176.9972 Y35.0648 F900
G01 X142.9947 F900
G01 X142.1161 Y34.1861 F900
G01 X142.9947 Y35.0648 F900
G01 Y38.4148 F900
G01 X143.5947 Y38.3841 F900
G01 Z-4.0000 F100
G01 X176.3972 F900
G01 Y42.8841 F900
G01 X143.5947 F900
G01 X142.9947 Y42.8534 F900
G01 Y46.2033 F900
G01 X142.1161 Y47.0820 F900
G01 X142.9947 Y46.2033 F900
G01 X176.9972 F900
G01 X177.8759 Y47.0820 F900
G01 X176.9972 Y46.2033 F900
G01 Y35.0648 F900
G01 X177.8759 Y34.1861 F900
G01 X176.9972 Y35.0648 F900
G01 X142.9947 F900
G01 X142.1161 Y34.1861 F900
G01 X142.9947 Y35.0648 F900
G01 Y42.8534 F900
G01 X143.5947 Y42.8841 F900
G01 Z-6.0000 F100
G01 X176.3972 F900
G01 Y38.3841 F900
G01 X143.5947 F900
G01 X142.9947 Y38.4148 F900
G01 Y46.2033 F900
G01 X142.1161 Y47.0820 F900
G01 X142.9947 Y46.2033 F900
G01 X176.9972 F900
G01 X177.8759 Y47.0820 F900
G01 X176.9972 Y46.2033 F900
G01 Y35.0648 F900
G01 X177.8759 Y34.1861 F900
G01 X176.9972 Y35.0648 F900
G01 X142.9947 F900
G01 X142.1161 Y34.1861 F900
G01 X142.9947 Y35.0648 F900
G01 Y38.4148 F900
G01 X143.5947 Y38.3841 F900
G01 Z-7.0000 F100
G01 X176.3972 F900
G01 Y42.8841 F900
G01 X143.5947 F900
G01 X142.9947 Y42.8534 F900
G01 Y46.2033 F900
G01 X142.1161 Y47.0820 F900
G01 X142.9947 Y46.2033 F900
G01 X176.9972 F900
G01 X177.8759 Y47.0820 F900
G01 X176.9972 Y46.2033 F900
G01 Y35.0648 F900
G01 X177.8759 Y34.1861 F900
G01 X176.9972 Y35.0648 F900
G01 X142.9947 F900
G01 X142.1161 Y34.1861 F900
G01 X142.9947 Y35.0648 F900
G01 Y42.8534 F900
G01 X143.5947 Y42.8841 F900
G00 Z30.0000 F480


;No. 17: Ausschnitt 45
G00 X136.3947 Y42.4648 Z30.0000 F2100
G00 Z0.5000 F480
G01 Z0.0000 F100
G01 Z-2.0000 F100
G01 X113.5971 F900
G01 Y37.9648 F900
G01 X136.3947 F900
G01 Y46.9648 F900
G01 X113.5971 F900
G01 Y51.4648 F900
G01 X136.3947 F900
G01 Y55.9648 F900
G01 X113.5971 F900
G01 Y60.4648 F900
G01 X136.3947 F900
G01 Y64.9648 F900
G01 X113.5971 F900
G01 Y69.4648 F900
G01 X136.3947 F900
G01 Y73.9648 F900
G01 X113.5971 F900
G01 Y78.4648 F900
G01 X136.3947 F900
G01 Y82.9648 F900
G01 X113.5971 F900
G01 Y87.4648 F900
G01 X136.3947 F900
G01 Y91.9648 F900
G01 X113.5971 F900
G01 Y96.4648 F900
G01 X136.3947 F900
G01 Y100.9648 F900
G01 X113.5971 F900
G01 Y105.4648 F900
G01 X136.3947 F900
G01 Y109.9648 F900
G01 X113.5971 F900
G01 Y114.4648 F900
G01 X136.3947 F900
G01 Y118.9648 F900
G01 X113.5971 F900
G01 Y123.4648 F900
G01 X136.3947 F900
G01 Y127.9648 F900
G01 X113.5971 F900
G01 Y132.4648 F900
G01 X136.3947 F900
G01 Y136.9648 F900
G01 X113.5971 F900
G01 Y141.4648 F900
G01 X136.3947 F900
G01 Y145.9648 F900
G01 X113.5971 F900
G01 Y150.4648 F900
G01 X136.3947 F900
G01 Y154.9648 F900
G01 X113.5971 F900
G01 Y159.4648 F900
G01 X136.3947 F900
G01 Y163.9648 F900
G01 X113.5971 F900
G01 Y168.4648 F900
G01 X136.3947 F900
G01 Y172.9648 F900
G01 X113.5971 F900
G01 Y177.4648 F900
G01 X136.3947 F900
G01 Y181.9648 F900
G01 X113.5971 F900
G01 Y186.4648 F900
G01 X136.3947 F900
G01 Y190.9648 F900
G01 X113.5971 F900
G01 Y195.4648 F900
G01 X136.3947 F900
G01 Y199.9648 F900
G01 X113.5971 F900
G01 Y204.4648 F900
G01 X136.3947 F900
G01 Y208.9648 F900
G01 X113.5971 F900
G01 Y213.4648 F900
G01 X136.3947 F900
G01 Y217.9648 F900
G01 X113.5971 F900
G01 Y222.4648 F900
G01 X136.3947 F900
G01 Y226.9648 F900
G01 X113.5971 F900
G01 Y231.4648 F900
G01 X136.3947 F900
G01 Y235.9648 F900
G01 X113.5971 F900
G01 Y240.4648 F900
G01 X136.3947 F900
G01 Y244.9648 F900
G01 X113.5971 F900
G01 Y249.4648 F900
G01 X136.3947 F900
G01 Y253.9648 F900
G01 X113.5971 F900
G01 Y258.4648 F900
G01 X136.3947 F900
G01 Y262.9648 F900
G01 X113.5971 F900
G01 Y267.4648 F900
G01 X136.3947 F900
G01 Y271.9648 F900
G01 X113.5971 F900
G01 Y276.4648 F900
G01 X136.3947 F900
G01 Y280.9648 F900
G01 X113.5971 F900
G01 X112.9971 Y280.9041 F900
G01 Y283.8648 F900
G01 X136.9947 F900
G01 Y35.0648 F900
G01 X112.9971 F900
G01 Y280.9041 F900
G01 X113.5971 Y280.9648 F900
G01 Z-3.0000 F100
G01 X136.3947 F900
G01 Y276.4648 F900
G01 X113.5971 F900
G01 Y271.9648 F900
G01 X136.3947 F900
G01 Y267.4648 F900
G01 X113.5971 F900
G01 Y262.9648 F900
G01 X136.3947 F900
G01 Y258.4648 F900
G01 X113.5971 F900
G01 Y253.9648 F900
G01 X136.3947 F900
G01 Y249.4648 F900
G01 X113.5971 F900
G01 Y244.9648 F900
G01 X136.3947 F900
G01 Y240.4648 F900
G01 X113.5971 F900
G01 Y235.9648 F900
G01 X136.3947 F900
G01 Y231.4648 F900
G01 X113.5971 F900
G01 Y226.9648 F900
G01 X136.3947 F900
G01 Y222.4648 F900
G01 X113.5971 F900
G01 Y217.9648 F900
G01 X136.3947 F900
G01 Y213.4648 F900
G01 X113.5971 F900
G01 Y208.9648 F900
G01 X136.3947 F900
G01 Y204.4648 F900
G01 X113.5971 F900
G01 Y199.9648 F900
G01 X136.3947 F900
G01 Y195.4648 F900
G01 X113.5971 F900
G01 Y190.9648 F900
G01 X136.3947 F900
G01 Y186.4648 F900
G01 X113.5971 F900
G01 Y181.9648 F900
G01 X136.3947 F900
G01 Y177.4648 F900
G01 X113.5971 F900
G01 Y172.9648 F900
G01 X136.3947 F900
G01 Y168.4648 F900
G01 X113.5971 F900
G01 Y163.9648 F900
G01 X136.3947 F900
G01 Y159.4648 F900
G01 X113.5971 F900
G01 Y154.9648 F900
G01 X136.3947 F900
G01 Y150.4648 F900
G01 X113.5971 F900
G01 Y145.9648 F900
G01 X136.3947 F900
G01 Y141.4648 F900
G01 X113.5971 F900
G01 Y136.9648 F900
G01 X136.3947 F900
G01 Y132.4648 F900
G01 X113.5971 F900
G01 Y127.9648 F900
G01 X136.3947 F900
G01 Y123.4648 F900
G01 X113.5971 F900
G01 Y118.9648 F900
G01 X136.3947 F900
G01 Y114.4648 F900
G01 X113.5971 F900
G01 Y109.9648 F900
G01 X136.3947 F900
G01 Y105.4648 F900
G01 X113.5971 F900
G01 Y100.9648 F900
G01 X136.3947 F900
G01 Y96.4648 F900
G01 X113.5971 F900
G01 Y91.9648 F900
G01 X136.3947 F900
G01 Y87.4648 F900
G01 X113.5971 F900
G01 Y82.9648 F900
G01 X136.3947 F900
G01 Y78.4648 F900
G01 X113.5971 F900
G01 Y73.9648 F900
G01 X136.3947 F900
G01 Y69.4648 F900
G01 X113.5971 F900
G01 Y64.9648 F900
G01 X136.3947 F900
G01 Y60.4648 F900
G01 X113.5971 F900
G01 Y55.9648 F900
G01 X136.3947 F900
G01 Y51.4648 F900
G01 X113.5971 F900
G01 Y46.9648 F900
G01 X136.3947 F900
G01 Y42.4648 F900
G01 X113.5971 F900
G01 Y37.9648 F900
G01 X136.3947 F900
G01 X136.9947 Y38.0255 F900
G01 Y35.0648 F900
G01 X112.9971 F900
G01 Y283.8648 F900
G01 X136.9947 F900
G01 Y38.0255 F900
G01 X136.3947 Y37.9648 F900
G00 Z30.0000 F480


;No. 18: Ausschnitt 46
G00 X183.5999 Y36.9324 Z30.0000 F2100
G00 Z0.5000 F480
G01 Z0.0000 F100
G01 Z-2.0000 F100
G01 X206.3999 F900
G01 Y41.4324 F900
G01 X183.5999 F900
G01 X183.5998 Y45.9324 F900
G01 X206.3998 F900
G01 Y50.4324 F900
G01 X183.5998 F900
G01 X183.5997 Y54.9324 F900
G01 X206.3997 F900
G01 Y59.4324 F900
G01 X183.5997 F900
G01 X183.5996 Y63.9324 F900
G01 X206.3996 F900
G01 Y68.4324 F900
G01 X183.5996 F900
G01 X183.5995 Y72.9324 F900
G01 X206.3995 F900
G01 Y77.4324 F900
G01 X183.5995 F900
G01 X183.5994 Y81.9324 F900
G01 X206.3994 F900
G01 Y86.4324 F900
G01 X183.5994 F900
G01 X183.5993 Y90.9324 F900
G01 X206.3993 F900
G01 Y95.4324 F900
G01 X183.5993 F900
G01 X183.5992 Y99.9324 F900
G01 X206.3992 F900
G01 Y104.4324 F900
G01 X183.5992 F900
G01 X183.5991 Y108.9324 F900
G01 X206.3991 F900
G01 Y113.4324 F900
G01 X183.5991 F900
G01 X183.5990 Y117.9324 F900
G01 X206.3990 F900
G01 Y122.4324 F900
G01 X183.5990 F900
G01 X183.5989 Y126.9324 F900
G01 X206.3989 F900
G01 Y131.4324 F900
G01 X183.5989 F900
G01 X183.5988 Y135.9324 F900
G01 X206.3988 F900
G01 Y140.4324 F900
G01 X183.5988 F900
G01 X183.5987 Y144.9324 F900
G01 X206.3987 F900
G01 Y149.4324 F900
G01 X183.5987 F900
G01 X183.5986 Y153.9324 F900
G01 X206.3986 F900
G01 Y158.4324 F900
G01 X183.5986 F900
G01 X183.5985 Y162.9324 F900
G01 X206.3985 F900
G01 Y167.4324 F900
G01 X183.5985 F900
G01 X183.5984 Y171.9324 F900
G01 X206.3984 F900
G01 Y176.4324 F900
G01 X183.5984 F900
G01 X183.5983 Y180.9324 F900
G01 X206.3983 F900
G01 Y185.4324 F900
G01 X183.5983 F900
G01 X183.5982 Y189.9324 F900
G01 X206.3982 F900
G01 Y194.4324 F900
G01 X183.5982 F900
G01 X183.5981 Y198.9324 F900
G01 X206.3981 F900
G01 Y203.4324 F900
G01 X183.5981 F900
G01 X183.5980 Y207.9324 F900
G01 X206.3980 F900
G01 Y212.4324 F900
G01 X183.5980 F900
G01 Y216.9324 F900
G01 X206.3980 F900
G01 X206.3979 Y221.4324 F900
G01 X183.5979 F900
G01 Y225.9324 F900
G01 X206.3979 F900
G01 X206.3978 Y230.4324 F900
G01 X183.5978 F900
G01 Y234.9324 F900
G01 X206.3978 F900
G01 X206.3977 Y239.4324 F900
G01 X183.5977 F900
G01 Y243.9324 F900
G01 X206.3977 F900
G01 X206.3976 Y248.4324 F900
G01 X183.5976 F900
G01 Y252.9324 F900
G01 X206.3976 F900
G01 X206.3975 Y257.4324 F900
G01 X183.5975 F900
G01 Y261.9324 F900
G01 X206.3975 F900
G01 X206.3974 Y266.4324 F900
G01 X183.5974 F900
G01 Y270.9324 F900
G01 X206.3974 F900
G01 X206.3973 Y275.4324 F900
G01 X183.5973 F900
G01 Y279.9324 F900
G01 X206.3973 F900
G01 X206.9973 Y279.8876 F900
G01 X207.0000 Y33.0000 F900
G01 X183.0000 F900
G01 X182.9972 Y283.8648 F900
G01 X206.9972 F900
G01 X206.9973 Y279.8876 F900
G01 X206.3973 Y279.9324 F900
G01 Z-3.0000 F100
G01 X183.5973 F900
G01 Y275.4324 F900
G01 X206.3973 F900
G01 X206.3974 Y270.9324 F900
G01 X183.5974 F900
G01 Y266.4324 F900
G01 X206.3974 F900
G01 X206.3975 Y261.9324 F900
G01 X183.5975 F900
G01 Y257.4324 F900
G01 X206.3975 F900
G01 X206.3976 Y252.9324 F900
G01 X183.5976 F900
G01 Y248.4324 F900
G01 X206.3976 F900
G01 X206.3977 Y243.9324 F900
G01 X183.5977 F900
G01 Y239.4324 F900
G01 X206.3977 F900
G01 X206.3978 Y234.9324 F900
G01 X183.5978 F900
G01 Y230.4324 F900
G01 X206.3978 F900
G01 X206.3979 Y225.9324 F900
G01 X183.5979 F900
G01 Y221.4324 F900
G01 X206.3979 F900
G01 X206.3980 Y216.9324 F900
G01 X183.5980 F900
G01 Y212.4324 F900
G01 X206.3980 F900
G01 Y207.9324 F900
G01 X183.5980 F900
G01 X183.5981 Y203.4324 F900
G01 X206.3981 F900
G01 Y198.9324 F900
G01 X183.5981 F900
G01 X183.5982 Y194.4324 F900
G01 X206.3982 F900
G01 Y189.9324 F900
G01 X183.5982 F900
G01 X183.5983 Y185.4324 F900
G01 X206.3983 F900
G01 Y180.9324 F900
G01 X183.5983 F900
G01 X183.5984 Y176.4324 F900
G01 X206.3984 F900
G01 Y171.9324 F900
G01 X183.5984 F900
G01 X183.5985 Y167.4324 F900
G01 X206.3985 F900
G01 Y162.9324 F900
G01 X183.5985 F900
G01 X183.5986 Y158.4324 F900
G01 X206.3986 F900
G01 Y153.9324 F900
G01 X183.5986 F900
G01 X183.5987 Y149.4324 F900
G01 X206.3987 F900
G01 Y144.9324 F900
G01 X183.5987 F900
G01 X183.5988 Y140.4324 F900
G01 X206.3988 F900
G01 Y135.9324 F900
G01 X183.5988 F900
G01 X183.5989 Y131.4324 F900
G01 X206.3989 F900
G01 Y126.9324 F900
G01 X183.5989 F900
G01 X183.5990 Y122.4324 F900
G01 X206.3990 F900
G01 Y117.9324 F900
G01 X183.5990 F900
G01 X183.5991 Y113.4324 F900
G01 X206.3991 F900
G01 Y108.9324 F900
G01 X183.5991 F900
G01 X183.5992 Y104.4324 F900
G01 X206.3992 F900
G01 Y99.9324 F900
G01 X183.5992 F900
G01 X183.5993 Y95.4324 F900
G01 X206.3993 F900
G01 Y90.9324 F900
G01 X183.5993 F900
G01 X183.5994 Y86.4324 F900
G01 X206.3994 F900
G01 Y81.9324 F900
G01 X183.5994 F900
G01 X183.5995 Y77.4324 F900
G01 X206.3995 F900
G01 Y72.9324 F900
G01 X183.5995 F900
G01 X183.5996 Y68.4324 F900
G01 X206.3996 F900
G01 Y63.9324 F900
G01 X183.5996 F900
G01 X183.5997 Y59.4324 F900
G01 X206.3997 F900
G01 Y54.9324 F900
G01 X183.5997 F900
G01 X183.5998 Y50.4324 F900
G01 X206.3998 F900
G01 Y45.9324 F900
G01 X183.5998 F900
G01 X183.5999 Y41.4324 F900
G01 X206.3999 F900
G01 Y36.9324 F900
G01 X183.5999 F900
G01 X182.9999 Y36.9772 F900
G01 X182.9972 Y283.8648 F900
G01 X206.9972 F900
G01 X207.0000 Y33.0000 F900
G01 X183.0000 F900
G01 X182.9999 Y36.9772 F900
G01 X183.5999 Y36.9324 F900
G00 Z30.0000 F480


;No. 19: Ausschnitt 38
G00 X213.5972 Y38.3850 Z30.0000 F2100
G00 Z0.5000 F480
G01 Z0.0000 F100
G01 Z-2.0000 F100
G01 X286.5294 F900
G01 Y42.8850 F900
G01 X213.5972 F900
G01 X212.9972 Y42.8543 F900
G01 Y46.2033 F900
G01 X212.1185 Y47.0820 F900
G01 X212.9972 Y46.2033 F900
G01 X287.1294 F900
G01 Y35.1982 F900
G01 X212.9972 Y35.0700 F900
G01 X212.1167 Y34.1880 F900
G01 X212.9972 Y35.0700 F900
G01 Y42.8543 F900
G01 X213.5972 Y42.8850 F900
G01 Z-4.0000 F100
G01 X286.5294 F900
G01 Y38.3850 F900
G01 X213.5972 F900
G01 X212.9972 Y38.4158 F900
G01 Y46.2033 F900
G01 X212.1185 Y47.0820 F900
G01 X212.9972 Y46.2033 F900
G01 X287.1294 F900
G01 Y35.1982 F900
G01 X212.9972 Y35.0700 F900
G01 X212.1167 Y34.1880 F900
G01 X212.9972 Y35.0700 F900
G01 Y38.4158 F900
G01 X213.5972 Y38.3850 F900
G01 Z-6.0000 F100
G01 X286.5294 F900
G01 Y42.8850 F900
G01 X213.5972 F900
G01 X212.9972 Y42.8543 F900
G01 Y46.2033 F900
G01 X212.1185 Y47.0820 F900
G01 X212.9972 Y46.2033 F900
G01 X287.1294 F900
G01 Y35.1982 F900
G01 X212.9972 Y35.0700 F900
G01 X212.1167 Y34.1880 F900
G01 X212.9972 Y35.0700 F900
G01 Y42.8543 F900
G01 X213.5972 Y42.8850 F900
G01 Z-7.0000 F100
G01 X286.5294 F900
G01 Y38.3850 F900
G01 X213.5972 F900
G01 X212.9972 Y38.4158 F900
G01 Y46.2033 F900
G01 X212.1185 Y47.0820 F900
G01 X212.9972 Y46.2033 F900
G01 X287.1294 F900
G01 Y35.1982 F900
G01 X212.9972 Y35.0700 F900
G01 X212.1167 Y34.1880 F900
G01 X212.9972 Y35.0700 F900
G01 Y38.4158 F900
G01 X213.5972 Y38.3850 F900
G00 Z30.0000 F480


;No. 20: Ausschnitt 39
G00 X213.5972 Y80.4533 Z30.0000 F2100
G00 Z0.5000 F480
G01 Z0.0000 F100
G01 Z-2.0000 F100
G01 X286.5294 F900
G01 Y84.9533 F900
G01 X213.5972 F900
G01 X212.9972 Y84.9217 F900
G01 Y88.2033 F900
G01 X212.1185 Y89.0820 F900
G01 X212.9972 Y88.2033 F900
G01 X287.1294 F900
G01 Y77.2033 F900
G01 X212.9972 F900
G01 X212.1185 Y76.3247 F900
G01 X212.9972 Y77.2033 F900
G01 Y84.9217 F900
G01 X213.5972 Y84.9533 F900
G01 Z-4.0000 F100
G01 X286.5294 F900
G01 Y80.4533 F900
G01 X213.5972 F900
G01 X212.9972 Y80.4850 F900
G01 Y88.2033 F900
G01 X212.1185 Y89.0820 F900
G01 X212.9972 Y88.2033 F900
G01 X287.1294 F900
G01 Y77.2033 F900
G01 X212.9972 F900
G01 X212.1185 Y76.3247 F900
G01 X212.9972 Y77.2033 F900
G01 Y80.4850 F900
G01 X213.5972 Y80.4533 F900
G01 Z-6.0000 F100
G01 X286.5294 F900
G01 Y84.9533 F900
G01 X213.5972 F900
G01 X212.9972 Y84.9217 F900
G01 Y88.2033 F900
G01 X212.1185 Y89.0820 F900
G01 X212.9972 Y88.2033 F900
G01 X287.1294 F900
G01 Y77.2033 F900
G01 X212.9972 F900
G01 X212.1185 Y76.3247 F900
G01 X212.9972 Y77.2033 F900
G01 Y84.9217 F900
G01 X213.5972 Y84.9533 F900
G01 Z-7.0000 F100
G01 X286.5294 F900
G01 Y80.4533 F900
G01 X213.5972 F900
G01 X212.9972 Y80.4850 F900
G01 Y88.2033 F900
G01 X212.1185 Y89.0820 F900
G01 X212.9972 Y88.2033 F900
G01 X287.1294 F900
G01 Y77.2033 F900
G01 X212.9972 F900
G01 X212.1185 Y76.3247 F900
G01 X212.9972 Y77.2033 F900
G01 Y80.4850 F900
G01 X213.5972 Y80.4533 F900
G00 Z30.0000 F480


;No. 21: Ausschnitt 40
G00 X213.5972 Y103.4533 Z30.0000 F2100
G00 Z0.5000 F480
G01 Z0.0000 F100
G01 Z-2.0000 F100
G01 X286.5294 F900
G01 Y107.9533 F900
G01 X213.5972 F900
G01 X212.9972 Y107.9217 F900
G01 Y111.2033 F900
G01 X212.1185 Y112.0820 F900
G01 X212.9972 Y111.2033 F900
G01 X287.1294 F900
G01 Y100.2033 F900
G01 X212.9972 F900
G01 X212.1185 Y99.3247 F900
G01 X212.9972 Y100.2033 F900
G01 Y107.9217 F900
G01 X213.5972 Y107.9533 F900
G01 Z-4.0000 F100
G01 X286.5294 F900
G01 Y103.4533 F900
G01 X213.5972 F900
G01 X212.9972 Y103.4850 F900
G01 Y111.2033 F900
G01 X212.1185 Y112.0820 F900
G01 X212.9972 Y111.2033 F900
G01 X287.1294 F900
G01 Y100.2033 F900
G01 X212.9972 F900
G01 X212.1185 Y99.3247 F900
G01 X212.9972 Y100.2033 F900
G01 Y103.4850 F900
G01 X213.5972 Y103.4533 F900
G01 Z-6.0000 F100
G01 X286.5294 F900
G01 Y107.9533 F900
G01 X213.5972 F900
G01 X212.9972 Y107.9217 F900
G01 Y111.2033 F900
G01 X212.1185 Y112.0820 F900
G01 X212.9972 Y111.2033 F900
G01 X287.1294 F900
G01 Y100.2033 F900
G01 X212.9972 F900
G01 X212.1185 Y99.3247 F900
G01 X212.9972 Y100.2033 F900
G01 Y107.9217 F900
G01 X213.5972 Y107.9533 F900
G01 Z-7.0000 F100
G01 X286.5294 F900
G01 Y103.4533 F900
G01 X213.5972 F900
G01 X212.9972 Y103.4850 F900
G01 Y111.2033 F900
G01 X212.1185 Y112.0820 F900
G01 X212.9972 Y111.2033 F900
G01 X287.1294 F900
G01 Y100.2033 F900
G01 X212.9972 F900
G01 X212.1185 Y99.3247 F900
G01 X212.9972 Y100.2033 F900
G01 Y103.4850 F900
G01 X213.5972 Y103.4533 F900
G00 Z30.0000 F480


;No. 22: Ausschnitt 49
G00 X287.1294 Y94.2033 Z30.0000 F2100
G00 Z0.5000 F480
G01 Z0.0000 F100
G01 Z-2.0000 F100
G01 X33.1294 F900
G01 X287.1294 F900
G01 Z-3.0000 F100
G01 X33.1294 F900
G01 X287.1294 F900
G00 Z30.0000 F480


;No. 23: Ausschnitt 52
G00 X286.5294 Y122.2033 Z30.0000 F2100
G00 Z0.5000 F480
G01 Z0.0000 F100
G01 Z-2.0000 F100
G01 X33.7294 F900
G01 Y126.7033 F900
G01 X286.5294 F900
G01 Y131.2033 F900
G01 X33.7294 F900
G01 X33.1294 Y131.1804 F900
G01 Y136.2033 F900
G01 X287.1294 F900
G01 Y117.2033 F900
G01 X33.1294 F900
G01 Y131.1804 F900
G01 X33.7294 Y131.2033 F900
G01 Z-3.0000 F100
G01 X286.5294 F900
G01 Y126.7033 F900
G01 X33.7294 F900
G01 Y122.2033 F900
G01 X286.5294 F900
G01 X287.1294 Y122.2263 F900
G01 Y117.2033 F900
G01 X33.1294 F900
G01 Y136.2033 F900
G01 X287.1294 F900
G01 Y122.2263 F900
G01 X286.5294 Y122.2033 F900
G00 Z30.0000 F480


;No. 24: Ausschnitt 68
G00 X286.5294 Y145.4533 Z30.0000 F2100
G00 Z0.5000 F480
G01 Z0.0000 F100
G01 Z-2.0000 F100
G01 X213.5972 F900
G01 Y149.9533 F900
G01 X286.5294 F900
G01 X287.1294 Y149.9217 F900
G01 Y142.2033 F900
G01 X212.9972 F900
G01 X212.1185 Y141.3247 F900
G01 X212.9972 Y142.2033 F900
G01 Y153.2033 F900
G01 X212.1185 Y154.0820 F900
G01 X212.9972 Y153.2033 F900
G01 X287.1294 F900
G01 Y149.9217 F900
G01 X286.5294 Y149.9533 F900
G01 Z-4.0000 F100
G01 X213.5972 F900
G01 Y145.4533 F900
G01 X286.5294 F900
G01 X287.1294 Y145.4850 F900
G01 Y142.2033 F900
G01 X212.9972 F900
G01 X212.1185 Y141.3247 F900
G01 X212.9972 Y142.2033 F900
G01 Y153.2033 F900
G01 X212.1185 Y154.0820 F900
G01 X212.9972 Y153.2033 F900
G01 X287.1294 F900
G01 Y145.4850 F900
G01 X286.5294 Y145.4533 F900
G01 Z-6.0000 F100
G01 X213.5972 F900
G01 Y149.9533 F900
G01 X286.5294 F900
G01 X287.1294 Y149.9217 F900
G01 Y142.2033 F900
G01 X212.9972 F900
G01 X212.1185 Y141.3247 F900
G01 X212.9972 Y142.2033 F900
G01 Y153.2033 F900
G01 X212.1185 Y154.0820 F900
G01 X212.9972 Y153.2033 F900
G01 X287.1294 F900
G01 Y149.9217 F900
G01 X286.5294 Y149.9533 F900
G01 Z-7.0000 F100
G01 X213.5972 F900
G01 Y145.4533 F900
G01 X286.5294 F900
G01 X287.1294 Y145.4850 F900
G01 Y142.2033 F900
G01 X212.9972 F900
G01 X212.1185 Y141.3247 F900
G01 X212.9972 Y142.2033 F900
G01 Y153.2033 F900
G01 X212.1185 Y154.0820 F900
G01 X212.9972 Y153.2033 F900
G01 X287.1294 F900
G01 Y145.4850 F900
G01 X286.5294 Y145.4533 F900
G00 Z30.0000 F480


;No. 25: Ausschnitt 48
G00 X287.0000 Y159.2033 Z30.0000 F2100
G00 Z0.5000 F480
G01 Z0.0000 F100
G01 Z-2.0000 F100
G01 X33.0054 F900
G01 X32.9942 Y159.4679 F900
G01 X286.9888 F900
G01 X287.0000 Y159.2033 F900
G01 Z-3.0000 F100
G01 X33.0054 F900
G01 X32.9942 Y159.4679 F900
G01 X286.9888 F900
G01 X287.0000 Y159.2033 F900
G00 Z30.0000 F480


;No. 26: Ausschnitt 67
G00 X286.2648 Y168.7179 Z30.0000 F2100
G00 Z0.5000 F480
G01 Z0.0000 F100
G01 Z-2.0000 F100
G01 X213.5972 F900
G01 Y173.2179 F900
G01 X286.2648 F900
G01 X286.8648 Y173.1863 F900
G01 Y165.4679 F900
G01 X212.9972 F900
G01 X212.1185 Y164.5893 F900
G01 X212.9972 Y165.4679 F900
G01 Y176.4679 F900
G01 X212.1185 Y177.3466 F900
G01 X212.9972 Y176.4679 F900
G01 X286.8648 F900
G01 Y173.1863 F900
G01 X286.2648 Y173.2179 F900
G01 Z-4.0000 F100
G01 X213.5972 F900
G01 Y168.7179 F900
G01 X286.2648 F900
G01 X286.8648 Y168.7495 F900
G01 Y165.4679 F900
G01 X212.9972 F900
G01 X212.1185 Y164.5893 F900
G01 X212.9972 Y165.4679 F900
G01 Y176.4679 F900
G01 X212.1185 Y177.3466 F900
G01 X212.9972 Y176.4679 F900
G01 X286.8648 F900
G01 Y168.7495 F900
G01 X286.2648 Y168.7179 F900
G01 Z-6.0000 F100
G01 X213.5972 F900
G01 Y173.2179 F900
G01 X286.2648 F900
G01 X286.8648 Y173.1863 F900
G01 Y165.4679 F900
G01 X212.9972 F900
G01 X212.1185 Y164.5893 F900
G01 X212.9972 Y165.4679 F900
G01 Y176.4679 F900
G01 X212.1185 Y177.3466 F900
G01 X212.9972 Y176.4679 F900
G01 X286.8648 F900
G01 Y173.1863 F900
G01 X286.2648 Y173.2179 F900
G01 Z-7.0000 F100
G01 X213.5972 F900
G01 Y168.7179 F900
G01 X286.2648 F900
G01 X286.8648 Y168.7495 F900
G01 Y165.4679 F900
G01 X212.9972 F900
G01 X212.1185 Y164.5893 F900
G01 X212.9972 Y165.4679 F900
G01 Y176.4679 F900
G01 X212.1185 Y177.3466 F900
G01 X212.9972 Y176.4679 F900
G01 X286.8648 F900
G01 Y168.7495 F900
G01 X286.2648 Y168.7179 F900
G00 Z30.0000 F480


;No. 27: Ausschnitt 51
G00 X286.2648 Y187.4679 Z30.0000 F2100
G00 Z0.5000 F480
G01 Z0.0000 F100
G01 Z-2.0000 F100
G01 X33.4648 F900
G01 Y191.9679 F900
G01 X286.2648 F900
G01 Y196.4679 F900
G01 X33.4648 F900
G01 X32.8648 Y196.4449 F900
G01 Y201.4679 F900
G01 X286.8648 F900
G01 Y182.4679 F900
G01 X32.8648 F900
G01 Y196.4449 F900
G01 X33.4648 Y196.4679 F900
G01 Z-3.0000 F100
G01 X286.2648 F900
G01 Y191.9679 F900
G01 X33.4648 F900
G01 Y187.4679 F900
G01 X286.2648 F900
G01 X286.8648 Y187.4909 F900
G01 Y182.4679 F900
G01 X32.8648 F900
G01 Y201.4679 F900
G01 X286.8648 F900
G01 Y187.4909 F900
G01 X286.2648 Y187.4679 F900
G00 Z30.0000 F480


;No. 28: Ausschnitt 63
G00 X286.2648 Y210.7179 Z30.0000 F2100
G00 Z0.5000 F480
G01 Z0.0000 F100
G01 Z-2.0000 F100
G01 X213.5972 F900
G01 Y215.2179 F900
G01 X286.2648 F900
G01 X286.8648 Y215.1863 F900
G01 Y207.4679 F900
G01 X212.9972 F900
G01 X212.1185 Y206.5893 F900
G01 X212.9972 Y207.4679 F900
G01 Y218.4679 F900
G01 X212.1185 Y219.3466 F900
G01 X212.9972 Y218.4679 F900
G01 X286.8648 F900
G01 Y215.1863 F900
G01 X286.2648 Y215.2179 F900
G01 Z-4.0000 F100
G01 X213.5972 F900
G01 Y210.7179 F900
G01 X286.2648 F900
G01 X286.8648 Y210.7495 F900
G01 Y207.4679 F900
G01 X212.9972 F900
G01 X212.1185 Y206.5893 F900
G01 X212.9972 Y207.4679 F900
G01 Y218.4679 F900
G01 X212.1185 Y219.3466 F900
G01 X212.9972 Y218.4679 F900
G01 X286.8648 F900
G01 Y210.7495 F900
G01 X286.2648 Y210.7179 F900
G01 Z-6.0000 F100
G01 X213.5972 F900
G01 Y215.2179 F900
G01 X286.2648 F900
G01 X286.8648 Y215.1863 F900
G01 Y207.4679 F900
G01 X212.9972 F900
G01 X212.1185 Y206.5893 F900
G01 X212.9972 Y207.4679 F900
G01 Y218.4679 F900
G01 X212.1185 Y219.3466 F900
G01 X212.9972 Y218.4679 F900
G01 X286.8648 F900
G01 Y215.1863 F900
G01 X286.2648 Y215.2179 F900
G01 Z-7.0000 F100
G01 X213.5972 F900
G01 Y210.7179 F900
G01 X286.2648 F900
G01 X286.8648 Y210.7495 F900
G01 Y207.4679 F900
G01 X212.9972 F900
G01 X212.1185 Y206.5893 F900
G01 X212.9972 Y207.4679 F900
G01 Y218.4679 F900
G01 X212.1185 Y219.3466 F900
G01 X212.9972 Y218.4679 F900
G01 X286.8648 F900
G01 Y210.7495 F900
G01 X286.2648 Y210.7179 F900
G00 Z30.0000 F480


;No. 29: Ausschnitt 62
G00 X286.2648 Y233.9825 Z30.0000 F2100
G00 Z0.5000 F480
G01 Z0.0000 F100
G01 Z-2.0000 F100
G01 X213.5972 F900
G01 Y238.4825 F900
G01 X286.2648 F900
G01 X286.8648 Y238.4509 F900
G01 Y230.7325 F900
G01 X212.9972 F900
G01 X212.1185 Y229.8538 F900
G01 X212.9972 Y230.7325 F900
G01 Y241.7325 F900
G01 X212.1185 Y242.6112 F900
G01 X212.9972 Y241.7325 F900
G01 X286.8648 F900
G01 Y238.4509 F900
G01 X286.2648 Y238.4825 F900
G01 Z-4.0000 F100
G01 X213.5972 F900
G01 Y233.9825 F900
G01 X286.2648 F900
G01 X286.8648 Y234.0141 F900
G01 Y230.7325 F900
G01 X212.9972 F900
G01 X212.1185 Y229.8538 F900
G01 X212.9972 Y230.7325 F900
G01 Y241.7325 F900
G01 X212.1185 Y242.6112 F900
G01 X212.9972 Y241.7325 F900
G01 X286.8648 F900
G01 Y234.0141 F900
G01 X286.2648 Y233.9825 F900
G01 Z-6.0000 F100
G01 X213.5972 F900
G01 Y238.4825 F900
G01 X286.2648 F900
G01 X286.8648 Y238.4509 F900
G01 Y230.7325 F900
G01 X212.9972 F900
G01 X212.1185 Y229.8538 F900
G01 X212.9972 Y230.7325 F900
G01 Y241.7325 F900
G01 X212.1185 Y242.6112 F900
G01 X212.9972 Y241.7325 F900
G01 X286.8648 F900
G01 Y238.4509 F900
G01 X286.2648 Y238.4825 F900
G01 Z-7.0000 F100
G01 X213.5972 F900
G01 Y233.9825 F900
G01 X286.2648 F900
G01 X286.8648 Y234.0141 F900
G01 Y230.7325 F900
G01 X212.9972 F900
G01 X212.1185 Y229.8538 F900
G01 X212.9972 Y230.7325 F900
G01 Y241.7325 F900
G01 X212.1185 Y242.6112 F900
G01 X212.9972 Y241.7325 F900
G01 X286.8648 F900
G01 Y234.0141 F900
G01 X286.2648 Y233.9825 F900
G00 Z30.0000 F480


;No. 30: Ausschnitt 50
G00 X286.2648 Y252.7325 Z30.0000 F2100
G00 Z0.5000 F480
G01 Z0.0000 F100
G01 Z-2.0000 F100
G01 X33.4648 F900
G01 Y257.2325 F900
G01 X286.2648 F900
G01 Y261.7325 F900
G01 X33.4648 F900
G01 X32.8648 Y261.7095 F900
G01 Y266.7325 F900
G01 X286.8648 F900
G01 Y247.7325 F900
G01 X32.8648 F900
G01 Y261.7095 F900
G01 X33.4648 Y261.7325 F900
G01 Z-3.0000 F100
G01 X286.2648 F900
G01 Y257.2325 F900
G01 X33.4648 F900
G01 Y252.7325 F900
G01 X286.2648 F900
G01 X286.8648 Y252.7555 F900
G01 Y247.7325 F900
G01 X32.8648 F900
G01 Y266.7325 F900
G01 X286.8648 F900
G01 Y252.7555 F900
G01 X286.2648 Y252.7325 F900
G00 Z30.0000 F480


;No. 31: Ausschnitt 70
G00 X286.2648 Y276.0487 Z30.0000 F2100
G00 Z0.5000 F480
G01 Z0.0000 F100
G01 Z-2.0000 F100
G01 X213.5972 F900
G01 Y280.5487 F900
G01 X286.2648 F900
G01 X286.8648 Y280.5179 F900
G01 Y272.7325 F900
G01 X212.9972 F900
G01 X212.1185 Y271.8538 F900
G01 X212.9972 Y272.7325 F900
G01 Y283.8648 F900
G01 X212.1185 Y284.7435 F900
G01 X212.9972 Y283.8648 F900
G01 X286.8648 F900
G01 Y280.5179 F900
G01 X286.2648 Y280.5487 F900
G01 Z-4.0000 F100
G01 X213.5972 F900
G01 Y276.0487 F900
G01 X286.2648 F900
G01 X286.8648 Y276.0794 F900
G01 Y272.7325 F900
G01 X212.9972 F900
G01 X212.1185 Y271.8538 F900
G01 X212.9972 Y272.7325 F900
G01 Y283.8648 F900
G01 X212.1185 Y284.7435 F900
G01 X212.9972 Y283.8648 F900
G01 X286.8648 F900
G01 Y276.0794 F900
G01 X286.2648 Y276.0487 F900
G01 Z-6.0000 F100
G01 X213.5972 F900
G01 Y280.5487 F900
G01 X286.2648 F900
G01 X286.8648 Y280.5179 F900
G01 Y272.7325 F900
G01 X212.9972 F900
G01 X212.1185 Y271.8538 F900
G01 X212.9972 Y272.7325 F900
G01 Y283.8648 F900
G01 X212.1185 Y284.7435 F900
G01 X212.9972 Y283.8648 F900
G01 X286.8648 F900
G01 Y280.5179 F900
G01 X286.2648 Y280.5487 F900
G01 Z-7.0000 F100
G01 X213.5972 F900
G01 Y276.0487 F900
G01 X286.2648 F900
G01 X286.8648 Y276.0794 F900
G01 Y272.7325 F900
G01 X212.9972 F900
G01 X212.1185 Y271.8538 F900
G01 X212.9972 Y272.7325 F900
G01 Y283.8648 F900
G01 X212.1185 Y284.7435 F900
G01 X212.9972 Y283.8648 F900
G01 X286.8648 F900
G01 Y276.0794 F900
G01 X286.2648 Y276.0487 F900
G00 Z30.0000 F480


;No. 32: Ausschnitt 53
G00 X286.5294 Y66.2033 Z30.0000 F2100
G00 Z0.5000 F480
G01 Z0.0000 F100
G01 Z-2.0000 F100
G01 X33.7294 F900
G01 Y61.7033 F900
G01 X286.5294 F900
G01 Y57.2033 F900
G01 X33.7294 F900
G01 X33.1294 Y57.2263 F900
G01 Y71.2033 F900
G01 X287.1294 F900
G01 Y52.2033 F900
G01 X33.1294 F900
G01 Y57.2263 F900
G01 X33.7294 Y57.2033 F900
G01 Z-3.0000 F100
G01 X286.5294 F900
G01 Y61.7033 F900
G01 X33.7294 F900
G01 Y66.2033 F900
G01 X286.5294 F900
G01 X287.1294 Y66.1804 F900
G01 Y52.2033 F900
G01 X33.1294 F900
G01 Y71.2033 F900
G01 X287.1294 F900
G01 Y66.1804 F900
G01 X286.5294 Y66.2033 F900
G00 Z30.0000 F480


;No. 33: Ausschnitt 44
G00 X287.1263 Y32.3356 Z30.0000 F2100
G00 Z0.5000 F480
G01 Z0.0000 F100
G01 Z-2.0000 F100
G01 X33.1263 F900
G01 X32.2496 Y31.4580 F900
G01 X33.1263 Y32.3356 F900
G01 X32.8679 Y286.8648 F900
G01 X31.9872 Y287.7446 F900
G01 X32.8679 Y286.8648 F900
G01 X286.8678 F900
G01 X287.7446 Y287.7424 F900
G01 X286.8678 Y286.8648 F900
G01 X287.1263 Y32.3356 F900
G01 X288.0070 Y31.4559 F900
G01 X287.1263 Y32.3356 F900
G01 Z-3.0000 F100
G01 X33.1263 F900
G01 X32.2496 Y31.4580 F900
G01 X33.1263 Y32.3356 F900
G01 X32.8679 Y286.8648 F900
G01 X31.9872 Y287.7446 F900
G01 X32.8679 Y286.8648 F900
G01 X286.8678 F900
G01 X287.7446 Y287.7424 F900
G01 X286.8678 Y286.8648 F900
G01 X287.1263 Y32.3356 F900
G01 X288.0070 Y31.4559 F900
G01 X287.1263 Y32.3356 F900
G00 Z30.0000 F480


;No. 34: Ausschnitt 54
G00 X106.3971 Y145.4533 Z30.0000 F2100
G00 Z0.5000 F480
G01 Z0.0000 F100
G01 Z-2.0000 F100
G01 X33.7294 F900
G01 Y149.9533 F900
G01 X106.3971 F900
G01 X106.9971 Y149.9217 F900
G01 Y142.2033 F900
G01 X107.8758 Y141.3247 F900
G01 X106.9971 Y142.2033 F900
G01 X33.1294 F900
G01 Y153.2033 F900
G01 X106.9971 F900
G01 X107.8758 Y154.0820 F900
G01 X106.9971 Y153.2033 F900
G01 Y149.9217 F900
G01 X106.3971 Y149.9533 F900
G01 Z-4.0000 F100
G01 X33.7294 F900
G01 Y145.4533 F900
G01 X106.3971 F900
G01 X106.9971 Y145.4850 F900
G01 Y142.2033 F900
G01 X107.8758 Y141.3247 F900
G01 X106.9971 Y142.2033 F900
G01 X33.1294 F900
G01 Y153.2033 F900
G01 X106.9971 F900
G01 X107.8758 Y154.0820 F900
G01 X106.9971 Y153.2033 F900
G01 Y145.4850 F900
G01 X106.3971 Y145.4533 F900
G01 Z-6.0000 F100
G01 X33.7294 F900
G01 Y149.9533 F900
G01 X106.3971 F900
G01 X106.9971 Y149.9217 F900
G01 Y142.2033 F900
G01 X107.8758 Y141.3247 F900
G01 X106.9971 Y142.2033 F900
G01 X33.1294 F900
G01 Y153.2033 F900
G01 X106.9971 F900
G01 X107.8758 Y154.0820 F900
G01 X106.9971 Y153.2033 F900
G01 Y149.9217 F900
G01 X106.3971 Y149.9533 F900
G01 Z-7.0000 F100
G01 X33.7294 F900
G01 Y145.4533 F900
G01 X106.3971 F900
G01 X106.9971 Y145.4850 F900
G01 Y142.2033 F900
G01 X107.8758 Y141.3247 F900
G01 X106.9971 Y142.2033 F900
G01 X33.1294 F900
G01 Y153.2033 F900
G01 X106.9971 F900
G01 X107.8758 Y154.0820 F900
G01 X106.9971 Y153.2033 F900
G01 Y145.4850 F900
G01 X106.3971 Y145.4533 F900
G00 Z30.0000 F480
G00 X0.0000 Y0.0000 F2100

M05
