;Project Frame NeoPixel 32x32
;Created by Estlcam version 11 build 11,244
;Machining time about 03:46:26 hours

G90
M03 S30000
G00 Z30.0000 F480


;No. 1: Ausschnitt 28
G00 X33.7294 Y38.3872 F2100
G00 Z0.5000 F480
G01 Z0.0000 F100 S30000
G01 Z-2.0000 F100
G01 X106.3971 F900
G01 Y42.8872 F900
G01 X33.7294 F900
G01 X33.1294 Y42.8568 F900
G01 Y46.2033 F900
G01 X106.9971 F900
G01 Y35.0700 F900
G01 X33.1294 Y35.1981 F900
G01 Y42.8568 F900
G01 X33.7294 Y42.8872 F900
G01 Z-4.0000 F100
G01 X106.3971 F900
G01 Y38.3872 F900
G01 X33.7294 F900
G01 X33.1294 Y38.4200 F900
G01 Y46.2033 F900
G01 X106.9971 F900
G01 Y35.0700 F900
G01 X33.1294 Y35.1981 F900
G01 Y38.4200 F900
G01 X33.7294 Y38.3872 F900
G01 Z-6.0000 F100
G01 X106.3971 F900
G01 Y42.8872 F900
G01 X33.7294 F900
G01 X33.1294 Y42.8568 F900
G01 Y46.2033 F900
G01 X106.9971 F900
G01 Y35.0700 F900
G01 X33.1294 Y35.1981 F900
G01 Y42.8568 F900
G01 X33.7294 Y42.8872 F900
G01 Z-8.0000 F100
G01 X106.3971 F900
G01 Y38.3872 F900
G01 X33.7294 F900
G01 X33.1294 Y38.4200 F900
G01 Y46.2033 F900
G01 X106.9971 F900
G01 Y35.0700 F900
G01 X33.1294 Y35.1981 F900
G01 Y38.4200 F900
G01 X33.7294 Y38.3872 F900
G01 Z-10.0000 F100
G01 X106.3971 F900
G01 Y42.8872 F900
G01 X33.7294 F900
G01 X33.1294 Y42.8568 F900
G01 Y46.2033 F900
G01 X106.9971 F900
G01 Y35.0700 F900
G01 X33.1294 Y35.1981 F900
G01 Y42.8568 F900
G01 X33.7294 Y42.8872 F900
G01 Z-12.0000 F100
G01 X106.3971 F900
G01 Y38.3872 F900
G01 X33.7294 F900
G01 X33.1294 Y38.4200 F900
G01 Y46.2033 F900
G01 X106.9971 F900
G01 Y35.0700 F900
G01 X33.1294 Y35.1981 F900
G01 Y38.4200 F900
G01 X33.7294 Y38.3872 F900
G01 Z-13.0000 F100
G01 X106.3971 F900
G01 Y42.8872 F900
G01 X33.7294 F900
G01 X33.1294 Y42.8568 F900
G01 Y46.2033 F900
G01 X106.9971 F900
G01 Y35.0700 F900
G01 X33.1294 Y35.1981 F900
G01 Y42.8568 F900
G01 X33.7294 Y42.8872 F900
G00 Z30.0000 F480


;No. 2: Ausschnitt 37
G00 X33.7294 Y80.4533 Z30.0000 F2100
G00 Z0.5000 F480
G01 Z0.0000 F100
G01 Z-2.0000 F100
G01 X106.3971 F900
G01 Y84.9533 F900
G01 X33.7294 F900
G01 X33.1294 Y84.9217 F900
G01 Y88.2033 F900
G01 X106.9971 F900
G01 Y77.2033 F900
G01 X33.1294 F900
G01 Y84.9217 F900
G01 X33.7294 Y84.9533 F900
G01 Z-4.0000 F100
G01 X106.3971 F900
G01 Y80.4533 F900
G01 X33.7294 F900
G01 X33.1294 Y80.4850 F900
G01 Y88.2033 F900
G01 X106.9971 F900
G01 Y77.2033 F900
G01 X33.1294 F900
G01 Y80.4850 F900
G01 X33.7294 Y80.4533 F900
G01 Z-6.0000 F100
G01 X106.3971 F900
G01 Y84.9533 F900
G01 X33.7294 F900
G01 X33.1294 Y84.9217 F900
G01 Y88.2033 F900
G01 X106.9971 F900
G01 Y77.2033 F900
G01 X33.1294 F900
G01 Y84.9217 F900
G01 X33.7294 Y84.9533 F900
G01 Z-8.0000 F100
G01 X106.3971 F900
G01 Y80.4533 F900
G01 X33.7294 F900
G01 X33.1294 Y80.4850 F900
G01 Y88.2033 F900
G01 X106.9971 F900
G01 Y77.2033 F900
G01 X33.1294 F900
G01 Y80.4850 F900
G01 X33.7294 Y80.4533 F900
G01 Z-10.0000 F100
G01 X106.3971 F900
G01 Y84.9533 F900
G01 X33.7294 F900
G01 X33.1294 Y84.9217 F900
G01 Y88.2033 F900
G01 X106.9971 F900
G01 Y77.2033 F900
G01 X33.1294 F900
G01 Y84.9217 F900
G01 X33.7294 Y84.9533 F900
G01 Z-12.0000 F100
G01 X106.3971 F900
G01 Y80.4533 F900
G01 X33.7294 F900
G01 X33.1294 Y80.4850 F900
G01 Y88.2033 F900
G01 X106.9971 F900
G01 Y77.2033 F900
G01 X33.1294 F900
G01 Y80.4850 F900
G01 X33.7294 Y80.4533 F900
G01 Z-13.0000 F100
G01 X106.3971 F900
G01 Y84.9533 F900
G01 X33.7294 F900
G01 X33.1294 Y84.9217 F900
G01 Y88.2033 F900
G01 X106.9971 F900
G01 Y77.2033 F900
G01 X33.1294 F900
G01 Y84.9217 F900
G01 X33.7294 Y84.9533 F900
G00 Z30.0000 F480


;No. 3: Ausschnitt 41
G00 X33.7294 Y103.4533 Z30.0000 F2100
G00 Z0.5000 F480
G01 Z0.0000 F100
G01 Z-2.0000 F100
G01 X106.3971 F900
G01 Y107.9533 F900
G01 X33.7294 F900
G01 X33.1294 Y107.9217 F900
G01 Y111.2033 F900
G01 X106.9971 F900
G01 Y100.2033 F900
G01 X33.1294 F900
G01 Y107.9217 F900
G01 X33.7294 Y107.9533 F900
G01 Z-4.0000 F100
G01 X106.3971 F900
G01 Y103.4533 F900
G01 X33.7294 F900
G01 X33.1294 Y103.4850 F900
G01 Y111.2033 F900
G01 X106.9971 F900
G01 Y100.2033 F900
G01 X33.1294 F900
G01 Y103.4850 F900
G01 X33.7294 Y103.4533 F900
G01 Z-6.0000 F100
G01 X106.3971 F900
G01 Y107.9533 F900
G01 X33.7294 F900
G01 X33.1294 Y107.9217 F900
G01 Y111.2033 F900
G01 X106.9971 F900
G01 Y100.2033 F900
G01 X33.1294 F900
G01 Y107.9217 F900
G01 X33.7294 Y107.9533 F900
G01 Z-8.0000 F100
G01 X106.3971 F900
G01 Y103.4533 F900
G01 X33.7294 F900
G01 X33.1294 Y103.4850 F900
G01 Y111.2033 F900
G01 X106.9971 F900
G01 Y100.2033 F900
G01 X33.1294 F900
G01 Y103.4850 F900
G01 X33.7294 Y103.4533 F900
G01 Z-10.0000 F100
G01 X106.3971 F900
G01 Y107.9533 F900
G01 X33.7294 F900
G01 X33.1294 Y107.9217 F900
G01 Y111.2033 F900
G01 X106.9971 F900
G01 Y100.2033 F900
G01 X33.1294 F900
G01 Y107.9217 F900
G01 X33.7294 Y107.9533 F900
G01 Z-12.0000 F100
G01 X106.3971 F900
G01 Y103.4533 F900
G01 X33.7294 F900
G01 X33.1294 Y103.4850 F900
G01 Y111.2033 F900
G01 X106.9971 F900
G01 Y100.2033 F900
G01 X33.1294 F900
G01 Y103.4850 F900
G01 X33.7294 Y103.4533 F900
G01 Z-13.0000 F100
G01 X106.3971 F900
G01 Y107.9533 F900
G01 X33.7294 F900
G01 X33.1294 Y107.9217 F900
G01 Y111.2033 F900
G01 X106.9971 F900
G01 Y100.2033 F900
G01 X33.1294 F900
G01 Y107.9217 F900
G01 X33.7294 Y107.9533 F900
G00 Z30.0000 F480


;No. 4: Ausschnitt 54
G00 X33.7294 Y145.4533 Z30.0000 F2100
G00 Z0.5000 F480
G01 Z0.0000 F100
G01 Z-2.0000 F100
G01 X106.3971 F900
G01 Y149.9533 F900
G01 X33.7294 F900
G01 X33.1294 Y149.9217 F900
G01 Y153.2033 F900
G01 X106.9971 F900
G01 Y142.2033 F900
G01 X33.1294 F900
G01 Y149.9217 F900
G01 X33.7294 Y149.9533 F900
G01 Z-4.0000 F100
G01 X106.3971 F900
G01 Y145.4533 F900
G01 X33.7294 F900
G01 X33.1294 Y145.4850 F900
G01 Y153.2033 F900
G01 X106.9971 F900
G01 Y142.2033 F900
G01 X33.1294 F900
G01 Y145.4850 F900
G01 X33.7294 Y145.4533 F900
G01 Z-6.0000 F100
G01 X106.3971 F900
G01 Y149.9533 F900
G01 X33.7294 F900
G01 X33.1294 Y149.9217 F900
G01 Y153.2033 F900
G01 X106.9971 F900
G01 Y142.2033 F900
G01 X33.1294 F900
G01 Y149.9217 F900
G01 X33.7294 Y149.9533 F900
G01 Z-8.0000 F100
G01 X106.3971 F900
G01 Y145.4533 F900
G01 X33.7294 F900
G01 X33.1294 Y145.4850 F900
G01 Y153.2033 F900
G01 X106.9971 F900
G01 Y142.2033 F900
G01 X33.1294 F900
G01 Y145.4850 F900
G01 X33.7294 Y145.4533 F900
G01 Z-10.0000 F100
G01 X106.3971 F900
G01 Y149.9533 F900
G01 X33.7294 F900
G01 X33.1294 Y149.9217 F900
G01 Y153.2033 F900
G01 X106.9971 F900
G01 Y142.2033 F900
G01 X33.1294 F900
G01 Y149.9217 F900
G01 X33.7294 Y149.9533 F900
G01 Z-12.0000 F100
G01 X106.3971 F900
G01 Y145.4533 F900
G01 X33.7294 F900
G01 X33.1294 Y145.4850 F900
G01 Y153.2033 F900
G01 X106.9971 F900
G01 Y142.2033 F900
G01 X33.1294 F900
G01 Y145.4850 F900
G01 X33.7294 Y145.4533 F900
G01 Z-13.0000 F100
G01 X106.3971 F900
G01 Y149.9533 F900
G01 X33.7294 F900
G01 X33.1294 Y149.9217 F900
G01 Y153.2033 F900
G01 X106.9971 F900
G01 Y142.2033 F900
G01 X33.1294 F900
G01 Y149.9217 F900
G01 X33.7294 Y149.9533 F900
G00 Z30.0000 F480


;No. 5: Ausschnitt 60
G00 X33.4648 Y168.9720 Z30.0000 F2100
G00 Z0.5000 F480
G01 Z0.0000 F100
G01 Z-2.0000 F100
G01 X106.3982 F900
G01 X106.3989 Y173.4720 F900
G01 X33.4648 F900
G01 X32.8648 Y173.4355 F900
G01 Y176.4878 F900
G01 X106.9995 Y176.9800 F900
G01 X106.9976 Y165.4679 F900
G01 X32.8648 F900
G01 Y173.4355 F900
G01 X33.4648 Y173.4720 F900
G01 Z-4.0000 F100
G01 X106.3989 F900
G01 X106.3982 Y168.9720 F900
G01 X33.4648 F900
G01 X32.8648 Y168.9990 F900
G01 Y176.4878 F900
G01 X106.9995 Y176.9800 F900
G01 X106.9976 Y165.4679 F900
G01 X32.8648 F900
G01 Y168.9990 F900
G01 X33.4648 Y168.9720 F900
G01 Z-6.0000 F100
G01 X106.3982 F900
G01 X106.3989 Y173.4720 F900
G01 X33.4648 F900
G01 X32.8648 Y173.4355 F900
G01 Y176.4878 F900
G01 X106.9995 Y176.9800 F900
G01 X106.9976 Y165.4679 F900
G01 X32.8648 F900
G01 Y173.4355 F900
G01 X33.4648 Y173.4720 F900
G01 Z-8.0000 F100
G01 X106.3989 F900
G01 X106.3982 Y168.9720 F900
G01 X33.4648 F900
G01 X32.8648 Y168.9990 F900
G01 Y176.4878 F900
G01 X106.9995 Y176.9800 F900
G01 X106.9976 Y165.4679 F900
G01 X32.8648 F900
G01 Y168.9990 F900
G01 X33.4648 Y168.9720 F900
G01 Z-10.0000 F100
G01 X106.3982 F900
G01 X106.3989 Y173.4720 F900
G01 X33.4648 F900
G01 X32.8648 Y173.4355 F900
G01 Y176.4878 F900
G01 X106.9995 Y176.9800 F900
G01 X106.9976 Y165.4679 F900
G01 X32.8648 F900
G01 Y173.4355 F900
G01 X33.4648 Y173.4720 F900
G01 Z-12.0000 F100
G01 X106.3989 F900
G01 X106.3982 Y168.9720 F900
G01 X33.4648 F900
G01 X32.8648 Y168.9990 F900
G01 Y176.4878 F900
G01 X106.9995 Y176.9800 F900
G01 X106.9976 Y165.4679 F900
G01 X32.8648 F900
G01 Y168.9990 F900
G01 X33.4648 Y168.9720 F900
G01 Z-13.0000 F100
G01 X106.3982 F900
G01 X106.3989 Y173.4720 F900
G01 X33.4648 F900
G01 X32.8648 Y173.4355 F900
G01 Y176.4878 F900
G01 X106.9995 Y176.9800 F900
G01 X106.9976 Y165.4679 F900
G01 X32.8648 F900
G01 Y173.4355 F900
G01 X33.4648 Y173.4720 F900
G00 Z30.0000 F480


;No. 6: Ausschnitt 61
G00 X33.4648 Y210.7179 Z30.0000 F2100
G00 Z0.5000 F480
G01 Z0.0000 F100
G01 Z-2.0000 F100
G01 X106.3971 F900
G01 Y215.2179 F900
G01 X33.4648 F900
G01 X32.8648 Y215.1863 F900
G01 Y218.4679 F900
G01 X106.9971 F900
G01 Y207.4679 F900
G01 X32.8648 F900
G01 Y215.1863 F900
G01 X33.4648 Y215.2179 F900
G01 Z-4.0000 F100
G01 X106.3971 F900
G01 Y210.7179 F900
G01 X33.4648 F900
G01 X32.8648 Y210.7495 F900
G01 Y218.4679 F900
G01 X106.9971 F900
G01 Y207.4679 F900
G01 X32.8648 F900
G01 Y210.7495 F900
G01 X33.4648 Y210.7179 F900
G01 Z-6.0000 F100
G01 X106.3971 F900
G01 Y215.2179 F900
G01 X33.4648 F900
G01 X32.8648 Y215.1863 F900
G01 Y218.4679 F900
G01 X106.9971 F900
G01 Y207.4679 F900
G01 X32.8648 F900
G01 Y215.1863 F900
G01 X33.4648 Y215.2179 F900
G01 Z-8.0000 F100
G01 X106.3971 F900
G01 Y210.7179 F900
G01 X33.4648 F900
G01 X32.8648 Y210.7495 F900
G01 Y218.4679 F900
G01 X106.9971 F900
G01 Y207.4679 F900
G01 X32.8648 F900
G01 Y210.7495 F900
G01 X33.4648 Y210.7179 F900
G01 Z-10.0000 F100
G01 X106.3971 F900
G01 Y215.2179 F900
G01 X33.4648 F900
G01 X32.8648 Y215.1863 F900
G01 Y218.4679 F900
G01 X106.9971 F900
G01 Y207.4679 F900
G01 X32.8648 F900
G01 Y215.1863 F900
G01 X33.4648 Y215.2179 F900
G01 Z-12.0000 F100
G01 X106.3971 F900
G01 Y210.7179 F900
G01 X33.4648 F900
G01 X32.8648 Y210.7495 F900
G01 Y218.4679 F900
G01 X106.9971 F900
G01 Y207.4679 F900
G01 X32.8648 F900
G01 Y210.7495 F900
G01 X33.4648 Y210.7179 F900
G01 Z-13.0000 F100
G01 X106.3971 F900
G01 Y215.2179 F900
G01 X33.4648 F900
G01 X32.8648 Y215.1863 F900
G01 Y218.4679 F900
G01 X106.9971 F900
G01 Y207.4679 F900
G01 X32.8648 F900
G01 Y215.1863 F900
G01 X33.4648 Y215.2179 F900
G00 Z30.0000 F480


;No. 7: Ausschnitt 47
G00 X32.8648 Y224.4679 Z30.0000 F2100
G00 Z0.5000 F480
G01 Z0.0000 F100
G01 Z-2.0000 F100
G01 Y224.7325 F900
G01 X286.8648 F900
G01 Y224.4679 F900
G01 X32.8648 F900
G01 Z-3.0000 F100
G01 Y224.7325 F900
G01 X286.8648 F900
G01 Y224.4679 F900
G01 X32.8648 F900
G00 Z30.0000 F480


;No. 8: Ausschnitt 62
G00 X33.4648 Y233.9825 Z30.0000 F2100
G00 Z0.5000 F480
G01 Z0.0000 F100
G01 Z-2.0000 F100
G01 X106.3971 F900
G01 Y238.4825 F900
G01 X33.4648 F900
G01 X32.8648 Y238.4509 F900
G01 Y241.7325 F900
G01 X106.9971 F900
G01 Y230.7325 F900
G01 X32.8648 F900
G01 Y238.4509 F900
G01 X33.4648 Y238.4825 F900
G01 Z-4.0000 F100
G01 X106.3971 F900
G01 Y233.9825 F900
G01 X33.4648 F900
G01 X32.8648 Y234.0141 F900
G01 Y241.7325 F900
G01 X106.9971 F900
G01 Y230.7325 F900
G01 X32.8648 F900
G01 Y234.0141 F900
G01 X33.4648 Y233.9825 F900
G01 Z-6.0000 F100
G01 X106.3971 F900
G01 Y238.4825 F900
G01 X33.4648 F900
G01 X32.8648 Y238.4509 F900
G01 Y241.7325 F900
G01 X106.9971 F900
G01 Y230.7325 F900
G01 X32.8648 F900
G01 Y238.4509 F900
G01 X33.4648 Y238.4825 F900
G01 Z-8.0000 F100
G01 X106.3971 F900
G01 Y233.9825 F900
G01 X33.4648 F900
G01 X32.8648 Y234.0141 F900
G01 Y241.7325 F900
G01 X106.9971 F900
G01 Y230.7325 F900
G01 X32.8648 F900
G01 Y234.0141 F900
G01 X33.4648 Y233.9825 F900
G01 Z-10.0000 F100
G01 X106.3971 F900
G01 Y238.4825 F900
G01 X33.4648 F900
G01 X32.8648 Y238.4509 F900
G01 Y241.7325 F900
G01 X106.9971 F900
G01 Y230.7325 F900
G01 X32.8648 F900
G01 Y238.4509 F900
G01 X33.4648 Y238.4825 F900
G01 Z-12.0000 F100
G01 X106.3971 F900
G01 Y233.9825 F900
G01 X33.4648 F900
G01 X32.8648 Y234.0141 F900
G01 Y241.7325 F900
G01 X106.9971 F900
G01 Y230.7325 F900
G01 X32.8648 F900
G01 Y234.0141 F900
G01 X33.4648 Y233.9825 F900
G01 Z-13.0000 F100
G01 X106.3971 F900
G01 Y238.4825 F900
G01 X33.4648 F900
G01 X32.8648 Y238.4509 F900
G01 Y241.7325 F900
G01 X106.9971 F900
G01 Y230.7325 F900
G01 X32.8648 F900
G01 Y238.4509 F900
G01 X33.4648 Y238.4825 F900
G00 Z30.0000 F480


;No. 9: Ausschnitt 64
G00 X33.4648 Y275.9825 Z30.0000 F2100
G00 Z0.5000 F480
G01 Z0.0000 F100
G01 Z-2.0000 F100
G01 X106.3971 F900
G01 Y280.4825 F900
G01 X33.4648 F900
G01 X32.8648 Y280.4509 F900
G01 Y283.7325 F900
G01 X106.9971 F900
G01 Y272.7325 F900
G01 X32.8648 F900
G01 Y280.4509 F900
G01 X33.4648 Y280.4825 F900
G01 Z-4.0000 F100
G01 X106.3971 F900
G01 Y275.9825 F900
G01 X33.4648 F900
G01 X32.8648 Y276.0141 F900
G01 Y283.7325 F900
G01 X106.9971 F900
G01 Y272.7325 F900
G01 X32.8648 F900
G01 Y276.0141 F900
G01 X33.4648 Y275.9825 F900
G01 Z-6.0000 F100
G01 X106.3971 F900
G01 Y280.4825 F900
G01 X33.4648 F900
G01 X32.8648 Y280.4509 F900
G01 Y283.7325 F900
G01 X106.9971 F900
G01 Y272.7325 F900
G01 X32.8648 F900
G01 Y280.4509 F900
G01 X33.4648 Y280.4825 F900
G01 Z-8.0000 F100
G01 X106.3971 F900
G01 Y275.9825 F900
G01 X33.4648 F900
G01 X32.8648 Y276.0141 F900
G01 Y283.7325 F900
G01 X106.9971 F900
G01 Y272.7325 F900
G01 X32.8648 F900
G01 Y276.0141 F900
G01 X33.4648 Y275.9825 F900
G01 Z-10.0000 F100
G01 X106.3971 F900
G01 Y280.4825 F900
G01 X33.4648 F900
G01 X32.8648 Y280.4509 F900
G01 Y283.7325 F900
G01 X106.9971 F900
G01 Y272.7325 F900
G01 X32.8648 F900
G01 Y280.4509 F900
G01 X33.4648 Y280.4825 F900
G01 Z-12.0000 F100
G01 X106.3971 F900
G01 Y275.9825 F900
G01 X33.4648 F900
G01 X32.8648 Y276.0141 F900
G01 Y283.7325 F900
G01 X106.9971 F900
G01 Y272.7325 F900
G01 X32.8648 F900
G01 Y276.0141 F900
G01 X33.4648 Y275.9825 F900
G01 Z-13.0000 F100
G01 X106.3971 F900
G01 Y280.4825 F900
G01 X33.4648 F900
G01 X32.8648 Y280.4509 F900
G01 Y283.7325 F900
G01 X106.9971 F900
G01 Y272.7325 F900
G01 X32.8648 F900
G01 Y280.4509 F900
G01 X33.4648 Y280.4825 F900
G00 Z30.0000 F480


;No. 10: Ausschnitt 65
G00 X143.6000 Y280.5487 Z30.0000 F2100
G00 Z0.5000 F480
G01 Z0.0000 F100
G01 Z-2.0000 F100
G01 X176.3972 F900
G01 Y276.0487 F900
G01 X143.6000 F900
G01 X143.0000 Y276.0794 F900
G01 Y283.8648 F900
G01 X176.9972 F900
G01 Y272.7325 F900
G01 X143.0000 F900
G01 Y276.0794 F900
G01 X143.6000 Y276.0487 F900
G01 Z-4.0000 F100
G01 X176.3972 F900
G01 Y280.5487 F900
G01 X143.6000 F900
G01 X143.0000 Y280.5179 F900
G01 Y283.8648 F900
G01 X176.9972 F900
G01 Y272.7325 F900
G01 X143.0000 F900
G01 Y280.5179 F900
G01 X143.6000 Y280.5487 F900
G01 Z-6.0000 F100
G01 X176.3972 F900
G01 Y276.0487 F900
G01 X143.6000 F900
G01 X143.0000 Y276.0794 F900
G01 Y283.8648 F900
G01 X176.9972 F900
G01 Y272.7325 F900
G01 X143.0000 F900
G01 Y276.0794 F900
G01 X143.6000 Y276.0487 F900
G01 Z-8.0000 F100
G01 X176.3972 F900
G01 Y280.5487 F900
G01 X143.6000 F900
G01 X143.0000 Y280.5179 F900
G01 Y283.8648 F900
G01 X176.9972 F900
G01 Y272.7325 F900
G01 X143.0000 F900
G01 Y280.5179 F900
G01 X143.6000 Y280.5487 F900
G01 Z-10.0000 F100
G01 X176.3972 F900
G01 Y276.0487 F900
G01 X143.6000 F900
G01 X143.0000 Y276.0794 F900
G01 Y283.8648 F900
G01 X176.9972 F900
G01 Y272.7325 F900
G01 X143.0000 F900
G01 Y276.0794 F900
G01 X143.6000 Y276.0487 F900
G01 Z-12.0000 F100
G01 X176.3972 F900
G01 Y280.5487 F900
G01 X143.6000 F900
G01 X143.0000 Y280.5179 F900
G01 Y283.8648 F900
G01 X176.9972 F900
G01 Y272.7325 F900
G01 X143.0000 F900
G01 Y280.5179 F900
G01 X143.6000 Y280.5487 F900
G01 Z-13.0000 F100
G01 X176.3972 F900
G01 Y276.0487 F900
G01 X143.6000 F900
G01 X143.0000 Y276.0794 F900
G01 Y283.8648 F900
G01 X176.9972 F900
G01 Y272.7325 F900
G01 X143.0000 F900
G01 Y276.0794 F900
G01 X143.6000 Y276.0487 F900
G00 Z30.0000 F480


;No. 11: Ausschnitt 69
G00 X143.5947 Y238.4825 Z30.0000 F2100
G00 Z0.5000 F480
G01 Z0.0000 F100
G01 Z-2.0000 F100
G01 X176.3972 F900
G01 Y233.9825 F900
G01 X143.5947 F900
G01 X142.9947 Y234.0141 F900
G01 Y241.7325 F900
G01 X176.9972 F900
G01 Y230.7325 F900
G01 X142.9947 F900
G01 Y234.0141 F900
G01 X143.5947 Y233.9825 F900
G01 Z-4.0000 F100
G01 X176.3972 F900
G01 Y238.4825 F900
G01 X143.5947 F900
G01 X142.9947 Y238.4509 F900
G01 Y241.7325 F900
G01 X176.9972 F900
G01 Y230.7325 F900
G01 X142.9947 F900
G01 Y238.4509 F900
G01 X143.5947 Y238.4825 F900
G01 Z-6.0000 F100
G01 X176.3972 F900
G01 Y233.9825 F900
G01 X143.5947 F900
G01 X142.9947 Y234.0141 F900
G01 Y241.7325 F900
G01 X176.9972 F900
G01 Y230.7325 F900
G01 X142.9947 F900
G01 Y234.0141 F900
G01 X143.5947 Y233.9825 F900
G01 Z-8.0000 F100
G01 X176.3972 F900
G01 Y238.4825 F900
G01 X143.5947 F900
G01 X142.9947 Y238.4509 F900
G01 Y241.7325 F900
G01 X176.9972 F900
G01 Y230.7325 F900
G01 X142.9947 F900
G01 Y238.4509 F900
G01 X143.5947 Y238.4825 F900
G01 Z-10.0000 F100
G01 X176.3972 F900
G01 Y233.9825 F900
G01 X143.5947 F900
G01 X142.9947 Y234.0141 F900
G01 Y241.7325 F900
G01 X176.9972 F900
G01 Y230.7325 F900
G01 X142.9947 F900
G01 Y234.0141 F900
G01 X143.5947 Y233.9825 F900
G01 Z-12.0000 F100
G01 X176.3972 F900
G01 Y238.4825 F900
G01 X143.5947 F900
G01 X142.9947 Y238.4509 F900
G01 Y241.7325 F900
G01 X176.9972 F900
G01 Y230.7325 F900
G01 X142.9947 F900
G01 Y238.4509 F900
G01 X143.5947 Y238.4825 F900
G01 Z-13.0000 F100
G01 X176.3972 F900
G01 Y233.9825 F900
G01 X143.5947 F900
G01 X142.9947 Y234.0141 F900
G01 Y241.7325 F900
G01 X176.9972 F900
G01 Y230.7325 F900
G01 X142.9947 F900
G01 Y234.0141 F900
G01 X143.5947 Y233.9825 F900
G00 Z30.0000 F480


;No. 12: Ausschnitt 70
G00 X143.5947 Y215.2179 Z30.0000 F2100
G00 Z0.5000 F480
G01 Z0.0000 F100
G01 Z-2.0000 F100
G01 X176.3972 F900
G01 Y210.7179 F900
G01 X143.5947 F900
G01 X142.9947 Y210.7495 F900
G01 Y218.4679 F900
G01 X176.9972 F900
G01 Y207.4679 F900
G01 X142.9947 F900
G01 Y210.7495 F900
G01 X143.5947 Y210.7179 F900
G01 Z-4.0000 F100
G01 X176.3972 F900
G01 Y215.2179 F900
G01 X143.5947 F900
G01 X142.9947 Y215.1863 F900
G01 Y218.4679 F900
G01 X176.9972 F900
G01 Y207.4679 F900
G01 X142.9947 F900
G01 Y215.1863 F900
G01 X143.5947 Y215.2179 F900
G01 Z-6.0000 F100
G01 X176.3972 F900
G01 Y210.7179 F900
G01 X143.5947 F900
G01 X142.9947 Y210.7495 F900
G01 Y218.4679 F900
G01 X176.9972 F900
G01 Y207.4679 F900
G01 X142.9947 F900
G01 Y210.7495 F900
G01 X143.5947 Y210.7179 F900
G01 Z-8.0000 F100
G01 X176.3972 F900
G01 Y215.2179 F900
G01 X143.5947 F900
G01 X142.9947 Y215.1863 F900
G01 Y218.4679 F900
G01 X176.9972 F900
G01 Y207.4679 F900
G01 X142.9947 F900
G01 Y215.1863 F900
G01 X143.5947 Y215.2179 F900
G01 Z-10.0000 F100
G01 X176.3972 F900
G01 Y210.7179 F900
G01 X143.5947 F900
G01 X142.9947 Y210.7495 F900
G01 Y218.4679 F900
G01 X176.9972 F900
G01 Y207.4679 F900
G01 X142.9947 F900
G01 Y210.7495 F900
G01 X143.5947 Y210.7179 F900
G01 Z-12.0000 F100
G01 X176.3972 F900
G01 Y215.2179 F900
G01 X143.5947 F900
G01 X142.9947 Y215.1863 F900
G01 Y218.4679 F900
G01 X176.9972 F900
G01 Y207.4679 F900
G01 X142.9947 F900
G01 Y215.1863 F900
G01 X143.5947 Y215.2179 F900
G01 Z-13.0000 F100
G01 X176.3972 F900
G01 Y210.7179 F900
G01 X143.5947 F900
G01 X142.9947 Y210.7495 F900
G01 Y218.4679 F900
G01 X176.9972 F900
G01 Y207.4679 F900
G01 X142.9947 F900
G01 Y210.7495 F900
G01 X143.5947 Y210.7179 F900
G00 Z30.0000 F480


;No. 13: Ausschnitt 66
G00 X213.6000 Y276.0487 Z30.0000 F2100
G00 Z0.5000 F480
G01 Z0.0000 F100
G01 Z-2.0000 F100
G01 X286.2648 F900
G01 Y280.5487 F900
G01 X213.6000 F900
G01 X213.0000 Y280.5179 F900
G01 Y283.8648 F900
G01 X286.8648 F900
G01 Y272.7325 F900
G01 X213.0000 F900
G01 Y280.5179 F900
G01 X213.6000 Y280.5487 F900
G01 Z-4.0000 F100
G01 X286.2648 F900
G01 Y276.0487 F900
G01 X213.6000 F900
G01 X213.0000 Y276.0794 F900
G01 Y283.8648 F900
G01 X286.8648 F900
G01 Y272.7325 F900
G01 X213.0000 F900
G01 Y276.0794 F900
G01 X213.6000 Y276.0487 F900
G01 Z-6.0000 F100
G01 X286.2648 F900
G01 Y280.5487 F900
G01 X213.6000 F900
G01 X213.0000 Y280.5179 F900
G01 Y283.8648 F900
G01 X286.8648 F900
G01 Y272.7325 F900
G01 X213.0000 F900
G01 Y280.5179 F900
G01 X213.6000 Y280.5487 F900
G01 Z-8.0000 F100
G01 X286.2648 F900
G01 Y276.0487 F900
G01 X213.6000 F900
G01 X213.0000 Y276.0794 F900
G01 Y283.8648 F900
G01 X286.8648 F900
G01 Y272.7325 F900
G01 X213.0000 F900
G01 Y276.0794 F900
G01 X213.6000 Y276.0487 F900
G01 Z-10.0000 F100
G01 X286.2648 F900
G01 Y280.5487 F900
G01 X213.6000 F900
G01 X213.0000 Y280.5179 F900
G01 Y283.8648 F900
G01 X286.8648 F900
G01 Y272.7325 F900
G01 X213.0000 F900
G01 Y280.5179 F900
G01 X213.6000 Y280.5487 F900
G01 Z-12.0000 F100
G01 X286.2648 F900
G01 Y276.0487 F900
G01 X213.6000 F900
G01 X213.0000 Y276.0794 F900
G01 Y283.8648 F900
G01 X286.8648 F900
G01 Y272.7325 F900
G01 X213.0000 F900
G01 Y276.0794 F900
G01 X213.6000 Y276.0487 F900
G01 Z-13.0000 F100
G01 X286.2648 F900
G01 Y280.5487 F900
G01 X213.6000 F900
G01 X213.0000 Y280.5179 F900
G01 Y283.8648 F900
G01 X286.8648 F900
G01 Y272.7325 F900
G01 X213.0000 F900
G01 Y280.5179 F900
G01 X213.6000 Y280.5487 F900
G00 Z30.0000 F480


;No. 14: Ausschnitt 50
G00 X286.2648 Y261.7325 Z30.0000 F2100
G00 Z0.5000 F480
G01 Z0.0000 F100
G01 Z-2.0000 F100
G01 X33.4648 F900
G01 Y257.2325 F900
G01 X286.2648 F900
G01 Y252.7325 F900
G01 X33.4648 F900
G01 X32.8648 Y252.7555 F900
G01 Y266.7325 F900
G01 X286.8648 F900
G01 Y247.7325 F900
G01 X32.8648 F900
G01 Y252.7555 F900
G01 X33.4648 Y252.7325 F900
G01 Z-3.0000 F100
G01 X286.2648 F900
G01 Y257.2325 F900
G01 X33.4648 F900
G01 Y261.7325 F900
G01 X286.2648 F900
G01 X286.8648 Y261.7095 F900
G01 Y247.7325 F900
G01 X32.8648 F900
G01 Y266.7325 F900
G01 X286.8648 F900
G01 Y261.7095 F900
G01 X286.2648 Y261.7325 F900
G00 Z30.0000 F480


;No. 15: Ausschnitt 67
G00 X280.3819 Y238.4825 Z30.0000 F2100
G00 Z0.5000 F480
G01 Z0.0000 F100
G01 Z-2.0000 F100
G01 X213.5972 F900
G01 Y233.9825 F900
G01 X280.3819 F900
G01 X280.9819 Y234.0141 F900
G01 Y230.7325 F900
G01 X212.9972 F900
G01 Y241.7325 F900
G01 X280.9819 F900
G01 Y234.0141 F900
G01 X280.3819 Y233.9825 F900
G01 Z-4.0000 F100
G01 X213.5972 F900
G01 Y238.4825 F900
G01 X280.3819 F900
G01 X280.9819 Y238.4509 F900
G01 Y230.7325 F900
G01 X212.9972 F900
G01 Y241.7325 F900
G01 X280.9819 F900
G01 Y238.4509 F900
G01 X280.3819 Y238.4825 F900
G01 Z-6.0000 F100
G01 X213.5972 F900
G01 Y233.9825 F900
G01 X280.3819 F900
G01 X280.9819 Y234.0141 F900
G01 Y230.7325 F900
G01 X212.9972 F900
G01 Y241.7325 F900
G01 X280.9819 F900
G01 Y234.0141 F900
G01 X280.3819 Y233.9825 F900
G01 Z-8.0000 F100
G01 X213.5972 F900
G01 Y238.4825 F900
G01 X280.3819 F900
G01 X280.9819 Y238.4509 F900
G01 Y230.7325 F900
G01 X212.9972 F900
G01 Y241.7325 F900
G01 X280.9819 F900
G01 Y238.4509 F900
G01 X280.3819 Y238.4825 F900
G01 Z-10.0000 F100
G01 X213.5972 F900
G01 Y233.9825 F900
G01 X280.3819 F900
G01 X280.9819 Y234.0141 F900
G01 Y230.7325 F900
G01 X212.9972 F900
G01 Y241.7325 F900
G01 X280.9819 F900
G01 Y234.0141 F900
G01 X280.3819 Y233.9825 F900
G01 Z-12.0000 F100
G01 X213.5972 F900
G01 Y238.4825 F900
G01 X280.3819 F900
G01 X280.9819 Y238.4509 F900
G01 Y230.7325 F900
G01 X212.9972 F900
G01 Y241.7325 F900
G01 X280.9819 F900
G01 Y238.4509 F900
G01 X280.3819 Y238.4825 F900
G01 Z-13.0000 F100
G01 X213.5972 F900
G01 Y233.9825 F900
G01 X280.3819 F900
G01 X280.9819 Y234.0141 F900
G01 Y230.7325 F900
G01 X212.9972 F900
G01 Y241.7325 F900
G01 X280.9819 F900
G01 Y234.0141 F900
G01 X280.3819 Y233.9825 F900
G00 Z30.0000 F480


;No. 16: Ausschnitt 68
G00 X280.3576 Y215.2179 Z30.0000 F2100
G00 Z0.5000 F480
G01 Z0.0000 F100
G01 Z-2.0000 F100
G01 X213.5972 F900
G01 Y210.7179 F900
G01 X280.3576 F900
G01 X280.9576 Y210.7495 F900
G01 Y207.4679 F900
G01 X212.9972 F900
G01 Y218.4679 F900
G01 X280.9576 F900
G01 Y210.7495 F900
G01 X280.3576 Y210.7179 F900
G01 Z-4.0000 F100
G01 X213.5972 F900
G01 Y215.2179 F900
G01 X280.3576 F900
G01 X280.9576 Y215.1863 F900
G01 Y207.4679 F900
G01 X212.9972 F900
G01 Y218.4679 F900
G01 X280.9576 F900
G01 Y215.1863 F900
G01 X280.3576 Y215.2179 F900
G01 Z-6.0000 F100
G01 X213.5972 F900
G01 Y210.7179 F900
G01 X280.3576 F900
G01 X280.9576 Y210.7495 F900
G01 Y207.4679 F900
G01 X212.9972 F900
G01 Y218.4679 F900
G01 X280.9576 F900
G01 Y210.7495 F900
G01 X280.3576 Y210.7179 F900
G01 Z-8.0000 F100
G01 X213.5972 F900
G01 Y215.2179 F900
G01 X280.3576 F900
G01 X280.9576 Y215.1863 F900
G01 Y207.4679 F900
G01 X212.9972 F900
G01 Y218.4679 F900
G01 X280.9576 F900
G01 Y215.1863 F900
G01 X280.3576 Y215.2179 F900
G01 Z-10.0000 F100
G01 X213.5972 F900
G01 Y210.7179 F900
G01 X280.3576 F900
G01 X280.9576 Y210.7495 F900
G01 Y207.4679 F900
G01 X212.9972 F900
G01 Y218.4679 F900
G01 X280.9576 F900
G01 Y210.7495 F900
G01 X280.3576 Y210.7179 F900
G01 Z-12.0000 F100
G01 X213.5972 F900
G01 Y215.2179 F900
G01 X280.3576 F900
G01 X280.9576 Y215.1863 F900
G01 Y207.4679 F900
G01 X212.9972 F900
G01 Y218.4679 F900
G01 X280.9576 F900
G01 Y215.1863 F900
G01 X280.3576 Y215.2179 F900
G01 Z-13.0000 F100
G01 X213.5972 F900
G01 Y210.7179 F900
G01 X280.3576 F900
G01 X280.9576 Y210.7495 F900
G01 Y207.4679 F900
G01 X212.9972 F900
G01 Y218.4679 F900
G01 X280.9576 F900
G01 Y210.7495 F900
G01 X280.3576 Y210.7179 F900
G00 Z30.0000 F480


;No. 17: Ausschnitt 51
G00 X286.2648 Y196.4679 Z30.0000 F2100
G00 Z0.5000 F480
G01 Z0.0000 F100
G01 Z-2.0000 F100
G01 X33.4648 F900
G01 Y191.9679 F900
G01 X286.2648 F900
G01 Y187.4679 F900
G01 X33.4648 F900
G01 X32.8648 Y187.4909 F900
G01 Y201.4679 F900
G01 X286.8648 F900
G01 Y182.4679 F900
G01 X32.8648 F900
G01 Y187.4909 F900
G01 X33.4648 Y187.4679 F900
G01 Z-3.0000 F100
G01 X286.2648 F900
G01 Y191.9679 F900
G01 X33.4648 F900
G01 Y196.4679 F900
G01 X286.2648 F900
G01 X286.8648 Y196.4449 F900
G01 Y182.4679 F900
G01 X32.8648 F900
G01 Y201.4679 F900
G01 X286.8648 F900
G01 Y196.4449 F900
G01 X286.2648 Y196.4679 F900
G00 Z30.0000 F480


;No. 18: Ausschnitt 57
G00 X286.2648 Y173.2179 Z30.0000 F2100
G00 Z0.5000 F480
G01 Z0.0000 F100
G01 Z-2.0000 F100
G01 X213.5972 F900
G01 Y168.7179 F900
G01 X286.2648 F900
G01 X286.8648 Y168.7495 F900
G01 Y165.4679 F900
G01 X212.9972 F900
G01 Y176.4679 F900
G01 X286.8648 F900
G01 Y168.7495 F900
G01 X286.2648 Y168.7179 F900
G01 Z-4.0000 F100
G01 X213.5972 F900
G01 Y173.2179 F900
G01 X286.2648 F900
G01 X286.8648 Y173.1863 F900
G01 Y165.4679 F900
G01 X212.9972 F900
G01 Y176.4679 F900
G01 X286.8648 F900
G01 Y173.1863 F900
G01 X286.2648 Y173.2179 F900
G01 Z-6.0000 F100
G01 X213.5972 F900
G01 Y168.7179 F900
G01 X286.2648 F900
G01 X286.8648 Y168.7495 F900
G01 Y165.4679 F900
G01 X212.9972 F900
G01 Y176.4679 F900
G01 X286.8648 F900
G01 Y168.7495 F900
G01 X286.2648 Y168.7179 F900
G01 Z-8.0000 F100
G01 X213.5972 F900
G01 Y173.2179 F900
G01 X286.2648 F900
G01 X286.8648 Y173.1863 F900
G01 Y165.4679 F900
G01 X212.9972 F900
G01 Y176.4679 F900
G01 X286.8648 F900
G01 Y173.1863 F900
G01 X286.2648 Y173.2179 F900
G01 Z-10.0000 F100
G01 X213.5972 F900
G01 Y168.7179 F900
G01 X286.2648 F900
G01 X286.8648 Y168.7495 F900
G01 Y165.4679 F900
G01 X212.9972 F900
G01 Y176.4679 F900
G01 X286.8648 F900
G01 Y168.7495 F900
G01 X286.2648 Y168.7179 F900
G01 Z-12.0000 F100
G01 X213.5972 F900
G01 Y173.2179 F900
G01 X286.2648 F900
G01 X286.8648 Y173.1863 F900
G01 Y165.4679 F900
G01 X212.9972 F900
G01 Y176.4679 F900
G01 X286.8648 F900
G01 Y173.1863 F900
G01 X286.2648 Y173.2179 F900
G01 Z-13.0000 F100
G01 X213.5972 F900
G01 Y168.7179 F900
G01 X286.2648 F900
G01 X286.8648 Y168.7495 F900
G01 Y165.4679 F900
G01 X212.9972 F900
G01 Y176.4679 F900
G01 X286.8648 F900
G01 Y168.7495 F900
G01 X286.2648 Y168.7179 F900
G00 Z30.0000 F480


;No. 19: Ausschnitt 48
G00 X287.0000 Y159.2033 Z30.0000 F2100
G00 Z0.5000 F480
G01 Z0.0000 F100
G01 Z-2.0000 F100
G01 X33.0054 F900
G01 X32.9942 Y159.4679 F900
G01 X286.9888 F900
G01 X287.0000 Y159.2033 F900
G01 Z-3.0000 F100
G01 X33.0054 F900
G01 X32.9942 Y159.4679 F900
G01 X286.9888 F900
G01 X287.0000 Y159.2033 F900
G00 Z30.0000 F480


;No. 20: Ausschnitt 58
G00 X286.5294 Y149.9533 Z30.0000 F2100
G00 Z0.5000 F480
G01 Z0.0000 F100
G01 Z-2.0000 F100
G01 X213.5972 F900
G01 Y145.4533 F900
G01 X286.5294 F900
G01 X287.1294 Y145.4850 F900
G01 Y142.2033 F900
G01 X212.9972 F900
G01 Y153.2033 F900
G01 X287.1294 F900
G01 Y145.4850 F900
G01 X286.5294 Y145.4533 F900
G01 Z-4.0000 F100
G01 X213.5972 F900
G01 Y149.9533 F900
G01 X286.5294 F900
G01 X287.1294 Y149.9217 F900
G01 Y142.2033 F900
G01 X212.9972 F900
G01 Y153.2033 F900
G01 X287.1294 F900
G01 Y149.9217 F900
G01 X286.5294 Y149.9533 F900
G01 Z-6.0000 F100
G01 X213.5972 F900
G01 Y145.4533 F900
G01 X286.5294 F900
G01 X287.1294 Y145.4850 F900
G01 Y142.2033 F900
G01 X212.9972 F900
G01 Y153.2033 F900
G01 X287.1294 F900
G01 Y145.4850 F900
G01 X286.5294 Y145.4533 F900
G01 Z-8.0000 F100
G01 X213.5972 F900
G01 Y149.9533 F900
G01 X286.5294 F900
G01 X287.1294 Y149.9217 F900
G01 Y142.2033 F900
G01 X212.9972 F900
G01 Y153.2033 F900
G01 X287.1294 F900
G01 Y149.9217 F900
G01 X286.5294 Y149.9533 F900
G01 Z-10.0000 F100
G01 X213.5972 F900
G01 Y145.4533 F900
G01 X286.5294 F900
G01 X287.1294 Y145.4850 F900
G01 Y142.2033 F900
G01 X212.9972 F900
G01 Y153.2033 F900
G01 X287.1294 F900
G01 Y145.4850 F900
G01 X286.5294 Y145.4533 F900
G01 Z-12.0000 F100
G01 X213.5972 F900
G01 Y149.9533 F900
G01 X286.5294 F900
G01 X287.1294 Y149.9217 F900
G01 Y142.2033 F900
G01 X212.9972 F900
G01 Y153.2033 F900
G01 X287.1294 F900
G01 Y149.9217 F900
G01 X286.5294 Y149.9533 F900
G01 Z-13.0000 F100
G01 X213.5972 F900
G01 Y145.4533 F900
G01 X286.5294 F900
G01 X287.1294 Y145.4850 F900
G01 Y142.2033 F900
G01 X212.9972 F900
G01 Y153.2033 F900
G01 X287.1294 F900
G01 Y145.4850 F900
G01 X286.5294 Y145.4533 F900
G00 Z30.0000 F480


;No. 21: Ausschnitt 52
G00 X286.5294 Y131.2033 Z30.0000 F2100
G00 Z0.5000 F480
G01 Z0.0000 F100
G01 Z-2.0000 F100
G01 X33.7294 F900
G01 Y126.7033 F900
G01 X286.5294 F900
G01 Y122.2033 F900
G01 X33.7294 F900
G01 X33.1294 Y122.2263 F900
G01 Y136.2033 F900
G01 X287.1294 F900
G01 Y117.2033 F900
G01 X33.1294 F900
G01 Y122.2263 F900
G01 X33.7294 Y122.2033 F900
G01 Z-3.0000 F100
G01 X286.5294 F900
G01 Y126.7033 F900
G01 X33.7294 F900
G01 Y131.2033 F900
G01 X286.5294 F900
G01 X287.1294 Y131.1804 F900
G01 Y117.2033 F900
G01 X33.1294 F900
G01 Y136.2033 F900
G01 X287.1294 F900
G01 Y131.1804 F900
G01 X286.5294 Y131.2033 F900
G00 Z30.0000 F480


;No. 22: Ausschnitt 49
G00 X287.1294 Y94.2033 Z30.0000 F2100
G00 Z0.5000 F480
G01 Z0.0000 F100
G01 Z-2.0000 F100
G01 X33.1294 F900
G01 X287.1294 F900
G01 Z-3.0000 F100
G01 X33.1294 F900
G01 X287.1294 F900
G00 Z30.0000 F480


;No. 23: Ausschnitt 53
G00 X286.5294 Y66.2033 Z30.0000 F2100
G00 Z0.5000 F480
G01 Z0.0000 F100
G01 Z-2.0000 F100
G01 X33.7294 F900
G01 Y61.7033 F900
G01 X286.5294 F900
G01 Y57.2033 F900
G01 X33.7294 F900
G01 X33.1294 Y57.2263 F900
G01 Y71.2033 F900
G01 X287.1294 F900
G01 Y52.2033 F900
G01 X33.1294 F900
G01 Y57.2263 F900
G01 X33.7294 Y57.2033 F900
G01 Z-3.0000 F100
G01 X286.5294 F900
G01 Y61.7033 F900
G01 X33.7294 F900
G01 Y66.2033 F900
G01 X286.5294 F900
G01 X287.1294 Y66.1804 F900
G01 Y52.2033 F900
G01 X33.1294 F900
G01 Y71.2033 F900
G01 X287.1294 F900
G01 Y66.1804 F900
G01 X286.5294 Y66.2033 F900
G00 Z30.0000 F480


;No. 24: Ausschnitt 44
G00 X287.1263 Y32.3356 Z30.0000 F2100
G00 Z0.5000 F480
G01 Z0.0000 F100
G01 Z-2.0000 F100
G01 X33.1263 F900
G01 X32.2496 Y31.4580 F900
G01 X33.1263 Y32.3356 F900
G01 X32.8679 Y286.8648 F900
G01 X31.9872 Y287.7446 F900
G01 X32.8679 Y286.8648 F900
G01 X286.8678 F900
G01 X287.7446 Y287.7424 F900
G01 X286.8678 Y286.8648 F900
G01 X287.1263 Y32.3356 F900
G01 X288.0070 Y31.4559 F900
G01 X287.1263 Y32.3356 F900
G01 Z-3.0000 F100
G01 X33.1263 F900
G01 X32.2496 Y31.4580 F900
G01 X33.1263 Y32.3356 F900
G01 X32.8679 Y286.8648 F900
G01 X31.9872 Y287.7446 F900
G01 X32.8679 Y286.8648 F900
G01 X286.8678 F900
G01 X287.7446 Y287.7424 F900
G01 X286.8678 Y286.8648 F900
G01 X287.1263 Y32.3356 F900
G01 X288.0070 Y31.4559 F900
G01 X287.1263 Y32.3356 F900
G00 Z30.0000 F480


;No. 25: Teil 10
G00 X231.4039 Y17.0000 Z30.0000 F2100
G00 Z0.5000 F480
G01 Z0.0000 F100
G01 Z-2.0000 F100
G01 X299.7296 F900
G03 X302.7296 Y20.0000 I0.0000 J3.0000 F900
G01 Y108.7432 F900
G01 Y117.7432 F900
G01 Y201.9864 F900
G01 Y210.9864 F900
G01 Y299.7296 F900
G03 X299.7296 Y302.7296 I-3.0000 J0.0000 F900
G01 X234.9686 F900
G01 X225.9686 F900
G01 X74.8792 F900
G01 X65.8792 F900
G01 X20.0000 F900
G03 X17.0000 Y299.7296 I0.0000 J-3.0000 F900
G01 Y210.9864 F900
G01 Y201.9864 F900
G01 Y97.3239 F900
G01 Y88.3239 F900
G01 Y20.0000 F900
G03 X20.0000 Y17.0000 I3.0000 J0.0000 F900
G01 X108.7432 F900
G01 X117.7432 F900
G01 X222.4039 F900
G01 X231.4039 F900
G01 Z-4.0000 F100
G01 X299.7296 F900
G03 X302.7296 Y20.0000 I0.0000 J3.0000 F900
G01 Y108.7432 F900
G01 Y117.7432 F900
G01 Y201.9864 F900
G01 Y210.9864 F900
G01 Y299.7296 F900
G03 X299.7296 Y302.7296 I-3.0000 J0.0000 F900
G01 X234.9686 F900
G01 X225.9686 F900
G01 X74.8792 F900
G01 X65.8792 F900
G01 X20.0000 F900
G03 X17.0000 Y299.7296 I0.0000 J-3.0000 F900
G01 Y210.9864 F900
G01 Y201.9864 F900
G01 Y97.3239 F900
G01 Y88.3239 F900
G01 Y20.0000 F900
G03 X20.0000 Y17.0000 I3.0000 J0.0000 F900
G01 X108.7432 F900
G01 X117.7432 F900
G01 X222.4039 F900
G01 X231.4039 F900
G01 Z-6.0000 F100
G01 X299.7296 F900
G03 X302.7296 Y20.0000 I0.0000 J3.0000 F900
G01 Y108.7432 F900
G01 Y117.7432 F900
G01 Y201.9864 F900
G01 Y210.9864 F900
G01 Y299.7296 F900
G03 X299.7296 Y302.7296 I-3.0000 J0.0000 F900
G01 X234.9686 F900
G01 X225.9686 F900
G01 X74.8792 F900
G01 X65.8792 F900
G01 X20.0000 F900
G03 X17.0000 Y299.7296 I0.0000 J-3.0000 F900
G01 Y210.9864 F900
G01 Y201.9864 F900
G01 Y97.3239 F900
G01 Y88.3239 F900
G01 Y20.0000 F900
G03 X20.0000 Y17.0000 I3.0000 J0.0000 F900
G01 X108.7432 F900
G01 X117.7432 F900
G01 X222.4039 F900
G01 X231.4039 F900
G01 Z-8.0000 F100
G01 X299.7296 F900
G03 X302.7296 Y20.0000 I0.0000 J3.0000 F900
G01 Y108.7432 F900
G01 Y117.7432 F900
G01 Y201.9864 F900
G01 Y210.9864 F900
G01 Y299.7296 F900
G03 X299.7296 Y302.7296 I-3.0000 J0.0000 F900
G01 X234.9686 F900
G01 X225.9686 F900
G01 X74.8792 F900
G01 X65.8792 F900
G01 X20.0000 F900
G03 X17.0000 Y299.7296 I0.0000 J-3.0000 F900
G01 Y210.9864 F900
G01 Y201.9864 F900
G01 Y97.3239 F900
G01 Y88.3239 F900
G01 Y20.0000 F900
G03 X20.0000 Y17.0000 I3.0000 J0.0000 F900
G01 X108.7432 F900
G01 X117.7432 F900
G01 X222.4039 F900
G01 X231.4039 F900
G01 Z-10.0000 F100
G01 X299.7296 F900
G03 X302.7296 Y20.0000 I0.0000 J3.0000 F900
G01 Y108.7432 F900
G01 Y117.7432 F900
G01 Y201.9864 F900
G01 Y210.9864 F900
G01 Y299.7296 F900
G03 X299.7296 Y302.7296 I-3.0000 J0.0000 F900
G01 X234.9686 F900
G01 X225.9686 F900
G01 X74.8792 F900
G01 X65.8792 F900
G01 X20.0000 F900
G03 X17.0000 Y299.7296 I0.0000 J-3.0000 F900
G01 Y210.9864 F900
G01 Y201.9864 F900
G01 Y97.3239 F900
G01 Y88.3239 F900
G01 Y20.0000 F900
G03 X20.0000 Y17.0000 I3.0000 J0.0000 F900
G01 X108.7432 F900
G01 X117.7432 F900
G01 X222.4039 F900
G01 X231.4039 F900
G01 Z-12.0000 F100
G01 X299.7296 F900
G03 X302.7296 Y20.0000 I0.0000 J3.0000 F900
G01 Y108.7432 F900
G00 Z-10.0000 F480
G01 Y117.7432 F900
G01 Z-12.0000 F100
G01 Y201.9864 F900
G00 Z-10.0000 F480
G01 Y210.9864 F900
G01 Z-12.0000 F100
G01 Y299.7296 F900
G03 X299.7296 Y302.7296 I-3.0000 J0.0000 F900
G01 X234.9686 F900
G00 Z-10.0000 F480
G01 X225.9686 F900
G01 Z-12.0000 F100
G01 X74.8792 F900
G00 Z-10.0000 F480
G01 X65.8792 F900
G01 Z-12.0000 F100
G01 X20.0000 F900
G03 X17.0000 Y299.7296 I0.0000 J-3.0000 F900
G01 Y210.9864 F900
G00 Z-10.0000 F480
G01 Y201.9864 F900
G01 Z-12.0000 F100
G01 Y97.3239 F900
G00 Z-10.0000 F480
G01 Y88.3239 F900
G01 Z-12.0000 F100
G01 Y20.0000 F900
G03 X20.0000 Y17.0000 I3.0000 J0.0000 F900
G01 X108.7432 F900
G00 Z-10.0000 F480
G01 X117.7432 F900
G01 Z-12.0000 F100
G01 X222.4039 F900
G00 Z-10.0000 F480
G01 X231.4039 F900
G00 Z-11.5000 F480
G01 Z-12.0000 F100
G01 Z-13.0000 F100
G01 X299.7296 F900
G03 X302.7296 Y20.0000 I0.0000 J3.0000 F900
G01 Y108.7432 F900
G00 Z-10.0000 F480
G01 Y117.7432 F900
G00 Z-11.5000 F480
G01 Z-12.0000 F100
G01 Z-13.0000 F100
G01 Y201.9864 F900
G00 Z-10.0000 F480
G01 Y210.9864 F900
G00 Z-11.5000 F480
G01 Z-12.0000 F100
G01 Z-13.0000 F100
G01 Y299.7296 F900
G03 X299.7296 Y302.7296 I-3.0000 J0.0000 F900
G01 X234.9686 F900
G00 Z-10.0000 F480
G01 X225.9686 F900
G00 Z-11.5000 F480
G01 Z-12.0000 F100
G01 Z-13.0000 F100
G01 X74.8792 F900
G00 Z-10.0000 F480
G01 X65.8792 F900
G00 Z-11.5000 F480
G01 Z-12.0000 F100
G01 Z-13.0000 F100
G01 X20.0000 F900
G03 X17.0000 Y299.7296 I0.0000 J-3.0000 F900
G01 Y210.9864 F900
G00 Z-10.0000 F480
G01 Y201.9864 F900
G00 Z-11.5000 F480
G01 Z-12.0000 F100
G01 Z-13.0000 F100
G01 Y97.3239 F900
G00 Z-10.0000 F480
G01 Y88.3239 F900
G00 Z-11.5000 F480
G01 Z-12.0000 F100
G01 Z-13.0000 F100
G01 Y20.0000 F900
G03 X20.0000 Y17.0000 I3.0000 J0.0000 F900
G01 X108.7432 F900
G00 Z-10.0000 F480
G01 X117.7432 F900
G00 Z-11.5000 F480
G01 Z-12.0000 F100
G01 Z-13.0000 F100
G01 X222.4039 F900
G00 Z-10.0000 F480
G01 X231.4039 F900
G00 Z30.0000 F480


;No. 26: Ausschnitt 38
G00 X213.5972 Y38.3872 Z30.0000 F2100
G00 Z0.5000 F480
G01 Z0.0000 F100
G01 Z-2.0000 F100
G01 X286.5294 F900
G01 Y42.8872 F900
G01 X213.5972 F900
G01 X212.9972 Y42.8564 F900
G01 Y46.2033 F900
G01 X287.1294 F900
G01 Y35.1982 F900
G01 X212.9972 Y35.0700 F900
G01 Y42.8564 F900
G01 X213.5972 Y42.8872 F900
G01 Z-4.0000 F100
G01 X286.5294 F900
G01 Y38.3872 F900
G01 X213.5972 F900
G01 X212.9972 Y38.4179 F900
G01 Y46.2033 F900
G01 X287.1294 F900
G01 Y35.1982 F900
G01 X212.9972 Y35.0700 F900
G01 Y38.4179 F900
G01 X213.5972 Y38.3872 F900
G01 Z-6.0000 F100
G01 X286.5294 F900
G01 Y42.8872 F900
G01 X213.5972 F900
G01 X212.9972 Y42.8564 F900
G01 Y46.2033 F900
G01 X287.1294 F900
G01 Y35.1982 F900
G01 X212.9972 Y35.0700 F900
G01 Y42.8564 F900
G01 X213.5972 Y42.8872 F900
G01 Z-8.0000 F100
G01 X286.5294 F900
G01 Y38.3872 F900
G01 X213.5972 F900
G01 X212.9972 Y38.4179 F900
G01 Y46.2033 F900
G01 X287.1294 F900
G01 Y35.1982 F900
G01 X212.9972 Y35.0700 F900
G01 Y38.4179 F900
G01 X213.5972 Y38.3872 F900
G01 Z-10.0000 F100
G01 X286.5294 F900
G01 Y42.8872 F900
G01 X213.5972 F900
G01 X212.9972 Y42.8564 F900
G01 Y46.2033 F900
G01 X287.1294 F900
G01 Y35.1982 F900
G01 X212.9972 Y35.0700 F900
G01 Y42.8564 F900
G01 X213.5972 Y42.8872 F900
G01 Z-12.0000 F100
G01 X286.5294 F900
G01 Y38.3872 F900
G01 X213.5972 F900
G01 X212.9972 Y38.4179 F900
G01 Y46.2033 F900
G01 X287.1294 F900
G01 Y35.1982 F900
G01 X212.9972 Y35.0700 F900
G01 Y38.4179 F900
G01 X213.5972 Y38.3872 F900
G01 Z-13.0000 F100
G01 X286.5294 F900
G01 Y42.8872 F900
G01 X213.5972 F900
G01 X212.9972 Y42.8564 F900
G01 Y46.2033 F900
G01 X287.1294 F900
G01 Y35.1982 F900
G01 X212.9972 Y35.0700 F900
G01 Y42.8564 F900
G01 X213.5972 Y42.8872 F900
G00 Z30.0000 F480


;No. 27: Ausschnitt 46
G00 X206.3999 Y41.4324 Z30.0000 F2100
G00 Z0.5000 F480
G01 Z0.0000 F100
G01 Z-2.0000 F100
G01 X183.5999 F900
G01 Y36.9324 F900
G01 X206.3999 F900
G01 X206.3998 Y45.9324 F900
G01 X183.5998 F900
G01 Y50.4324 F900
G01 X206.3998 F900
G01 X206.3997 Y54.9324 F900
G01 X183.5997 F900
G01 Y59.4324 F900
G01 X206.3997 F900
G01 X206.3996 Y63.9324 F900
G01 X183.5996 F900
G01 Y68.4324 F900
G01 X206.3996 F900
G01 X206.3995 Y72.9324 F900
G01 X183.5995 F900
G01 Y77.4324 F900
G01 X206.3995 F900
G01 X206.3994 Y81.9324 F900
G01 X183.5994 F900
G01 Y86.4324 F900
G01 X206.3994 F900
G01 X206.3993 Y90.9324 F900
G01 X183.5993 F900
G01 Y95.4324 F900
G01 X206.3993 F900
G01 X206.3992 Y99.9324 F900
G01 X183.5992 F900
G01 Y104.4324 F900
G01 X206.3992 F900
G01 X206.3991 Y108.9324 F900
G01 X183.5991 F900
G01 Y113.4324 F900
G01 X206.3991 F900
G01 X206.3990 Y117.9324 F900
G01 X183.5990 F900
G01 Y122.4324 F900
G01 X206.3990 F900
G01 X206.3989 Y126.9324 F900
G01 X183.5989 F900
G01 Y131.4324 F900
G01 X206.3989 F900
G01 X206.3988 Y135.9324 F900
G01 X183.5988 F900
G01 Y140.4324 F900
G01 X206.3988 F900
G01 X206.3987 Y144.9324 F900
G01 X183.5987 F900
G01 Y149.4324 F900
G01 X206.3987 F900
G01 X206.3986 Y153.9324 F900
G01 X183.5986 F900
G01 Y158.4324 F900
G01 X206.3986 F900
G01 X206.3985 Y162.9324 F900
G01 X183.5985 F900
G01 Y167.4324 F900
G01 X206.3985 F900
G01 X206.3984 Y171.9324 F900
G01 X183.5984 F900
G01 Y176.4324 F900
G01 X206.3984 F900
G01 X206.3983 Y180.9324 F900
G01 X183.5983 F900
G01 Y185.4324 F900
G01 X206.3983 F900
G01 X206.3982 Y189.9324 F900
G01 X183.5982 F900
G01 Y194.4324 F900
G01 X206.3982 F900
G01 X206.3981 Y198.9324 F900
G01 X183.5981 F900
G01 Y203.4324 F900
G01 X206.3981 F900
G01 X206.3980 Y207.9324 F900
G01 X183.5980 F900
G01 Y212.4324 F900
G01 X206.3980 F900
G01 Y216.9324 F900
G01 X183.5980 F900
G01 X183.5979 Y221.4324 F900
G01 X206.3979 F900
G01 Y225.9324 F900
G01 X183.5979 F900
G01 X183.5978 Y230.4324 F900
G01 X206.3978 F900
G01 Y234.9324 F900
G01 X183.5978 F900
G01 X183.5977 Y239.4324 F900
G01 X206.3977 F900
G01 Y243.9324 F900
G01 X183.5977 F900
G01 X183.5976 Y248.4324 F900
G01 X206.3976 F900
G01 Y252.9324 F900
G01 X183.5976 F900
G01 X183.5975 Y257.4324 F900
G01 X206.3975 F900
G01 Y261.9324 F900
G01 X183.5975 F900
G01 X183.5974 Y266.4324 F900
G01 X206.3974 F900
G01 Y270.9324 F900
G01 X183.5974 F900
G01 X183.5973 Y275.4324 F900
G01 X206.3973 F900
G01 Y279.9324 F900
G01 X183.5973 F900
G01 X182.9973 Y279.8876 F900
G01 X182.9972 Y283.8648 F900
G01 X206.9972 F900
G01 X207.0000 Y33.0000 F900
G01 X183.0000 F900
G01 X182.9973 Y279.8876 F900
G01 X183.5973 Y279.9324 F900
G01 Z-3.0000 F100
G01 X206.3973 F900
G01 Y275.4324 F900
G01 X183.5973 F900
G01 X183.5974 Y270.9324 F900
G01 X206.3974 F900
G01 Y266.4324 F900
G01 X183.5974 F900
G01 X183.5975 Y261.9324 F900
G01 X206.3975 F900
G01 Y257.4324 F900
G01 X183.5975 F900
G01 X183.5976 Y252.9324 F900
G01 X206.3976 F900
G01 Y248.4324 F900
G01 X183.5976 F900
G01 X183.5977 Y243.9324 F900
G01 X206.3977 F900
G01 Y239.4324 F900
G01 X183.5977 F900
G01 X183.5978 Y234.9324 F900
G01 X206.3978 F900
G01 Y230.4324 F900
G01 X183.5978 F900
G01 X183.5979 Y225.9324 F900
G01 X206.3979 F900
G01 Y221.4324 F900
G01 X183.5979 F900
G01 X183.5980 Y216.9324 F900
G01 X206.3980 F900
G01 Y212.4324 F900
G01 X183.5980 F900
G01 Y207.9324 F900
G01 X206.3980 F900
G01 X206.3981 Y203.4324 F900
G01 X183.5981 F900
G01 Y198.9324 F900
G01 X206.3981 F900
G01 X206.3982 Y194.4324 F900
G01 X183.5982 F900
G01 Y189.9324 F900
G01 X206.3982 F900
G01 X206.3983 Y185.4324 F900
G01 X183.5983 F900
G01 Y180.9324 F900
G01 X206.3983 F900
G01 X206.3984 Y176.4324 F900
G01 X183.5984 F900
G01 Y171.9324 F900
G01 X206.3984 F900
G01 X206.3985 Y167.4324 F900
G01 X183.5985 F900
G01 Y162.9324 F900
G01 X206.3985 F900
G01 X206.3986 Y158.4324 F900
G01 X183.5986 F900
G01 Y153.9324 F900
G01 X206.3986 F900
G01 X206.3987 Y149.4324 F900
G01 X183.5987 F900
G01 Y144.9324 F900
G01 X206.3987 F900
G01 X206.3988 Y140.4324 F900
G01 X183.5988 F900
G01 Y135.9324 F900
G01 X206.3988 F900
G01 X206.3989 Y131.4324 F900
G01 X183.5989 F900
G01 Y126.9324 F900
G01 X206.3989 F900
G01 X206.3990 Y122.4324 F900
G01 X183.5990 F900
G01 Y117.9324 F900
G01 X206.3990 F900
G01 X206.3991 Y113.4324 F900
G01 X183.5991 F900
G01 Y108.9324 F900
G01 X206.3991 F900
G01 X206.3992 Y104.4324 F900
G01 X183.5992 F900
G01 Y99.9324 F900
G01 X206.3992 F900
G01 X206.3993 Y95.4324 F900
G01 X183.5993 F900
G01 Y90.9324 F900
G01 X206.3993 F900
G01 X206.3994 Y86.4324 F900
G01 X183.5994 F900
G01 Y81.9324 F900
G01 X206.3994 F900
G01 X206.3995 Y77.4324 F900
G01 X183.5995 F900
G01 Y72.9324 F900
G01 X206.3995 F900
G01 X206.3996 Y68.4324 F900
G01 X183.5996 F900
G01 Y63.9324 F900
G01 X206.3996 F900
G01 X206.3997 Y59.4324 F900
G01 X183.5997 F900
G01 Y54.9324 F900
G01 X206.3997 F900
G01 X206.3998 Y50.4324 F900
G01 X183.5998 F900
G01 Y45.9324 F900
G01 X206.3998 F900
G01 X206.3999 Y41.4324 F900
G01 X183.5999 F900
G01 Y36.9324 F900
G01 X206.3999 F900
G01 X206.9999 Y36.9772 F900
G01 X207.0000 Y33.0000 F900
G01 X183.0000 F900
G01 X182.9972 Y283.8648 F900
G01 X206.9972 F900
G01 X206.9999 Y36.9772 F900
G01 X206.3999 Y36.9324 F900
G00 Z30.0000 F480


;No. 28: Ausschnitt 39
G00 X213.5972 Y80.4533 Z30.0000 F2100
G00 Z0.5000 F480
G01 Z0.0000 F100
G01 Z-2.0000 F100
G01 X286.5294 F900
G01 Y84.9533 F900
G01 X213.5972 F900
G01 X212.9972 Y84.9217 F900
G01 Y88.2033 F900
G01 X287.1294 F900
G01 Y77.2033 F900
G01 X212.9972 F900
G01 Y84.9217 F900
G01 X213.5972 Y84.9533 F900
G01 Z-4.0000 F100
G01 X286.5294 F900
G01 Y80.4533 F900
G01 X213.5972 F900
G01 X212.9972 Y80.4850 F900
G01 Y88.2033 F900
G01 X287.1294 F900
G01 Y77.2033 F900
G01 X212.9972 F900
G01 Y80.4850 F900
G01 X213.5972 Y80.4533 F900
G01 Z-6.0000 F100
G01 X286.5294 F900
G01 Y84.9533 F900
G01 X213.5972 F900
G01 X212.9972 Y84.9217 F900
G01 Y88.2033 F900
G01 X287.1294 F900
G01 Y77.2033 F900
G01 X212.9972 F900
G01 Y84.9217 F900
G01 X213.5972 Y84.9533 F900
G01 Z-8.0000 F100
G01 X286.5294 F900
G01 Y80.4533 F900
G01 X213.5972 F900
G01 X212.9972 Y80.4850 F900
G01 Y88.2033 F900
G01 X287.1294 F900
G01 Y77.2033 F900
G01 X212.9972 F900
G01 Y80.4850 F900
G01 X213.5972 Y80.4533 F900
G01 Z-10.0000 F100
G01 X286.5294 F900
G01 Y84.9533 F900
G01 X213.5972 F900
G01 X212.9972 Y84.9217 F900
G01 Y88.2033 F900
G01 X287.1294 F900
G01 Y77.2033 F900
G01 X212.9972 F900
G01 Y84.9217 F900
G01 X213.5972 Y84.9533 F900
G01 Z-12.0000 F100
G01 X286.5294 F900
G01 Y80.4533 F900
G01 X213.5972 F900
G01 X212.9972 Y80.4850 F900
G01 Y88.2033 F900
G01 X287.1294 F900
G01 Y77.2033 F900
G01 X212.9972 F900
G01 Y80.4850 F900
G01 X213.5972 Y80.4533 F900
G01 Z-13.0000 F100
G01 X286.5294 F900
G01 Y84.9533 F900
G01 X213.5972 F900
G01 X212.9972 Y84.9217 F900
G01 Y88.2033 F900
G01 X287.1294 F900
G01 Y77.2033 F900
G01 X212.9972 F900
G01 Y84.9217 F900
G01 X213.5972 Y84.9533 F900
G00 Z30.0000 F480


;No. 29: Ausschnitt 40
G00 X213.5972 Y103.4533 Z30.0000 F2100
G00 Z0.5000 F480
G01 Z0.0000 F100
G01 Z-2.0000 F100
G01 X286.5294 F900
G01 Y107.9533 F900
G01 X213.5972 F900
G01 X212.9972 Y107.9217 F900
G01 Y111.2033 F900
G01 X287.1294 F900
G01 Y100.2033 F900
G01 X212.9972 F900
G01 Y107.9217 F900
G01 X213.5972 Y107.9533 F900
G01 Z-4.0000 F100
G01 X286.5294 F900
G01 Y103.4533 F900
G01 X213.5972 F900
G01 X212.9972 Y103.4850 F900
G01 Y111.2033 F900
G01 X287.1294 F900
G01 Y100.2033 F900
G01 X212.9972 F900
G01 Y103.4850 F900
G01 X213.5972 Y103.4533 F900
G01 Z-6.0000 F100
G01 X286.5294 F900
G01 Y107.9533 F900
G01 X213.5972 F900
G01 X212.9972 Y107.9217 F900
G01 Y111.2033 F900
G01 X287.1294 F900
G01 Y100.2033 F900
G01 X212.9972 F900
G01 Y107.9217 F900
G01 X213.5972 Y107.9533 F900
G01 Z-8.0000 F100
G01 X286.5294 F900
G01 Y103.4533 F900
G01 X213.5972 F900
G01 X212.9972 Y103.4850 F900
G01 Y111.2033 F900
G01 X287.1294 F900
G01 Y100.2033 F900
G01 X212.9972 F900
G01 Y103.4850 F900
G01 X213.5972 Y103.4533 F900
G01 Z-10.0000 F100
G01 X286.5294 F900
G01 Y107.9533 F900
G01 X213.5972 F900
G01 X212.9972 Y107.9217 F900
G01 Y111.2033 F900
G01 X287.1294 F900
G01 Y100.2033 F900
G01 X212.9972 F900
G01 Y107.9217 F900
G01 X213.5972 Y107.9533 F900
G01 Z-12.0000 F100
G01 X286.5294 F900
G01 Y103.4533 F900
G01 X213.5972 F900
G01 X212.9972 Y103.4850 F900
G01 Y111.2033 F900
G01 X287.1294 F900
G01 Y100.2033 F900
G01 X212.9972 F900
G01 Y103.4850 F900
G01 X213.5972 Y103.4533 F900
G01 Z-13.0000 F100
G01 X286.5294 F900
G01 Y107.9533 F900
G01 X213.5972 F900
G01 X212.9972 Y107.9217 F900
G01 Y111.2033 F900
G01 X287.1294 F900
G01 Y100.2033 F900
G01 X212.9972 F900
G01 Y107.9217 F900
G01 X213.5972 Y107.9533 F900
G00 Z30.0000 F480


;No. 30: Ausschnitt 59
G00 X176.3982 Y168.9840 Z30.0000 F2100
G00 Z0.5000 F480
G01 Z0.0000 F100
G01 Z-2.0000 F100
G01 X143.5967 F900
G01 X143.5980 Y173.4840 F900
G01 X176.3990 F900
G01 X176.9989 Y173.4556 F900
G01 X176.9977 Y165.4679 F900
G01 X142.9956 F900
G01 X142.9991 Y177.0000 F900
G01 X176.9995 F900
G01 X176.9989 Y173.4556 F900
G01 X176.3990 Y173.4840 F900
G01 Z-4.0000 F100
G01 X143.5980 F900
G01 X143.5967 Y168.9840 F900
G01 X176.3982 F900
G01 X176.9982 Y169.0122 F900
G01 X176.9977 Y165.4679 F900
G01 X142.9956 F900
G01 X142.9991 Y177.0000 F900
G01 X176.9995 F900
G01 X176.9982 Y169.0122 F900
G01 X176.3982 Y168.9840 F900
G01 Z-6.0000 F100
G01 X143.5967 F900
G01 X143.5980 Y173.4840 F900
G01 X176.3990 F900
G01 X176.9989 Y173.4556 F900
G01 X176.9977 Y165.4679 F900
G01 X142.9956 F900
G01 X142.9991 Y177.0000 F900
G01 X176.9995 F900
G01 X176.9989 Y173.4556 F900
G01 X176.3990 Y173.4840 F900
G01 Z-8.0000 F100
G01 X143.5980 F900
G01 X143.5967 Y168.9840 F900
G01 X176.3982 F900
G01 X176.9982 Y169.0122 F900
G01 X176.9977 Y165.4679 F900
G01 X142.9956 F900
G01 X142.9991 Y177.0000 F900
G01 X176.9995 F900
G01 X176.9982 Y169.0122 F900
G01 X176.3982 Y168.9840 F900
G01 Z-10.0000 F100
G01 X143.5967 F900
G01 X143.5980 Y173.4840 F900
G01 X176.3990 F900
G01 X176.9989 Y173.4556 F900
G01 X176.9977 Y165.4679 F900
G01 X142.9956 F900
G01 X142.9991 Y177.0000 F900
G01 X176.9995 F900
G01 X176.9989 Y173.4556 F900
G01 X176.3990 Y173.4840 F900
G01 Z-12.0000 F100
G01 X143.5980 F900
G01 X143.5967 Y168.9840 F900
G01 X176.3982 F900
G01 X176.9982 Y169.0122 F900
G01 X176.9977 Y165.4679 F900
G01 X142.9956 F900
G01 X142.9991 Y177.0000 F900
G01 X176.9995 F900
G01 X176.9982 Y169.0122 F900
G01 X176.3982 Y168.9840 F900
G01 Z-13.0000 F100
G01 X143.5967 F900
G01 X143.5980 Y173.4840 F900
G01 X176.3990 F900
G01 X176.9989 Y173.4556 F900
G01 X176.9977 Y165.4679 F900
G01 X142.9956 F900
G01 X142.9991 Y177.0000 F900
G01 X176.9995 F900
G01 X176.9989 Y173.4556 F900
G01 X176.3990 Y173.4840 F900
G00 Z30.0000 F480


;No. 31: Ausschnitt 55
G00 X176.3983 Y149.9533 Z30.0000 F2100
G00 Z0.5000 F480
G01 Z0.0000 F100
G01 Z-2.0000 F100
G01 X143.5947 F900
G01 Y145.4533 F900
G01 X176.3991 F900
G01 X176.9990 Y145.4852 F900
G01 X176.9996 Y142.2095 F900
G01 X142.9947 Y142.2033 F900
G01 Y153.2033 F900
G01 X176.9977 Y153.2028 F900
G01 X176.9990 Y145.4852 F900
G01 X176.3991 Y145.4533 F900
G01 Z-4.0000 F100
G01 X143.5947 F900
G01 Y149.9533 F900
G01 X176.3983 F900
G01 X176.9983 Y149.9218 F900
G01 X176.9996 Y142.2095 F900
G01 X142.9947 Y142.2033 F900
G01 Y153.2033 F900
G01 X176.9977 Y153.2028 F900
G01 X176.9983 Y149.9218 F900
G01 X176.3983 Y149.9533 F900
G01 Z-6.0000 F100
G01 X143.5947 F900
G01 Y145.4533 F900
G01 X176.3991 F900
G01 X176.9990 Y145.4852 F900
G01 X176.9996 Y142.2095 F900
G01 X142.9947 Y142.2033 F900
G01 Y153.2033 F900
G01 X176.9977 Y153.2028 F900
G01 X176.9990 Y145.4852 F900
G01 X176.3991 Y145.4533 F900
G01 Z-8.0000 F100
G01 X143.5947 F900
G01 Y149.9533 F900
G01 X176.3983 F900
G01 X176.9983 Y149.9218 F900
G01 X176.9996 Y142.2095 F900
G01 X142.9947 Y142.2033 F900
G01 Y153.2033 F900
G01 X176.9977 Y153.2028 F900
G01 X176.9983 Y149.9218 F900
G01 X176.3983 Y149.9533 F900
G01 Z-10.0000 F100
G01 X143.5947 F900
G01 Y145.4533 F900
G01 X176.3991 F900
G01 X176.9990 Y145.4852 F900
G01 X176.9996 Y142.2095 F900
G01 X142.9947 Y142.2033 F900
G01 Y153.2033 F900
G01 X176.9977 Y153.2028 F900
G01 X176.9990 Y145.4852 F900
G01 X176.3991 Y145.4533 F900
G01 Z-12.0000 F100
G01 X143.5947 F900
G01 Y149.9533 F900
G01 X176.3983 F900
G01 X176.9983 Y149.9218 F900
G01 X176.9996 Y142.2095 F900
G01 X142.9947 Y142.2033 F900
G01 Y153.2033 F900
G01 X176.9977 Y153.2028 F900
G01 X176.9983 Y149.9218 F900
G01 X176.3983 Y149.9533 F900
G01 Z-13.0000 F100
G01 X143.5947 F900
G01 Y145.4533 F900
G01 X176.3991 F900
G01 X176.9990 Y145.4852 F900
G01 X176.9996 Y142.2095 F900
G01 X142.9947 Y142.2033 F900
G01 Y153.2033 F900
G01 X176.9977 Y153.2028 F900
G01 X176.9990 Y145.4852 F900
G01 X176.3991 Y145.4533 F900
G00 Z30.0000 F480


;No. 32: Ausschnitt 35
G00 X176.3972 Y107.9533 Z30.0000 F2100
G00 Z0.5000 F480
G01 Z0.0000 F100
G01 Z-2.0000 F100
G01 X143.5947 F900
G01 Y103.4533 F900
G01 X176.3972 F900
G01 X176.9972 Y103.4850 F900
G01 Y100.2033 F900
G01 X142.9947 F900
G01 Y111.2033 F900
G01 X176.9972 F900
G01 Y103.4850 F900
G01 X176.3972 Y103.4533 F900
G01 Z-4.0000 F100
G01 X143.5947 F900
G01 Y107.9533 F900
G01 X176.3972 F900
G01 X176.9972 Y107.9217 F900
G01 Y100.2033 F900
G01 X142.9947 F900
G01 Y111.2033 F900
G01 X176.9972 F900
G01 Y107.9217 F900
G01 X176.3972 Y107.9533 F900
G01 Z-6.0000 F100
G01 X143.5947 F900
G01 Y103.4533 F900
G01 X176.3972 F900
G01 X176.9972 Y103.4850 F900
G01 Y100.2033 F900
G01 X142.9947 F900
G01 Y111.2033 F900
G01 X176.9972 F900
G01 Y103.4850 F900
G01 X176.3972 Y103.4533 F900
G01 Z-8.0000 F100
G01 X143.5947 F900
G01 Y107.9533 F900
G01 X176.3972 F900
G01 X176.9972 Y107.9217 F900
G01 Y100.2033 F900
G01 X142.9947 F900
G01 Y111.2033 F900
G01 X176.9972 F900
G01 Y107.9217 F900
G01 X176.3972 Y107.9533 F900
G01 Z-10.0000 F100
G01 X143.5947 F900
G01 Y103.4533 F900
G01 X176.3972 F900
G01 X176.9972 Y103.4850 F900
G01 Y100.2033 F900
G01 X142.9947 F900
G01 Y111.2033 F900
G01 X176.9972 F900
G01 Y103.4850 F900
G01 X176.3972 Y103.4533 F900
G01 Z-12.0000 F100
G01 X143.5947 F900
G01 Y107.9533 F900
G01 X176.3972 F900
G01 X176.9972 Y107.9217 F900
G01 Y100.2033 F900
G01 X142.9947 F900
G01 Y111.2033 F900
G01 X176.9972 F900
G01 Y107.9217 F900
G01 X176.3972 Y107.9533 F900
G01 Z-13.0000 F100
G01 X143.5947 F900
G01 Y103.4533 F900
G01 X176.3972 F900
G01 X176.9972 Y103.4850 F900
G01 Y100.2033 F900
G01 X142.9947 F900
G01 Y111.2033 F900
G01 X176.9972 F900
G01 Y103.4850 F900
G01 X176.3972 Y103.4533 F900
G00 Z30.0000 F480


;No. 33: Ausschnitt 32
G00 X176.3972 Y84.9533 Z30.0000 F2100
G00 Z0.5000 F480
G01 Z0.0000 F100
G01 Z-2.0000 F100
G01 X143.5947 F900
G01 Y80.4533 F900
G01 X176.3972 F900
G01 X176.9972 Y80.4850 F900
G01 Y77.2033 F900
G01 X142.9947 F900
G01 Y88.2033 F900
G01 X176.9972 F900
G01 Y80.4850 F900
G01 X176.3972 Y80.4533 F900
G01 Z-4.0000 F100
G01 X143.5947 F900
G01 Y84.9533 F900
G01 X176.3972 F900
G01 X176.9972 Y84.9217 F900
G01 Y77.2033 F900
G01 X142.9947 F900
G01 Y88.2033 F900
G01 X176.9972 F900
G01 Y84.9217 F900
G01 X176.3972 Y84.9533 F900
G01 Z-6.0000 F100
G01 X143.5947 F900
G01 Y80.4533 F900
G01 X176.3972 F900
G01 X176.9972 Y80.4850 F900
G01 Y77.2033 F900
G01 X142.9947 F900
G01 Y88.2033 F900
G01 X176.9972 F900
G01 Y80.4850 F900
G01 X176.3972 Y80.4533 F900
G01 Z-8.0000 F100
G01 X143.5947 F900
G01 Y84.9533 F900
G01 X176.3972 F900
G01 X176.9972 Y84.9217 F900
G01 Y77.2033 F900
G01 X142.9947 F900
G01 Y88.2033 F900
G01 X176.9972 F900
G01 Y84.9217 F900
G01 X176.3972 Y84.9533 F900
G01 Z-10.0000 F100
G01 X143.5947 F900
G01 Y80.4533 F900
G01 X176.3972 F900
G01 X176.9972 Y80.4850 F900
G01 Y77.2033 F900
G01 X142.9947 F900
G01 Y88.2033 F900
G01 X176.9972 F900
G01 Y80.4850 F900
G01 X176.3972 Y80.4533 F900
G01 Z-12.0000 F100
G01 X143.5947 F900
G01 Y84.9533 F900
G01 X176.3972 F900
G01 X176.9972 Y84.9217 F900
G01 Y77.2033 F900
G01 X142.9947 F900
G01 Y88.2033 F900
G01 X176.9972 F900
G01 Y84.9217 F900
G01 X176.3972 Y84.9533 F900
G01 Z-13.0000 F100
G01 X143.5947 F900
G01 Y80.4533 F900
G01 X176.3972 F900
G01 X176.9972 Y80.4850 F900
G01 Y77.2033 F900
G01 X142.9947 F900
G01 Y88.2033 F900
G01 X176.9972 F900
G01 Y80.4850 F900
G01 X176.3972 Y80.4533 F900
G00 Z30.0000 F480


;No. 34: Ausschnitt 29
G00 X176.3972 Y42.8841 Z30.0000 F2100
G00 Z0.5000 F480
G01 Z0.0000 F100
G01 Z-2.0000 F100
G01 X143.5947 F900
G01 Y38.3841 F900
G01 X176.3972 F900
G01 X176.9972 Y38.4148 F900
G01 Y35.0648 F900
G01 X142.9947 F900
G01 Y46.2033 F900
G01 X176.9972 F900
G01 Y38.4148 F900
G01 X176.3972 Y38.3841 F900
G01 Z-4.0000 F100
G01 X143.5947 F900
G01 Y42.8841 F900
G01 X176.3972 F900
G01 X176.9972 Y42.8534 F900
G01 Y35.0648 F900
G01 X142.9947 F900
G01 Y46.2033 F900
G01 X176.9972 F900
G01 Y42.8534 F900
G01 X176.3972 Y42.8841 F900
G01 Z-6.0000 F100
G01 X143.5947 F900
G01 Y38.3841 F900
G01 X176.3972 F900
G01 X176.9972 Y38.4148 F900
G01 Y35.0648 F900
G01 X142.9947 F900
G01 Y46.2033 F900
G01 X176.9972 F900
G01 Y38.4148 F900
G01 X176.3972 Y38.3841 F900
G01 Z-8.0000 F100
G01 X143.5947 F900
G01 Y42.8841 F900
G01 X176.3972 F900
G01 X176.9972 Y42.8534 F900
G01 Y35.0648 F900
G01 X142.9947 F900
G01 Y46.2033 F900
G01 X176.9972 F900
G01 Y42.8534 F900
G01 X176.3972 Y42.8841 F900
G01 Z-10.0000 F100
G01 X143.5947 F900
G01 Y38.3841 F900
G01 X176.3972 F900
G01 X176.9972 Y38.4148 F900
G01 Y35.0648 F900
G01 X142.9947 F900
G01 Y46.2033 F900
G01 X176.9972 F900
G01 Y38.4148 F900
G01 X176.3972 Y38.3841 F900
G01 Z-12.0000 F100
G01 X143.5947 F900
G01 Y42.8841 F900
G01 X176.3972 F900
G01 X176.9972 Y42.8534 F900
G01 Y35.0648 F900
G01 X142.9947 F900
G01 Y46.2033 F900
G01 X176.9972 F900
G01 Y42.8534 F900
G01 X176.3972 Y42.8841 F900
G01 Z-13.0000 F100
G01 X143.5947 F900
G01 Y38.3841 F900
G01 X176.3972 F900
G01 X176.9972 Y38.4148 F900
G01 Y35.0648 F900
G01 X142.9947 F900
G01 Y46.2033 F900
G01 X176.9972 F900
G01 Y38.4148 F900
G01 X176.3972 Y38.3841 F900
G00 Z30.0000 F480


;No. 35: Ausschnitt 45
G00 X136.3947 Y37.9648 Z30.0000 F2100
G00 Z0.5000 F480
G01 Z0.0000 F100
G01 Z-2.0000 F100
G01 X113.5971 F900
G01 Y42.4648 F900
G01 X136.3947 F900
G01 Y46.9648 F900
G01 X113.5971 F900
G01 Y51.4648 F900
G01 X136.3947 F900
G01 Y55.9648 F900
G01 X113.5971 F900
G01 Y60.4648 F900
G01 X136.3947 F900
G01 Y64.9648 F900
G01 X113.5971 F900
G01 Y69.4648 F900
G01 X136.3947 F900
G01 Y73.9648 F900
G01 X113.5971 F900
G01 Y78.4648 F900
G01 X136.3947 F900
G01 Y82.9648 F900
G01 X113.5971 F900
G01 Y87.4648 F900
G01 X136.3947 F900
G01 Y91.9648 F900
G01 X113.5971 F900
G01 Y96.4648 F900
G01 X136.3947 F900
G01 Y100.9648 F900
G01 X113.5971 F900
G01 Y105.4648 F900
G01 X136.3947 F900
G01 Y109.9648 F900
G01 X113.5971 F900
G01 Y114.4648 F900
G01 X136.3947 F900
G01 Y118.9648 F900
G01 X113.5971 F900
G01 Y123.4648 F900
G01 X136.3947 F900
G01 Y127.9648 F900
G01 X113.5971 F900
G01 Y132.4648 F900
G01 X136.3947 F900
G01 Y136.9648 F900
G01 X113.5971 F900
G01 Y141.4648 F900
G01 X136.3947 F900
G01 Y145.9648 F900
G01 X113.5971 F900
G01 Y150.4648 F900
G01 X136.3947 F900
G01 Y154.9648 F900
G01 X113.5971 F900
G01 Y159.4648 F900
G01 X136.3947 F900
G01 Y163.9648 F900
G01 X113.5971 F900
G01 Y168.4648 F900
G01 X136.3947 F900
G01 Y172.9648 F900
G01 X113.5971 F900
G01 Y177.4648 F900
G01 X136.3947 F900
G01 Y181.9648 F900
G01 X113.5971 F900
G01 Y186.4648 F900
G01 X136.3947 F900
G01 Y190.9648 F900
G01 X113.5971 F900
G01 Y195.4648 F900
G01 X136.3947 F900
G01 Y199.9648 F900
G01 X113.5971 F900
G01 Y204.4648 F900
G01 X136.3947 F900
G01 Y208.9648 F900
G01 X113.5971 F900
G01 Y213.4648 F900
G01 X136.3947 F900
G01 Y217.9648 F900
G01 X113.5971 F900
G01 Y222.4648 F900
G01 X136.3947 F900
G01 Y226.9648 F900
G01 X113.5971 F900
G01 Y231.4648 F900
G01 X136.3947 F900
G01 Y235.9648 F900
G01 X113.5971 F900
G01 Y240.4648 F900
G01 X136.3947 F900
G01 Y244.9648 F900
G01 X113.5971 F900
G01 Y249.4648 F900
G01 X136.3947 F900
G01 Y253.9648 F900
G01 X113.5971 F900
G01 Y258.4648 F900
G01 X136.3947 F900
G01 Y262.9648 F900
G01 X113.5971 F900
G01 Y267.4648 F900
G01 X136.3947 F900
G01 Y271.9648 F900
G01 X113.5971 F900
G01 Y276.4648 F900
G01 X136.3947 F900
G01 Y280.9648 F900
G01 X113.5971 F900
G01 X112.9971 Y280.9041 F900
G01 Y283.8648 F900
G01 X136.9947 F900
G01 Y35.0648 F900
G01 X112.9971 F900
G01 Y280.9041 F900
G01 X113.5971 Y280.9648 F900
G01 Z-3.0000 F100
G01 X136.3947 F900
G01 Y276.4648 F900
G01 X113.5971 F900
G01 Y271.9648 F900
G01 X136.3947 F900
G01 Y267.4648 F900
G01 X113.5971 F900
G01 Y262.9648 F900
G01 X136.3947 F900
G01 Y258.4648 F900
G01 X113.5971 F900
G01 Y253.9648 F900
G01 X136.3947 F900
G01 Y249.4648 F900
G01 X113.5971 F900
G01 Y244.9648 F900
G01 X136.3947 F900
G01 Y240.4648 F900
G01 X113.5971 F900
G01 Y235.9648 F900
G01 X136.3947 F900
G01 Y231.4648 F900
G01 X113.5971 F900
G01 Y226.9648 F900
G01 X136.3947 F900
G01 Y222.4648 F900
G01 X113.5971 F900
G01 Y217.9648 F900
G01 X136.3947 F900
G01 Y213.4648 F900
G01 X113.5971 F900
G01 Y208.9648 F900
G01 X136.3947 F900
G01 Y204.4648 F900
G01 X113.5971 F900
G01 Y199.9648 F900
G01 X136.3947 F900
G01 Y195.4648 F900
G01 X113.5971 F900
G01 Y190.9648 F900
G01 X136.3947 F900
G01 Y186.4648 F900
G01 X113.5971 F900
G01 Y181.9648 F900
G01 X136.3947 F900
G01 Y177.4648 F900
G01 X113.5971 F900
G01 Y172.9648 F900
G01 X136.3947 F900
G01 Y168.4648 F900
G01 X113.5971 F900
G01 Y163.9648 F900
G01 X136.3947 F900
G01 Y159.4648 F900
G01 X113.5971 F900
G01 Y154.9648 F900
G01 X136.3947 F900
G01 Y150.4648 F900
G01 X113.5971 F900
G01 Y145.9648 F900
G01 X136.3947 F900
G01 Y141.4648 F900
G01 X113.5971 F900
G01 Y136.9648 F900
G01 X136.3947 F900
G01 Y132.4648 F900
G01 X113.5971 F900
G01 Y127.9648 F900
G01 X136.3947 F900
G01 Y123.4648 F900
G01 X113.5971 F900
G01 Y118.9648 F900
G01 X136.3947 F900
G01 Y114.4648 F900
G01 X113.5971 F900
G01 Y109.9648 F900
G01 X136.3947 F900
G01 Y105.4648 F900
G01 X113.5971 F900
G01 Y100.9648 F900
G01 X136.3947 F900
G01 Y96.4648 F900
G01 X113.5971 F900
G01 Y91.9648 F900
G01 X136.3947 F900
G01 Y87.4648 F900
G01 X113.5971 F900
G01 Y82.9648 F900
G01 X136.3947 F900
G01 Y78.4648 F900
G01 X113.5971 F900
G01 Y73.9648 F900
G01 X136.3947 F900
G01 Y69.4648 F900
G01 X113.5971 F900
G01 Y64.9648 F900
G01 X136.3947 F900
G01 Y60.4648 F900
G01 X113.5971 F900
G01 Y55.9648 F900
G01 X136.3947 F900
G01 Y51.4648 F900
G01 X113.5971 F900
G01 Y46.9648 F900
G01 X136.3947 F900
G01 Y42.4648 F900
G01 X113.5971 F900
G01 Y37.9648 F900
G01 X136.3947 F900
G01 X136.9947 Y38.0255 F900
G01 Y35.0648 F900
G01 X112.9971 F900
G01 Y283.8648 F900
G01 X136.9947 F900
G01 Y38.0255 F900
G01 X136.3947 Y37.9648 F900
G00 Z30.0000 F480
G00 X0.0000 Y0.0000 F2100

M05
