;Project Frame NeoPixel 32x32-nachfraesen
;Created by Estlcam version 11 build 11,244
;Machining time about 00:21:49 hours

G90
M03 S30000
G00 Z30.0000 F480


;No. 1: Ausschnitt 44
G00 X287.1263 Y32.3356 F2100
G00 Z0.5000 F480
G01 Z0.0000 F100 S30000
G01 Z-2.0000 F100
G01 X33.1263 F900
G01 X32.2496 Y31.4580 F900
G01 X33.1263 Y32.3356 F900
G01 X32.8679 Y286.8648 F900
G01 X31.9872 Y287.7446 F900
G01 X32.8679 Y286.8648 F900
G01 X286.8678 F900
G01 X287.7446 Y287.7424 F900
G01 X286.8678 Y286.8648 F900
G01 X287.1263 Y32.3356 F900
G01 X288.0070 Y31.4559 F900
G01 X287.1263 Y32.3356 F900
G01 Z-3.0000 F100
G01 X33.1263 F900
G01 X32.2496 Y31.4580 F900
G01 X33.1263 Y32.3356 F900
G01 X32.8679 Y286.8648 F900
G01 X31.9872 Y287.7446 F900
G01 X32.8679 Y286.8648 F900
G01 X286.8678 F900
G01 X287.7446 Y287.7424 F900
G01 X286.8678 Y286.8648 F900
G01 X287.1263 Y32.3356 F900
G01 X288.0070 Y31.4559 F900
G01 X287.1263 Y32.3356 F900
G00 Z30.0000 F480


;No. 2: Ausschnitt 63
G00 X286.2648 Y210.7179 Z30.0000 F2100
G00 Z0.5000 F480
G01 Z0.0000 F100
G01 Z-2.0000 F100
G01 X213.5972 F900
G01 Y215.2179 F900
G01 X286.2648 F900
G01 X286.8648 Y215.1863 F900
G01 Y207.4679 F900
G01 X212.9972 F900
G01 X212.1185 Y206.5893 F900
G01 X212.9972 Y207.4679 F900
G01 Y218.4679 F900
G01 X212.1185 Y219.3466 F900
G01 X212.9972 Y218.4679 F900
G01 X286.8648 F900
G01 Y215.1863 F900
G01 X286.2648 Y215.2179 F900
G01 Z-4.0000 F100
G01 X213.5972 F900
G01 Y210.7179 F900
G01 X286.2648 F900
G01 X286.8648 Y210.7495 F900
G01 Y207.4679 F900
G01 X212.9972 F900
G01 X212.1185 Y206.5893 F900
G01 X212.9972 Y207.4679 F900
G01 Y218.4679 F900
G01 X212.1185 Y219.3466 F900
G01 X212.9972 Y218.4679 F900
G01 X286.8648 F900
G01 Y210.7495 F900
G01 X286.2648 Y210.7179 F900
G01 Z-6.0000 F100
G01 X213.5972 F900
G01 Y215.2179 F900
G01 X286.2648 F900
G01 X286.8648 Y215.1863 F900
G01 Y207.4679 F900
G01 X212.9972 F900
G01 X212.1185 Y206.5893 F900
G01 X212.9972 Y207.4679 F900
G01 Y218.4679 F900
G01 X212.1185 Y219.3466 F900
G01 X212.9972 Y218.4679 F900
G01 X286.8648 F900
G01 Y215.1863 F900
G01 X286.2648 Y215.2179 F900
G01 Z-8.0000 F100
G01 X213.5972 F900
G01 Y210.7179 F900
G01 X286.2648 F900
G01 X286.8648 Y210.7495 F900
G01 Y207.4679 F900
G01 X212.9972 F900
G01 X212.1185 Y206.5893 F900
G01 X212.9972 Y207.4679 F900
G01 Y218.4679 F900
G01 X212.1185 Y219.3466 F900
G01 X212.9972 Y218.4679 F900
G01 X286.8648 F900
G01 Y210.7495 F900
G01 X286.2648 Y210.7179 F900
G01 Z-10.0000 F100
G01 X213.5972 F900
G01 Y215.2179 F900
G01 X286.2648 F900
G01 X286.8648 Y215.1863 F900
G01 Y207.4679 F900
G01 X212.9972 F900
G01 X212.1185 Y206.5893 F900
G01 X212.9972 Y207.4679 F900
G01 Y218.4679 F900
G01 X212.1185 Y219.3466 F900
G01 X212.9972 Y218.4679 F900
G01 X286.8648 F900
G01 Y215.1863 F900
G01 X286.2648 Y215.2179 F900
G01 Z-12.0000 F100
G01 X213.5972 F900
G01 Y210.7179 F900
G01 X286.2648 F900
G01 X286.8648 Y210.7495 F900
G01 Y207.4679 F900
G01 X212.9972 F900
G01 X212.1185 Y206.5893 F900
G01 X212.9972 Y207.4679 F900
G01 Y218.4679 F900
G01 X212.1185 Y219.3466 F900
G01 X212.9972 Y218.4679 F900
G01 X286.8648 F900
G01 Y210.7495 F900
G01 X286.2648 Y210.7179 F900
G01 Z-13.0000 F100
G01 X213.5972 F900
G01 Y215.2179 F900
G01 X286.2648 F900
G01 X286.8648 Y215.1863 F900
G01 Y207.4679 F900
G01 X212.9972 F900
G01 X212.1185 Y206.5893 F900
G01 X212.9972 Y207.4679 F900
G01 Y218.4679 F900
G01 X212.1185 Y219.3466 F900
G01 X212.9972 Y218.4679 F900
G01 X286.8648 F900
G01 Y215.1863 F900
G01 X286.2648 Y215.2179 F900
G00 Z30.0000 F480


;No. 3: Ausschnitt 62
G00 X286.2648 Y233.9825 Z30.0000 F2100
G00 Z0.5000 F480
G01 Z0.0000 F100
G01 Z-2.0000 F100
G01 X213.5972 F900
G01 Y238.4825 F900
G01 X286.2648 F900
G01 X286.8648 Y238.4509 F900
G01 Y230.7325 F900
G01 X212.9972 F900
G01 X212.1185 Y229.8538 F900
G01 X212.9972 Y230.7325 F900
G01 Y241.7325 F900
G01 X212.1185 Y242.6112 F900
G01 X212.9972 Y241.7325 F900
G01 X286.8648 F900
G01 Y238.4509 F900
G01 X286.2648 Y238.4825 F900
G01 Z-4.0000 F100
G01 X213.5972 F900
G01 Y233.9825 F900
G01 X286.2648 F900
G01 X286.8648 Y234.0141 F900
G01 Y230.7325 F900
G01 X212.9972 F900
G01 X212.1185 Y229.8538 F900
G01 X212.9972 Y230.7325 F900
G01 Y241.7325 F900
G01 X212.1185 Y242.6112 F900
G01 X212.9972 Y241.7325 F900
G01 X286.8648 F900
G01 Y234.0141 F900
G01 X286.2648 Y233.9825 F900
G01 Z-6.0000 F100
G01 X213.5972 F900
G01 Y238.4825 F900
G01 X286.2648 F900
G01 X286.8648 Y238.4509 F900
G01 Y230.7325 F900
G01 X212.9972 F900
G01 X212.1185 Y229.8538 F900
G01 X212.9972 Y230.7325 F900
G01 Y241.7325 F900
G01 X212.1185 Y242.6112 F900
G01 X212.9972 Y241.7325 F900
G01 X286.8648 F900
G01 Y238.4509 F900
G01 X286.2648 Y238.4825 F900
G01 Z-8.0000 F100
G01 X213.5972 F900
G01 Y233.9825 F900
G01 X286.2648 F900
G01 X286.8648 Y234.0141 F900
G01 Y230.7325 F900
G01 X212.9972 F900
G01 X212.1185 Y229.8538 F900
G01 X212.9972 Y230.7325 F900
G01 Y241.7325 F900
G01 X212.1185 Y242.6112 F900
G01 X212.9972 Y241.7325 F900
G01 X286.8648 F900
G01 Y234.0141 F900
G01 X286.2648 Y233.9825 F900
G01 Z-10.0000 F100
G01 X213.5972 F900
G01 Y238.4825 F900
G01 X286.2648 F900
G01 X286.8648 Y238.4509 F900
G01 Y230.7325 F900
G01 X212.9972 F900
G01 X212.1185 Y229.8538 F900
G01 X212.9972 Y230.7325 F900
G01 Y241.7325 F900
G01 X212.1185 Y242.6112 F900
G01 X212.9972 Y241.7325 F900
G01 X286.8648 F900
G01 Y238.4509 F900
G01 X286.2648 Y238.4825 F900
G01 Z-12.0000 F100
G01 X213.5972 F900
G01 Y233.9825 F900
G01 X286.2648 F900
G01 X286.8648 Y234.0141 F900
G01 Y230.7325 F900
G01 X212.9972 F900
G01 X212.1185 Y229.8538 F900
G01 X212.9972 Y230.7325 F900
G01 Y241.7325 F900
G01 X212.1185 Y242.6112 F900
G01 X212.9972 Y241.7325 F900
G01 X286.8648 F900
G01 Y234.0141 F900
G01 X286.2648 Y233.9825 F900
G01 Z-13.0000 F100
G01 X213.5972 F900
G01 Y238.4825 F900
G01 X286.2648 F900
G01 X286.8648 Y238.4509 F900
G01 Y230.7325 F900
G01 X212.9972 F900
G01 X212.1185 Y229.8538 F900
G01 X212.9972 Y230.7325 F900
G01 Y241.7325 F900
G01 X212.1185 Y242.6112 F900
G01 X212.9972 Y241.7325 F900
G01 X286.8648 F900
G01 Y238.4509 F900
G01 X286.2648 Y238.4825 F900
G00 Z30.0000 F480
G00 X0.0000 Y0.0000 F2100

M05
