;Project Frame NeoPixel 32x32-frame
;Created by Estlcam version 11 build 11,244
;Machining time about 01:26:04 hours

G90
M03 S30000
G00 Z30.0000 F480


;No. 1: Ausschnitt 3
G00 X44.9065 Y254.1923 F2100
G00 Z0.5000 F480
G01 Z0.0000 F100 S30000
G01 Z-2.0000 F100
G01 X44.6616 F900
G01 Y327.9371 F900
G01 X44.9065 F900
G01 Y254.1923 F900
G01 Z-4.0000 F100
G01 X44.6616 F900
G01 Y327.9371 F900
G01 X44.9065 F900
G01 Y254.1923 F900
G00 Z30.0000 F480


;No. 2: Ausschnitt 4
G00 X288.4085 Y324.1902 Z30.0000 F2100
G00 Z0.5000 F480
G01 Z0.0000 F100
G01 Z-2.0000 F100
G01 X34.6596 F900
G01 Y577.9391 F900
G01 X288.4085 F900
G01 Y324.1902 F900
G01 Z-4.0000 F100
G01 X34.6596 F900
G01 Y577.9391 F900
G01 X288.4085 F900
G01 Y324.1902 F900
G01 Z-6.0000 F100
G01 X34.6596 F900
G01 Y577.9391 F900
G01 X288.4085 F900
G01 Y324.1902 F900
G01 Z-8.0000 F100
G01 X34.6596 F900
G01 Y577.9391 F900
G01 X288.4085 F900
G01 Y324.1902 F900
G01 Z-10.0000 F100
G01 X34.6596 F900
G01 Y577.9391 F900
G01 X288.4085 F900
G01 Y324.1902 F900
G00 Z30.0000 F480


;No. 3: Teil 1
G00 X18.6692 Y359.0205 Z30.0000 F2100
G00 Z0.5000 F480
G01 Z0.0000 F100
G01 Z-2.0000 F100
G01 Y311.1999 F900
G03 X21.6692 Y308.1999 I3.0000 J0.0000 F900
G01 X301.3988 F900
G03 X304.3988 Y311.1999 I0.0000 J3.0000 F900
G01 Y357.0831 F900
G00 Z0.0000 F480
G01 Y366.0831 F900
G01 Z-2.0000 F100
G01 Y527.2511 F900
G00 Z0.0000 F480
G01 Y536.2511 F900
G01 Z-2.0000 F100
G01 Y590.9295 F900
G03 X301.3988 Y593.9295 I-3.0000 J0.0000 F900
G01 X234.5445 F900
G00 Z0.0000 F480
G01 X225.5445 F900
G01 Z-2.0000 F100
G01 X80.5214 F900
G00 Z0.0000 F480
G01 X71.5214 F900
G01 Z-2.0000 F100
G01 X21.6692 F900
G03 X18.6692 Y590.9295 I0.0000 J-3.0000 F900
G01 Y549.8129 F900
G00 Z0.0000 F480
G01 Y540.8129 F900
G01 Z-2.0000 F100
G01 Y368.0205 F900
G00 Z0.0000 F480
G01 Y359.0205 F900
G00 Z-1.5000 F480
G01 Z-2.0000 F100
G01 Z-4.0000 F100
G01 Y311.1999 F900
G03 X21.6692 Y308.1999 I3.0000 J0.0000 F900
G01 X301.3988 F900
G03 X304.3988 Y311.1999 I0.0000 J3.0000 F900
G01 Y357.0831 F900
G00 Z0.0000 F480
G01 Y366.0831 F900
G00 Z-1.5000 F480
G01 Z-2.0000 F100
G01 Z-4.0000 F100
G01 Y527.2511 F900
G00 Z0.0000 F480
G01 Y536.2511 F900
G00 Z-1.5000 F480
G01 Z-2.0000 F100
G01 Z-4.0000 F100
G01 Y590.9295 F900
G03 X301.3988 Y593.9295 I-3.0000 J0.0000 F900
G01 X234.5445 F900
G00 Z0.0000 F480
G01 X225.5445 F900
G00 Z-1.5000 F480
G01 Z-2.0000 F100
G01 Z-4.0000 F100
G01 X80.5214 F900
G00 Z0.0000 F480
G01 X71.5214 F900
G00 Z-1.5000 F480
G01 Z-2.0000 F100
G01 Z-4.0000 F100
G01 X21.6692 F900
G03 X18.6692 Y590.9295 I0.0000 J-3.0000 F900
G01 Y549.8129 F900
G00 Z0.0000 F480
G01 Y540.8129 F900
G00 Z-1.5000 F480
G01 Z-2.0000 F100
G01 Z-4.0000 F100
G01 Y368.0205 F900
G00 Z0.0000 F480
G01 Y359.0205 F900
G00 Z-3.5000 F480
G01 Z-4.0000 F100
G01 Z-6.0000 F100
G01 Y311.1999 F900
G03 X21.6692 Y308.1999 I3.0000 J0.0000 F900
G01 X301.3988 F900
G03 X304.3988 Y311.1999 I0.0000 J3.0000 F900
G01 Y357.0831 F900
G00 Z0.0000 F480
G01 Y366.0831 F900
G00 Z-3.5000 F480
G01 Z-4.0000 F100
G01 Z-6.0000 F100
G01 Y527.2511 F900
G00 Z0.0000 F480
G01 Y536.2511 F900
G00 Z-3.5000 F480
G01 Z-4.0000 F100
G01 Z-6.0000 F100
G01 Y590.9295 F900
G03 X301.3988 Y593.9295 I-3.0000 J0.0000 F900
G01 X234.5445 F900
G00 Z0.0000 F480
G01 X225.5445 F900
G00 Z-3.5000 F480
G01 Z-4.0000 F100
G01 Z-6.0000 F100
G01 X80.5214 F900
G00 Z0.0000 F480
G01 X71.5214 F900
G00 Z-3.5000 F480
G01 Z-4.0000 F100
G01 Z-6.0000 F100
G01 X21.6692 F900
G03 X18.6692 Y590.9295 I0.0000 J-3.0000 F900
G01 Y549.8129 F900
G00 Z0.0000 F480
G01 Y540.8129 F900
G00 Z-3.5000 F480
G01 Z-4.0000 F100
G01 Z-6.0000 F100
G01 Y368.0205 F900
G00 Z0.0000 F480
G01 Y359.0205 F900
G00 Z-5.5000 F480
G01 Z-6.0000 F100
G01 Z-8.0000 F100
G01 Y311.1999 F900
G03 X21.6692 Y308.1999 I3.0000 J0.0000 F900
G01 X301.3988 F900
G03 X304.3988 Y311.1999 I0.0000 J3.0000 F900
G01 Y357.0831 F900
G00 Z0.0000 F480
G01 Y366.0831 F900
G00 Z-5.5000 F480
G01 Z-6.0000 F100
G01 Z-8.0000 F100
G01 Y527.2511 F900
G00 Z0.0000 F480
G01 Y536.2511 F900
G00 Z-5.5000 F480
G01 Z-6.0000 F100
G01 Z-8.0000 F100
G01 Y590.9295 F900
G03 X301.3988 Y593.9295 I-3.0000 J0.0000 F900
G01 X234.5445 F900
G00 Z0.0000 F480
G01 X225.5445 F900
G00 Z-5.5000 F480
G01 Z-6.0000 F100
G01 Z-8.0000 F100
G01 X80.5214 F900
G00 Z0.0000 F480
G01 X71.5214 F900
G00 Z-5.5000 F480
G01 Z-6.0000 F100
G01 Z-8.0000 F100
G01 X21.6692 F900
G03 X18.6692 Y590.9295 I0.0000 J-3.0000 F900
G01 Y549.8129 F900
G00 Z0.0000 F480
G01 Y540.8129 F900
G00 Z-5.5000 F480
G01 Z-6.0000 F100
G01 Z-8.0000 F100
G01 Y368.0205 F900
G00 Z0.0000 F480
G01 Y359.0205 F900
G00 Z-7.5000 F480
G01 Z-8.0000 F100
G01 Z-10.0000 F100
G01 Y311.1999 F900
G03 X21.6692 Y308.1999 I3.0000 J0.0000 F900
G01 X301.3988 F900
G03 X304.3988 Y311.1999 I0.0000 J3.0000 F900
G01 Y357.0831 F900
G00 Z0.0000 F480
G01 Y366.0831 F900
G00 Z-7.5000 F480
G01 Z-8.0000 F100
G01 Z-10.0000 F100
G01 Y527.2511 F900
G00 Z0.0000 F480
G01 Y536.2511 F900
G00 Z-7.5000 F480
G01 Z-8.0000 F100
G01 Z-10.0000 F100
G01 Y590.9295 F900
G03 X301.3988 Y593.9295 I-3.0000 J0.0000 F900
G01 X234.5445 F900
G00 Z0.0000 F480
G01 X225.5445 F900
G00 Z-7.5000 F480
G01 Z-8.0000 F100
G01 Z-10.0000 F100
G01 X80.5214 F900
G00 Z0.0000 F480
G01 X71.5214 F900
G00 Z-7.5000 F480
G01 Z-8.0000 F100
G01 Z-10.0000 F100
G01 X21.6692 F900
G03 X18.6692 Y590.9295 I0.0000 J-3.0000 F900
G01 Y549.8129 F900
G00 Z0.0000 F480
G01 Y540.8129 F900
G00 Z-7.5000 F480
G01 Z-8.0000 F100
G01 Z-10.0000 F100
G01 Y368.0205 F900
G00 Z0.0000 F480
G01 Y359.0205 F900
G00 Z30.0000 F480


;No. 4: Teil 2
G00 X234.2216 Y18.1999 Z30.0000 F2100
G00 Z0.5000 F480
G01 Z0.0000 F100
G01 Z-2.0000 F100
G01 X301.3988 F900
G03 X304.3988 Y21.1999 I0.0000 J3.0000 F900
G01 Y89.0765 F900
G00 Z0.0000 F480
G01 Y98.0765 F900
G01 Z-2.0000 F100
G01 Y231.7981 F900
G00 Z0.0000 F480
G01 Y240.7981 F900
G01 Z-2.0000 F100
G01 Y300.9295 F900
G03 X301.3988 Y303.9295 I-3.0000 J0.0000 F900
G01 X21.6692 F900
G03 X18.6692 Y300.9295 I0.0000 J-3.0000 F900
G01 Y212.1863 F900
G00 Z0.0000 F480
G01 Y203.1863 F900
G01 Z-2.0000 F100
G01 Y81.9315 F900
G00 Z0.0000 F480
G01 Y72.9315 F900
G01 Z-2.0000 F100
G01 Y21.1999 F900
G03 X21.6692 Y18.1999 I3.0000 J0.0000 F900
G01 X91.2183 F900
G00 Z0.0000 F480
G01 X100.2183 F900
G01 Z-2.0000 F100
G01 X225.2216 F900
G00 Z0.0000 F480
G01 X234.2216 F900
G00 Z-1.5000 F480
G01 Z-2.0000 F100
G01 Z-4.0000 F100
G01 X301.3988 F900
G03 X304.3988 Y21.1999 I0.0000 J3.0000 F900
G01 Y89.0765 F900
G00 Z0.0000 F480
G01 Y98.0765 F900
G00 Z-1.5000 F480
G01 Z-2.0000 F100
G01 Z-4.0000 F100
G01 Y231.7981 F900
G00 Z0.0000 F480
G01 Y240.7981 F900
G00 Z-1.5000 F480
G01 Z-2.0000 F100
G01 Z-4.0000 F100
G01 Y300.9295 F900
G03 X301.3988 Y303.9295 I-3.0000 J0.0000 F900
G01 X21.6692 F900
G03 X18.6692 Y300.9295 I0.0000 J-3.0000 F900
G01 Y212.1863 F900
G00 Z0.0000 F480
G01 Y203.1863 F900
G00 Z-1.5000 F480
G01 Z-2.0000 F100
G01 Z-4.0000 F100
G01 Y81.9315 F900
G00 Z0.0000 F480
G01 Y72.9315 F900
G00 Z-1.5000 F480
G01 Z-2.0000 F100
G01 Z-4.0000 F100
G01 Y21.1999 F900
G03 X21.6692 Y18.1999 I3.0000 J0.0000 F900
G01 X91.2183 F900
G00 Z0.0000 F480
G01 X100.2183 F900
G00 Z-1.5000 F480
G01 Z-2.0000 F100
G01 Z-4.0000 F100
G01 X225.2216 F900
G00 Z0.0000 F480
G01 X234.2216 F900
G00 Z-3.5000 F480
G01 Z-4.0000 F100
G01 Z-6.0000 F100
G01 X301.3988 F900
G03 X304.3988 Y21.1999 I0.0000 J3.0000 F900
G01 Y89.0765 F900
G00 Z0.0000 F480
G01 Y98.0765 F900
G00 Z-3.5000 F480
G01 Z-4.0000 F100
G01 Z-6.0000 F100
G01 Y231.7981 F900
G00 Z0.0000 F480
G01 Y240.7981 F900
G00 Z-3.5000 F480
G01 Z-4.0000 F100
G01 Z-6.0000 F100
G01 Y300.9295 F900
G03 X301.3988 Y303.9295 I-3.0000 J0.0000 F900
G01 X21.6692 F900
G03 X18.6692 Y300.9295 I0.0000 J-3.0000 F900
G01 Y212.1863 F900
G00 Z0.0000 F480
G01 Y203.1863 F900
G00 Z-3.5000 F480
G01 Z-4.0000 F100
G01 Z-6.0000 F100
G01 Y81.9315 F900
G00 Z0.0000 F480
G01 Y72.9315 F900
G00 Z-3.5000 F480
G01 Z-4.0000 F100
G01 Z-6.0000 F100
G01 Y21.1999 F900
G03 X21.6692 Y18.1999 I3.0000 J0.0000 F900
G01 X91.2183 F900
G00 Z0.0000 F480
G01 X100.2183 F900
G00 Z-3.5000 F480
G01 Z-4.0000 F100
G01 Z-6.0000 F100
G01 X225.2216 F900
G00 Z0.0000 F480
G01 X234.2216 F900
G00 Z-5.5000 F480
G01 Z-6.0000 F100
G01 Z-8.0000 F100
G01 X301.3988 F900
G03 X304.3988 Y21.1999 I0.0000 J3.0000 F900
G01 Y89.0765 F900
G00 Z0.0000 F480
G01 Y98.0765 F900
G00 Z-5.5000 F480
G01 Z-6.0000 F100
G01 Z-8.0000 F100
G01 Y231.7981 F900
G00 Z0.0000 F480
G01 Y240.7981 F900
G00 Z-5.5000 F480
G01 Z-6.0000 F100
G01 Z-8.0000 F100
G01 Y300.9295 F900
G03 X301.3988 Y303.9295 I-3.0000 J0.0000 F900
G01 X21.6692 F900
G03 X18.6692 Y300.9295 I0.0000 J-3.0000 F900
G01 Y212.1863 F900
G00 Z0.0000 F480
G01 Y203.1863 F900
G00 Z-5.5000 F480
G01 Z-6.0000 F100
G01 Z-8.0000 F100
G01 Y81.9315 F900
G00 Z0.0000 F480
G01 Y72.9315 F900
G00 Z-5.5000 F480
G01 Z-6.0000 F100
G01 Z-8.0000 F100
G01 Y21.1999 F900
G03 X21.6692 Y18.1999 I3.0000 J0.0000 F900
G01 X91.2183 F900
G00 Z0.0000 F480
G01 X100.2183 F900
G00 Z-5.5000 F480
G01 Z-6.0000 F100
G01 Z-8.0000 F100
G01 X225.2216 F900
G00 Z0.0000 F480
G01 X234.2216 F900
G00 Z-7.5000 F480
G01 Z-8.0000 F100
G01 Z-10.0000 F100
G01 X301.3988 F900
G03 X304.3988 Y21.1999 I0.0000 J3.0000 F900
G01 Y89.0765 F900
G00 Z0.0000 F480
G01 Y98.0765 F900
G00 Z-7.5000 F480
G01 Z-8.0000 F100
G01 Z-10.0000 F100
G01 Y231.7981 F900
G00 Z0.0000 F480
G01 Y240.7981 F900
G00 Z-7.5000 F480
G01 Z-8.0000 F100
G01 Z-10.0000 F100
G01 Y300.9295 F900
G03 X301.3988 Y303.9295 I-3.0000 J0.0000 F900
G01 X21.6692 F900
G03 X18.6692 Y300.9295 I0.0000 J-3.0000 F900
G01 Y212.1863 F900
G00 Z0.0000 F480
G01 Y203.1863 F900
G00 Z-7.5000 F480
G01 Z-8.0000 F100
G01 Z-10.0000 F100
G01 Y81.9315 F900
G00 Z0.0000 F480
G01 Y72.9315 F900
G00 Z-7.5000 F480
G01 Z-8.0000 F100
G01 Z-10.0000 F100
G01 Y21.1999 F900
G03 X21.6692 Y18.1999 I3.0000 J0.0000 F900
G01 X91.2183 F900
G00 Z0.0000 F480
G01 X100.2183 F900
G00 Z-7.5000 F480
G01 Z-8.0000 F100
G01 Z-10.0000 F100
G01 X225.2216 F900
G00 Z0.0000 F480
G01 X234.2216 F900
G00 Z30.0000 F480
G00 X0.0000 Y0.0000 F2100

M05
