;Project bottom-drills-f3mm
;Created by Estlcam version 11 build 11,244
;Machining time about 00:01:42 hours

G90
M03 S24000
G00 Z30.0000 F480


;No. 1: Ausschnitt 1
G00 X114.4753 Y64.7087 F2100
G00 Z0.5000 F480
G01 Z0.0000 F100 S24000
G01 Z-1.0000 F100
G02 X115.0105 Y65.5994 I0.5247 J0.2909 F1800
G02 X115.5143 Y64.6906 I-0.0105 J-0.5999 F1800
G02 X114.4753 Y64.7087 I-0.5143 J0.3090 F1800
G01 Z-2.0000 F100
G02 X115.0105 Y65.5994 I0.5247 J0.2909 F1800
G02 X115.5143 Y64.6906 I-0.0105 J-0.5999 F1800
G02 X114.4753 Y64.7087 I-0.5143 J0.3090 F1800
G01 Z-3.0000 F100
G02 X115.0105 Y65.5994 I0.5247 J0.2909 F1800
G02 X115.5143 Y64.6906 I-0.0105 J-0.5999 F1800
G02 X114.4753 Y64.7087 I-0.5143 J0.3090 F1800
G01 Z-4.0000 F100
G02 X115.0105 Y65.5994 I0.5247 J0.2909 F1800
G02 X115.5143 Y64.6906 I-0.0105 J-0.5999 F1800
G02 X114.4753 Y64.7087 I-0.5143 J0.3090 F1800
G01 Z-5.0000 F100
G02 X115.0105 Y65.5994 I0.5247 J0.2909 F1800
G02 X115.5143 Y64.6906 I-0.0105 J-0.5999 F1800
G02 X114.4753 Y64.7087 I-0.5143 J0.3090 F1800
G01 Z-6.0000 F100
G02 X115.0105 Y65.5994 I0.5247 J0.2909 F1800
G02 X115.5143 Y64.6906 I-0.0105 J-0.5999 F1800
G02 X114.4753 Y64.7087 I-0.5143 J0.3090 F1800
G01 Z-7.0000 F100
G02 X115.0105 Y65.5994 I0.5247 J0.2909 F1800
G02 X115.5143 Y64.6906 I-0.0105 J-0.5999 F1800
G02 X114.4753 Y64.7087 I-0.5143 J0.3090 F1800
G01 Z-8.0000 F100
G02 X115.0105 Y65.5994 I0.5247 J0.2909 F1800
G02 X115.5143 Y64.6906 I-0.0105 J-0.5999 F1800
G02 X114.4753 Y64.7087 I-0.5143 J0.3090 F1800
G00 Z30.0000 F480


;No. 2: Ausschnitt 2
G00 X164.4857 Y99.6906 Z30.0000 F2100
G00 Z0.5000 F480
G01 Z0.0000 F100
G01 Z-1.0000 F100
G02 X164.9895 Y100.5995 I0.5143 J0.3090 F1800
G02 X165.5247 Y99.7088 I0.0105 J-0.5999 F1800
G02 X164.4857 Y99.6906 I-0.5247 J0.2909 F1800
G01 Z-2.0000 F100
G02 X164.9895 Y100.5995 I0.5143 J0.3090 F1800
G02 X165.5247 Y99.7088 I0.0105 J-0.5999 F1800
G02 X164.4857 Y99.6906 I-0.5247 J0.2909 F1800
G01 Z-3.0000 F100
G02 X164.9895 Y100.5995 I0.5143 J0.3090 F1800
G02 X165.5247 Y99.7088 I0.0105 J-0.5999 F1800
G02 X164.4857 Y99.6906 I-0.5247 J0.2909 F1800
G01 Z-4.0000 F100
G02 X164.9895 Y100.5995 I0.5143 J0.3090 F1800
G02 X165.5247 Y99.7088 I0.0105 J-0.5999 F1800
G02 X164.4857 Y99.6906 I-0.5247 J0.2909 F1800
G01 Z-5.0000 F100
G02 X164.9895 Y100.5995 I0.5143 J0.3090 F1800
G02 X165.5247 Y99.7088 I0.0105 J-0.5999 F1800
G02 X164.4857 Y99.6906 I-0.5247 J0.2909 F1800
G01 Z-6.0000 F100
G02 X164.9895 Y100.5995 I0.5143 J0.3090 F1800
G02 X165.5247 Y99.7088 I0.0105 J-0.5999 F1800
G02 X164.4857 Y99.6906 I-0.5247 J0.2909 F1800
G01 Z-7.0000 F100
G02 X164.9895 Y100.5995 I0.5143 J0.3090 F1800
G02 X165.5247 Y99.7088 I0.0105 J-0.5999 F1800
G02 X164.4857 Y99.6906 I-0.5247 J0.2909 F1800
G01 Z-8.0000 F100
G02 X164.9895 Y100.5995 I0.5143 J0.3090 F1800
G02 X165.5247 Y99.7088 I0.0105 J-0.5999 F1800
G02 X164.4857 Y99.6906 I-0.5247 J0.2909 F1800
G00 Z30.0000 F480


;No. 3: Ausschnitt 3
G00 X224.4519 Y99.7556 Z30.0000 F2100
G00 Z0.5000 F480
G01 Z0.0000 F100
G01 Z-1.0000 F100
G02 X225.0627 Y100.5963 I0.5481 J0.2440 F1800
G02 X225.4854 Y99.6470 I-0.0627 J-0.5967 F1800
G02 X224.4519 Y99.7556 I-0.4854 J0.3526 F1800
G01 Z-2.0000 F100
G02 X225.0627 Y100.5963 I0.5481 J0.2440 F1800
G02 X225.4854 Y99.6470 I-0.0627 J-0.5967 F1800
G02 X224.4519 Y99.7556 I-0.4854 J0.3526 F1800
G01 Z-3.0000 F100
G02 X225.0627 Y100.5963 I0.5481 J0.2440 F1800
G02 X225.4854 Y99.6470 I-0.0627 J-0.5967 F1800
G02 X224.4519 Y99.7556 I-0.4854 J0.3526 F1800
G01 Z-4.0000 F100
G02 X225.0627 Y100.5963 I0.5481 J0.2440 F1800
G02 X225.4854 Y99.6470 I-0.0627 J-0.5967 F1800
G02 X224.4519 Y99.7556 I-0.4854 J0.3526 F1800
G01 Z-5.0000 F100
G02 X225.0627 Y100.5963 I0.5481 J0.2440 F1800
G02 X225.4854 Y99.6470 I-0.0627 J-0.5967 F1800
G02 X224.4519 Y99.7556 I-0.4854 J0.3526 F1800
G01 Z-6.0000 F100
G02 X225.0627 Y100.5963 I0.5481 J0.2440 F1800
G02 X225.4854 Y99.6470 I-0.0627 J-0.5967 F1800
G02 X224.4519 Y99.7556 I-0.4854 J0.3526 F1800
G01 Z-7.0000 F100
G02 X225.0627 Y100.5963 I0.5481 J0.2440 F1800
G02 X225.4854 Y99.6470 I-0.0627 J-0.5967 F1800
G02 X224.4519 Y99.7556 I-0.4854 J0.3526 F1800
G01 Z-8.0000 F100
G02 X225.0627 Y100.5963 I0.5481 J0.2440 F1800
G02 X225.4854 Y99.6470 I-0.0627 J-0.5967 F1800
G02 X224.4519 Y99.7556 I-0.4854 J0.3526 F1800
G00 Z30.0000 F480


;No. 4: Ausschnitt 5
G00 X254.1129 Y194.6386 Z30.0000 F2100
G00 Z0.5000 F480
G01 Z0.0000 F100
G01 Z-1.0000 F100
G02 X254.5189 Y195.5951 I0.4791 J0.3611 F1800
G02 X255.1443 Y194.7652 I0.0731 J-0.5955 F1800
G02 X254.1129 Y194.6386 I-0.5523 J0.2344 F1800
G01 Z-2.0000 F100
G02 X254.5189 Y195.5951 I0.4791 J0.3611 F1800
G02 X255.1443 Y194.7652 I0.0731 J-0.5955 F1800
G02 X254.1129 Y194.6386 I-0.5523 J0.2344 F1800
G01 Z-3.0000 F100
G02 X254.5189 Y195.5951 I0.4791 J0.3611 F1800
G02 X255.1443 Y194.7652 I0.0731 J-0.5955 F1800
G02 X254.1129 Y194.6386 I-0.5523 J0.2344 F1800
G01 Z-4.0000 F100
G02 X254.5189 Y195.5951 I0.4791 J0.3611 F1800
G02 X255.1443 Y194.7652 I0.0731 J-0.5955 F1800
G02 X254.1129 Y194.6386 I-0.5523 J0.2344 F1800
G01 Z-5.0000 F100
G02 X254.5189 Y195.5951 I0.4791 J0.3611 F1800
G02 X255.1443 Y194.7652 I0.0731 J-0.5955 F1800
G02 X254.1129 Y194.6386 I-0.5523 J0.2344 F1800
G01 Z-6.0000 F100
G02 X254.5189 Y195.5951 I0.4791 J0.3611 F1800
G02 X255.1443 Y194.7652 I0.0731 J-0.5955 F1800
G02 X254.1129 Y194.6386 I-0.5523 J0.2344 F1800
G01 Z-7.0000 F100
G02 X254.5189 Y195.5951 I0.4791 J0.3611 F1800
G02 X255.1443 Y194.7652 I0.0731 J-0.5955 F1800
G02 X254.1129 Y194.6386 I-0.5523 J0.2344 F1800
G01 Z-8.0000 F100
G02 X254.5189 Y195.5951 I0.4791 J0.3611 F1800
G02 X255.1443 Y194.7652 I0.0731 J-0.5955 F1800
G02 X254.1129 Y194.6386 I-0.5523 J0.2344 F1800
G00 Z30.0000 F480


;No. 5: Ausschnitt 9
G00 X254.1906 Y284.5537 Z30.0000 F2100
G00 Z0.5000 F480
G01 Z0.0000 F100
G01 Z-1.0000 F100
G02 X254.4066 Y285.5702 I0.4014 J0.4458 F1800
G02 X255.1788 Y284.8749 I0.1854 J-0.5706 F1800
G02 X254.1906 Y284.5537 I-0.5868 J0.1247 F1800
G01 Z-2.0000 F100
G02 X254.4066 Y285.5702 I0.4014 J0.4458 F1800
G02 X255.1788 Y284.8749 I0.1854 J-0.5706 F1800
G02 X254.1906 Y284.5537 I-0.5868 J0.1247 F1800
G01 Z-3.0000 F100
G02 X254.4066 Y285.5702 I0.4014 J0.4458 F1800
G02 X255.1788 Y284.8749 I0.1854 J-0.5706 F1800
G02 X254.1906 Y284.5537 I-0.5868 J0.1247 F1800
G01 Z-4.0000 F100
G02 X254.4066 Y285.5702 I0.4014 J0.4458 F1800
G02 X255.1788 Y284.8749 I0.1854 J-0.5706 F1800
G02 X254.1906 Y284.5537 I-0.5868 J0.1247 F1800
G01 Z-5.0000 F100
G02 X254.4066 Y285.5702 I0.4014 J0.4458 F1800
G02 X255.1788 Y284.8749 I0.1854 J-0.5706 F1800
G02 X254.1906 Y284.5537 I-0.5868 J0.1247 F1800
G01 Z-6.0000 F100
G02 X254.4066 Y285.5702 I0.4014 J0.4458 F1800
G02 X255.1788 Y284.8749 I0.1854 J-0.5706 F1800
G02 X254.1906 Y284.5537 I-0.5868 J0.1247 F1800
G01 Z-7.0000 F100
G02 X254.4066 Y285.5702 I0.4014 J0.4458 F1800
G02 X255.1788 Y284.8749 I0.1854 J-0.5706 F1800
G02 X254.1906 Y284.5537 I-0.5868 J0.1247 F1800
G01 Z-8.0000 F100
G02 X254.4066 Y285.5702 I0.4014 J0.4458 F1800
G02 X255.1788 Y284.8749 I0.1854 J-0.5706 F1800
G02 X254.1906 Y284.5537 I-0.5868 J0.1247 F1800
G00 Z30.0000 F480


;No. 6: Ausschnitt 10
G00 X289.5832 Y299.5680 Z30.0000 F2100
G00 Z0.5000 F480
G01 Z0.0000 F100
G01 Z-1.0000 F100
G02 X289.8346 Y300.5763 I0.4168 J0.4316 F1800
G02 X290.5821 Y299.8545 I0.1654 J-0.5767 F1800
G02 X289.5832 Y299.5680 I-0.5821 J0.1451 F1800
G01 Z-2.0000 F100
G02 X289.8346 Y300.5763 I0.4168 J0.4316 F1800
G02 X290.5821 Y299.8545 I0.1654 J-0.5767 F1800
G02 X289.5832 Y299.5680 I-0.5821 J0.1451 F1800
G01 Z-3.0000 F100
G02 X289.8346 Y300.5763 I0.4168 J0.4316 F1800
G02 X290.5821 Y299.8545 I0.1654 J-0.5767 F1800
G02 X289.5832 Y299.5680 I-0.5821 J0.1451 F1800
G01 Z-4.0000 F100
G02 X289.8346 Y300.5763 I0.4168 J0.4316 F1800
G02 X290.5821 Y299.8545 I0.1654 J-0.5767 F1800
G02 X289.5832 Y299.5680 I-0.5821 J0.1451 F1800
G01 Z-5.0000 F100
G02 X289.8346 Y300.5763 I0.4168 J0.4316 F1800
G02 X290.5821 Y299.8545 I0.1654 J-0.5767 F1800
G02 X289.5832 Y299.5680 I-0.5821 J0.1451 F1800
G01 Z-6.0000 F100
G02 X289.8346 Y300.5763 I0.4168 J0.4316 F1800
G02 X290.5821 Y299.8545 I0.1654 J-0.5767 F1800
G02 X289.5832 Y299.5680 I-0.5821 J0.1451 F1800
G01 Z-7.0000 F100
G02 X289.8346 Y300.5763 I0.4168 J0.4316 F1800
G02 X290.5821 Y299.8545 I0.1654 J-0.5767 F1800
G02 X289.5832 Y299.5680 I-0.5821 J0.1451 F1800
G01 Z-8.0000 F100
G02 X289.8346 Y300.5763 I0.4168 J0.4316 F1800
G02 X290.5821 Y299.8545 I0.1654 J-0.5767 F1800
G02 X289.5832 Y299.5680 I-0.5821 J0.1451 F1800
G00 Z30.0000 F480


;No. 7: Ausschnitt 11
G00 X289.6224 Y361.5333 Z30.0000 F2100
G00 Z0.5000 F480
G01 Z0.0000 F100
G01 Z-1.0000 F100
G02 X289.7850 Y362.5597 I0.3776 J0.4662 F1800
G02 X290.5926 Y361.9057 I0.2150 J-0.5601 F1800
G02 X289.6224 Y361.5333 I-0.5926 J0.0939 F1800
G01 Z-2.0000 F100
G02 X289.7850 Y362.5597 I0.3776 J0.4662 F1800
G02 X290.5926 Y361.9057 I0.2150 J-0.5601 F1800
G02 X289.6224 Y361.5333 I-0.5926 J0.0939 F1800
G01 Z-3.0000 F100
G02 X289.7850 Y362.5597 I0.3776 J0.4662 F1800
G02 X290.5926 Y361.9057 I0.2150 J-0.5601 F1800
G02 X289.6224 Y361.5333 I-0.5926 J0.0939 F1800
G01 Z-4.0000 F100
G02 X289.7850 Y362.5597 I0.3776 J0.4662 F1800
G02 X290.5926 Y361.9057 I0.2150 J-0.5601 F1800
G02 X289.6224 Y361.5333 I-0.5926 J0.0939 F1800
G01 Z-5.0000 F100
G02 X289.7850 Y362.5597 I0.3776 J0.4662 F1800
G02 X290.5926 Y361.9057 I0.2150 J-0.5601 F1800
G02 X289.6224 Y361.5333 I-0.5926 J0.0939 F1800
G01 Z-6.0000 F100
G02 X289.7850 Y362.5597 I0.3776 J0.4662 F1800
G02 X290.5926 Y361.9057 I0.2150 J-0.5601 F1800
G02 X289.6224 Y361.5333 I-0.5926 J0.0939 F1800
G01 Z-7.0000 F100
G02 X289.7850 Y362.5597 I0.3776 J0.4662 F1800
G02 X290.5926 Y361.9057 I0.2150 J-0.5601 F1800
G02 X289.6224 Y361.5333 I-0.5926 J0.0939 F1800
G01 Z-8.0000 F100
G02 X289.7850 Y362.5597 I0.3776 J0.4662 F1800
G02 X290.5926 Y361.9057 I0.2150 J-0.5601 F1800
G02 X289.6224 Y361.5333 I-0.5926 J0.0939 F1800
G00 Z30.0000 F480


;No. 8: Ausschnitt 12
G00 X384.5146 Y281.6470 Z30.0000 F2100
G00 Z0.5000 F480
G01 Z0.0000 F100
G01 Z-1.0000 F100
G02 X384.9373 Y282.5962 I0.4854 J0.3526 F1800
G02 X385.5481 Y281.7556 I0.0627 J-0.5967 F1800
G02 X384.5146 Y281.6470 I-0.5481 J0.2440 F1800
G01 Z-2.0000 F100
G02 X384.9373 Y282.5962 I0.4854 J0.3526 F1800
G02 X385.5481 Y281.7556 I0.0627 J-0.5967 F1800
G02 X384.5146 Y281.6470 I-0.5481 J0.2440 F1800
G01 Z-3.0000 F100
G02 X384.9373 Y282.5962 I0.4854 J0.3526 F1800
G02 X385.5481 Y281.7556 I0.0627 J-0.5967 F1800
G02 X384.5146 Y281.6470 I-0.5481 J0.2440 F1800
G01 Z-4.0000 F100
G02 X384.9373 Y282.5962 I0.4854 J0.3526 F1800
G02 X385.5481 Y281.7556 I0.0627 J-0.5967 F1800
G02 X384.5146 Y281.6470 I-0.5481 J0.2440 F1800
G01 Z-5.0000 F100
G02 X384.9373 Y282.5962 I0.4854 J0.3526 F1800
G02 X385.5481 Y281.7556 I0.0627 J-0.5967 F1800
G02 X384.5146 Y281.6470 I-0.5481 J0.2440 F1800
G01 Z-6.0000 F100
G02 X384.9373 Y282.5962 I0.4854 J0.3526 F1800
G02 X385.5481 Y281.7556 I0.0627 J-0.5967 F1800
G02 X384.5146 Y281.6470 I-0.5481 J0.2440 F1800
G01 Z-7.0000 F100
G02 X384.9373 Y282.5962 I0.4854 J0.3526 F1800
G02 X385.5481 Y281.7556 I0.0627 J-0.5967 F1800
G02 X384.5146 Y281.6470 I-0.5481 J0.2440 F1800
G01 Z-8.0000 F100
G02 X384.9373 Y282.5962 I0.4854 J0.3526 F1800
G02 X385.5481 Y281.7556 I0.0627 J-0.5967 F1800
G02 X384.5146 Y281.6470 I-0.5481 J0.2440 F1800
G00 Z30.0000 F480


;No. 9: Ausschnitt 8
G00 X164.2920 Y284.4800 Z30.0000 F2100
G00 Z0.5000 F480
G01 Z0.0000 F100
G01 Z-1.0000 F100
G02 Y285.5192 I0.3000 J0.5196 F1800
G02 X165.1919 Y284.9996 I0.3000 J-0.5196 F1800
G02 X164.2920 Y284.4800 I-0.5999 J0.0000 F1800
G01 Z-2.0000 F100
G02 Y285.5192 I0.3000 J0.5196 F1800
G02 X165.1919 Y284.9996 I0.3000 J-0.5196 F1800
G02 X164.2920 Y284.4800 I-0.5999 J0.0000 F1800
G01 Z-3.0000 F100
G02 Y285.5192 I0.3000 J0.5196 F1800
G02 X165.1919 Y284.9996 I0.3000 J-0.5196 F1800
G02 X164.2920 Y284.4800 I-0.5999 J0.0000 F1800
G01 Z-4.0000 F100
G02 Y285.5192 I0.3000 J0.5196 F1800
G02 X165.1919 Y284.9996 I0.3000 J-0.5196 F1800
G02 X164.2920 Y284.4800 I-0.5999 J0.0000 F1800
G01 Z-5.0000 F100
G02 Y285.5192 I0.3000 J0.5196 F1800
G02 X165.1919 Y284.9996 I0.3000 J-0.5196 F1800
G02 X164.2920 Y284.4800 I-0.5999 J0.0000 F1800
G01 Z-6.0000 F100
G02 Y285.5192 I0.3000 J0.5196 F1800
G02 X165.1919 Y284.9996 I0.3000 J-0.5196 F1800
G02 X164.2920 Y284.4800 I-0.5999 J0.0000 F1800
G01 Z-7.0000 F100
G02 Y285.5192 I0.3000 J0.5196 F1800
G02 X165.1919 Y284.9996 I0.3000 J-0.5196 F1800
G02 X164.2920 Y284.4800 I-0.5999 J0.0000 F1800
G01 Z-8.0000 F100
G02 Y285.5192 I0.3000 J0.5196 F1800
G02 X165.1919 Y284.9996 I0.3000 J-0.5196 F1800
G02 X164.2920 Y284.4800 I-0.5999 J0.0000 F1800
G00 Z30.0000 F480


;No. 10: Ausschnitt 7
G00 X112.7560 Y254.4515 Z30.0000 F2100
G00 Z0.5000 F480
G01 Z0.0000 F100
G01 Z-1.0000 F100
G02 X112.6474 Y255.4850 I0.2440 J0.5481 F1800
G02 X113.5967 Y255.0623 I0.3526 J-0.4854 F1800
G02 X112.7560 Y254.4515 I-0.5967 J-0.0627 F1800
G01 Z-2.0000 F100
G02 X112.6474 Y255.4850 I0.2440 J0.5481 F1800
G02 X113.5967 Y255.0623 I0.3526 J-0.4854 F1800
G02 X112.7560 Y254.4515 I-0.5967 J-0.0627 F1800
G01 Z-3.0000 F100
G02 X112.6474 Y255.4850 I0.2440 J0.5481 F1800
G02 X113.5967 Y255.0623 I0.3526 J-0.4854 F1800
G02 X112.7560 Y254.4515 I-0.5967 J-0.0627 F1800
G01 Z-4.0000 F100
G02 X112.6474 Y255.4850 I0.2440 J0.5481 F1800
G02 X113.5967 Y255.0623 I0.3526 J-0.4854 F1800
G02 X112.7560 Y254.4515 I-0.5967 J-0.0627 F1800
G01 Z-5.0000 F100
G02 X112.6474 Y255.4850 I0.2440 J0.5481 F1800
G02 X113.5967 Y255.0623 I0.3526 J-0.4854 F1800
G02 X112.7560 Y254.4515 I-0.5967 J-0.0627 F1800
G01 Z-6.0000 F100
G02 X112.6474 Y255.4850 I0.2440 J0.5481 F1800
G02 X113.5967 Y255.0623 I0.3526 J-0.4854 F1800
G02 X112.7560 Y254.4515 I-0.5967 J-0.0627 F1800
G01 Z-7.0000 F100
G02 X112.6474 Y255.4850 I0.2440 J0.5481 F1800
G02 X113.5967 Y255.0623 I0.3526 J-0.4854 F1800
G02 X112.7560 Y254.4515 I-0.5967 J-0.0627 F1800
G01 Z-8.0000 F100
G02 X112.6474 Y255.4850 I0.2440 J0.5481 F1800
G02 X113.5967 Y255.0623 I0.3526 J-0.4854 F1800
G02 X112.7560 Y254.4515 I-0.5967 J-0.0627 F1800
G00 Z30.0000 F480


;No. 11: Ausschnitt 6
G00 X14.9686 Y254.4005 Z30.0000 F2100
G00 Z0.5000 F480
G01 Z0.0000 F100
G01 Z-1.0000 F100
G02 X14.4968 Y255.3263 I0.0314 J0.5991 F1800
G02 X15.5346 Y255.2720 I0.5032 J-0.3268 F1800
G02 X14.9686 Y254.4005 I-0.5346 J-0.2724 F1800
G01 Z-2.0000 F100
G02 X14.4968 Y255.3263 I0.0314 J0.5991 F1800
G02 X15.5346 Y255.2720 I0.5032 J-0.3268 F1800
G02 X14.9686 Y254.4005 I-0.5346 J-0.2724 F1800
G01 Z-3.0000 F100
G02 X14.4968 Y255.3263 I0.0314 J0.5991 F1800
G02 X15.5346 Y255.2720 I0.5032 J-0.3268 F1800
G02 X14.9686 Y254.4005 I-0.5346 J-0.2724 F1800
G01 Z-4.0000 F100
G02 X14.4968 Y255.3263 I0.0314 J0.5991 F1800
G02 X15.5346 Y255.2720 I0.5032 J-0.3268 F1800
G02 X14.9686 Y254.4005 I-0.5346 J-0.2724 F1800
G01 Z-5.0000 F100
G02 X14.4968 Y255.3263 I0.0314 J0.5991 F1800
G02 X15.5346 Y255.2720 I0.5032 J-0.3268 F1800
G02 X14.9686 Y254.4005 I-0.5346 J-0.2724 F1800
G01 Z-6.0000 F100
G02 X14.4968 Y255.3263 I0.0314 J0.5991 F1800
G02 X15.5346 Y255.2720 I0.5032 J-0.3268 F1800
G02 X14.9686 Y254.4005 I-0.5346 J-0.2724 F1800
G01 Z-7.0000 F100
G02 X14.4968 Y255.3263 I0.0314 J0.5991 F1800
G02 X15.5346 Y255.2720 I0.5032 J-0.3268 F1800
G02 X14.9686 Y254.4005 I-0.5346 J-0.2724 F1800
G01 Z-8.0000 F100
G02 X14.4968 Y255.3263 I0.0314 J0.5991 F1800
G02 X15.5346 Y255.2720 I0.5032 J-0.3268 F1800
G02 X14.9686 Y254.4005 I-0.5346 J-0.2724 F1800
G00 Z30.0000 F480


;No. 12: Ausschnitt 4
G00 X334.4092 Y59.8954 Z30.0000 F2100
G00 Z0.5000 F480
G01 Z0.0000 F100
G01 Z-1.0000 F100
G02 X335.2052 Y60.5634 I0.5908 J0.1042 F1800
G02 X335.3856 Y59.5400 I-0.2052 J-0.5638 F1800
G02 X334.4092 Y59.8954 I-0.3856 J0.4596 F1800
G01 Z-2.0000 F100
G02 X335.2052 Y60.5634 I0.5908 J0.1042 F1800
G02 X335.3856 Y59.5400 I-0.2052 J-0.5638 F1800
G02 X334.4092 Y59.8954 I-0.3856 J0.4596 F1800
G01 Z-3.0000 F100
G02 X335.2052 Y60.5634 I0.5908 J0.1042 F1800
G02 X335.3856 Y59.5400 I-0.2052 J-0.5638 F1800
G02 X334.4092 Y59.8954 I-0.3856 J0.4596 F1800
G01 Z-4.0000 F100
G02 X335.2052 Y60.5634 I0.5908 J0.1042 F1800
G02 X335.3856 Y59.5400 I-0.2052 J-0.5638 F1800
G02 X334.4092 Y59.8954 I-0.3856 J0.4596 F1800
G01 Z-5.0000 F100
G02 X335.2052 Y60.5634 I0.5908 J0.1042 F1800
G02 X335.3856 Y59.5400 I-0.2052 J-0.5638 F1800
G02 X334.4092 Y59.8954 I-0.3856 J0.4596 F1800
G01 Z-6.0000 F100
G02 X335.2052 Y60.5634 I0.5908 J0.1042 F1800
G02 X335.3856 Y59.5400 I-0.2052 J-0.5638 F1800
G02 X334.4092 Y59.8954 I-0.3856 J0.4596 F1800
G01 Z-7.0000 F100
G02 X335.2052 Y60.5634 I0.5908 J0.1042 F1800
G02 X335.3856 Y59.5400 I-0.2052 J-0.5638 F1800
G02 X334.4092 Y59.8954 I-0.3856 J0.4596 F1800
G01 Z-8.0000 F100
G02 X335.2052 Y60.5634 I0.5908 J0.1042 F1800
G02 X335.3856 Y59.5400 I-0.2052 J-0.5638 F1800
G02 X334.4092 Y59.8954 I-0.3856 J0.4596 F1800
G00 Z30.0000 F480
G00 X0.0000 Y0.0000 F2100

M05
