;Project bottom-part-d12mm-f6mm
;Created by Estlcam version 11 build 11,244
;Machining time about 01:42:21 hours

G90
M03 S30000
G00 Z30.0000 F480


;No. 1: Ausschnitt 8
G00 X53.4623 Y167.2591 F2100
G00 Z0.5000 F480
G01 Z0.0000 F100 S30000
G01 Z-2.0000 F100
G02 X53.6662 Y169.2406 I0.1909 J0.9816 F900
G01 X403.6400 F900
G02 Y167.2406 I0.0129 J-1.0000 F900
G01 X53.6662 F900
G02 X53.4623 Y167.2591 I-0.0106 J1.0167 F900
G01 Z-4.0000 F100
G02 X53.6662 Y169.2406 I0.1909 J0.9816 F900
G01 X403.6400 F900
G02 Y167.2406 I0.0129 J-1.0000 F900
G01 X53.6662 F900
G02 X53.4623 Y167.2591 I-0.0106 J1.0167 F900
G01 Z-6.0000 F100
G02 X53.6662 Y169.2406 I0.1909 J0.9816 F900
G01 X403.6400 F900
G02 Y167.2406 I0.0129 J-1.0000 F900
G01 X53.6662 F900
G02 X53.4623 Y167.2591 I-0.0106 J1.0167 F900
G01 Z-8.0000 F100
G02 X53.6662 Y169.2406 I0.1909 J0.9816 F900
G01 X403.6400 F900
G02 Y167.2406 I0.0129 J-1.0000 F900
G01 X53.6662 F900
G02 X53.4623 Y167.2591 I-0.0106 J1.0167 F900
G01 Z-10.0000 F100
G02 X53.6662 Y169.2406 I0.1909 J0.9816 F900
G01 X403.6400 F900
G02 Y167.2406 I0.0129 J-1.0000 F900
G01 X53.6662 F900
G02 X53.4623 Y167.2591 I-0.0106 J1.0167 F900
G01 Z-12.0000 F100
G02 X53.6662 Y169.2406 I0.1909 J0.9816 F900
G01 X403.6400 F900
G02 Y167.2406 I0.0129 J-1.0000 F900
G01 X53.6662 F900
G02 X53.4623 Y167.2591 I-0.0106 J1.0167 F900
G01 Z-13.0000 F100
G02 X53.6662 Y169.2406 I0.1909 J0.9816 F900
G01 X403.6400 F900
G02 Y167.2406 I0.0129 J-1.0000 F900
G01 X53.6662 F900
G02 X53.4623 Y167.2591 I-0.0106 J1.0167 F900
G00 Z30.0000 F480


;No. 2: Ausschnitt 7
G00 X53.4967 Y185.2530 Z30.0000 F2100
G00 Z0.5000 F480
G01 Z0.0000 F100
G01 Z-2.0000 F100
G02 X53.6662 Y187.2406 I0.1565 J0.9877 F900
G01 X403.6400 F900
G02 Y185.2406 I0.0129 J-1.0000 F900
G01 X53.6662 F900
G02 X53.4967 Y185.2530 I-0.0102 J1.0238 F900
G01 Z-4.0000 F100
G02 X53.6662 Y187.2406 I0.1565 J0.9877 F900
G01 X403.6400 F900
G02 Y185.2406 I0.0129 J-1.0000 F900
G01 X53.6662 F900
G02 X53.4967 Y185.2530 I-0.0102 J1.0238 F900
G01 Z-6.0000 F100
G02 X53.6662 Y187.2406 I0.1565 J0.9877 F900
G01 X403.6400 F900
G02 Y185.2406 I0.0129 J-1.0000 F900
G01 X53.6662 F900
G02 X53.4967 Y185.2530 I-0.0102 J1.0238 F900
G01 Z-8.0000 F100
G02 X53.6662 Y187.2406 I0.1565 J0.9877 F900
G01 X403.6400 F900
G02 Y185.2406 I0.0129 J-1.0000 F900
G01 X53.6662 F900
G02 X53.4967 Y185.2530 I-0.0102 J1.0238 F900
G01 Z-10.0000 F100
G02 X53.6662 Y187.2406 I0.1565 J0.9877 F900
G01 X403.6400 F900
G02 Y185.2406 I0.0129 J-1.0000 F900
G01 X53.6662 F900
G02 X53.4967 Y185.2530 I-0.0102 J1.0238 F900
G01 Z-12.0000 F100
G02 X53.6662 Y187.2406 I0.1565 J0.9877 F900
G01 X403.6400 F900
G02 Y185.2406 I0.0129 J-1.0000 F900
G01 X53.6662 F900
G02 X53.4967 Y185.2530 I-0.0102 J1.0238 F900
G01 Z-13.0000 F100
G02 X53.6662 Y187.2406 I0.1565 J0.9877 F900
G01 X403.6400 F900
G02 Y185.2406 I0.0129 J-1.0000 F900
G01 X53.6662 F900
G02 X53.4967 Y185.2530 I-0.0102 J1.0238 F900
G00 Z30.0000 F480


;No. 3: Ausschnitt 6
G00 X53.5139 Y203.2504 Z30.0000 F2100
G00 Z0.5000 F480
G01 Z0.0000 F100
G01 Z-2.0000 F100
G02 X53.6662 Y205.2406 I0.1393 J0.9902 F900
G01 X403.6400 F900
G02 Y203.2406 I0.0129 J-1.0000 F900
G01 X53.6662 F900
G02 X53.5139 Y203.2504 I-0.0097 J1.0325 F900
G01 Z-4.0000 F100
G02 X53.6662 Y205.2406 I0.1393 J0.9902 F900
G01 X403.6400 F900
G02 Y203.2406 I0.0129 J-1.0000 F900
G01 X53.6662 F900
G02 X53.5139 Y203.2504 I-0.0097 J1.0325 F900
G01 Z-6.0000 F100
G02 X53.6662 Y205.2406 I0.1393 J0.9902 F900
G01 X403.6400 F900
G02 Y203.2406 I0.0129 J-1.0000 F900
G01 X53.6662 F900
G02 X53.5139 Y203.2504 I-0.0097 J1.0325 F900
G01 Z-8.0000 F100
G02 X53.6662 Y205.2406 I0.1393 J0.9902 F900
G01 X403.6400 F900
G02 Y203.2406 I0.0129 J-1.0000 F900
G01 X53.6662 F900
G02 X53.5139 Y203.2504 I-0.0097 J1.0325 F900
G01 Z-10.0000 F100
G02 X53.6662 Y205.2406 I0.1393 J0.9902 F900
G01 X403.6400 F900
G02 Y203.2406 I0.0129 J-1.0000 F900
G01 X53.6662 F900
G02 X53.5139 Y203.2504 I-0.0097 J1.0325 F900
G01 Z-12.0000 F100
G02 X53.6662 Y205.2406 I0.1393 J0.9902 F900
G01 X403.6400 F900
G02 Y203.2406 I0.0129 J-1.0000 F900
G01 X53.6662 F900
G02 X53.5139 Y203.2504 I-0.0097 J1.0325 F900
G01 Z-13.0000 F100
G02 X53.6662 Y205.2406 I0.1393 J0.9902 F900
G01 X403.6400 F900
G02 Y203.2406 I0.0129 J-1.0000 F900
G01 X53.6662 F900
G02 X53.5139 Y203.2504 I-0.0097 J1.0325 F900
G00 Z30.0000 F480


;No. 4: Ausschnitt 5
G00 X53.5139 Y246.2504 Z30.0000 F2100
G00 Z0.5000 F480
G01 Z0.0000 F100
G01 Z-2.0000 F100
G02 X53.6662 Y248.2406 I0.1393 J0.9902 F900
G01 X403.6400 F900
G02 Y246.2406 I0.0129 J-1.0000 F900
G01 X53.6662 F900
G02 X53.5139 Y246.2504 I-0.0097 J1.0325 F900
G01 Z-4.0000 F100
G02 X53.6662 Y248.2406 I0.1393 J0.9902 F900
G01 X403.6400 F900
G02 Y246.2406 I0.0129 J-1.0000 F900
G01 X53.6662 F900
G02 X53.5139 Y246.2504 I-0.0097 J1.0325 F900
G01 Z-6.0000 F100
G02 X53.6662 Y248.2406 I0.1393 J0.9902 F900
G01 X403.6400 F900
G02 Y246.2406 I0.0129 J-1.0000 F900
G01 X53.6662 F900
G02 X53.5139 Y246.2504 I-0.0097 J1.0325 F900
G01 Z-8.0000 F100
G02 X53.6662 Y248.2406 I0.1393 J0.9902 F900
G01 X403.6400 F900
G02 Y246.2406 I0.0129 J-1.0000 F900
G01 X53.6662 F900
G02 X53.5139 Y246.2504 I-0.0097 J1.0325 F900
G01 Z-10.0000 F100
G02 X53.6662 Y248.2406 I0.1393 J0.9902 F900
G01 X403.6400 F900
G02 Y246.2406 I0.0129 J-1.0000 F900
G01 X53.6662 F900
G02 X53.5139 Y246.2504 I-0.0097 J1.0325 F900
G01 Z-12.0000 F100
G02 X53.6662 Y248.2406 I0.1393 J0.9902 F900
G01 X403.6400 F900
G02 Y246.2406 I0.0129 J-1.0000 F900
G01 X53.6662 F900
G02 X53.5139 Y246.2504 I-0.0097 J1.0325 F900
G01 Z-13.0000 F100
G02 X53.6662 Y248.2406 I0.1393 J0.9902 F900
G01 X403.6400 F900
G02 Y246.2406 I0.0129 J-1.0000 F900
G01 X53.6662 F900
G02 X53.5139 Y246.2504 I-0.0097 J1.0325 F900
G00 Z30.0000 F480


;No. 5: Ausschnitt 4
G00 X53.5312 Y264.2481 Z30.0000 F2100
G00 Z0.5000 F480
G01 Z0.0000 F100
G01 Z-2.0000 F100
G02 X53.6662 Y266.2406 I0.1220 J0.9925 F900
G01 X403.6400 F900
G02 Y264.2406 I0.0129 J-1.0000 F900
G01 X53.6662 F900
G02 X53.5312 Y264.2481 I-0.0095 J1.0368 F900
G01 Z-4.0000 F100
G02 X53.6662 Y266.2406 I0.1220 J0.9925 F900
G01 X403.6400 F900
G02 Y264.2406 I0.0129 J-1.0000 F900
G01 X53.6662 F900
G02 X53.5312 Y264.2481 I-0.0095 J1.0368 F900
G01 Z-6.0000 F100
G02 X53.6662 Y266.2406 I0.1220 J0.9925 F900
G01 X403.6400 F900
G02 Y264.2406 I0.0129 J-1.0000 F900
G01 X53.6662 F900
G02 X53.5312 Y264.2481 I-0.0095 J1.0368 F900
G01 Z-8.0000 F100
G02 X53.6662 Y266.2406 I0.1220 J0.9925 F900
G01 X403.6400 F900
G02 Y264.2406 I0.0129 J-1.0000 F900
G01 X53.6662 F900
G02 X53.5312 Y264.2481 I-0.0095 J1.0368 F900
G01 Z-10.0000 F100
G02 X53.6662 Y266.2406 I0.1220 J0.9925 F900
G01 X403.6400 F900
G02 Y264.2406 I0.0129 J-1.0000 F900
G01 X53.6662 F900
G02 X53.5312 Y264.2481 I-0.0095 J1.0368 F900
G01 Z-12.0000 F100
G02 X53.6662 Y266.2406 I0.1220 J0.9925 F900
G01 X403.6400 F900
G02 Y264.2406 I0.0129 J-1.0000 F900
G01 X53.6662 F900
G02 X53.5312 Y264.2481 I-0.0095 J1.0368 F900
G01 Z-13.0000 F100
G02 X53.6662 Y266.2406 I0.1220 J0.9925 F900
G01 X403.6400 F900
G02 Y264.2406 I0.0129 J-1.0000 F900
G01 X53.6662 F900
G02 X53.5312 Y264.2481 I-0.0095 J1.0368 F900
G00 Z30.0000 F480


;No. 6: Ausschnitt 3
G00 X53.5660 Y337.2445 Z30.0000 F2100
G00 Z0.5000 F480
G01 Z0.0000 F100
G01 Z-2.0000 F100
G02 X53.6662 Y339.2406 I0.0873 J0.9962 F900
G01 X403.6400 F900
G02 Y337.2406 I0.0129 J-1.0000 F900
G01 X53.6662 F900
G02 X53.5660 Y337.2445 I-0.0086 J1.0647 F900
G01 Z-4.0000 F100
G02 X53.6662 Y339.2406 I0.0873 J0.9962 F900
G01 X403.6400 F900
G02 Y337.2406 I0.0129 J-1.0000 F900
G01 X53.6662 F900
G02 X53.5660 Y337.2445 I-0.0086 J1.0647 F900
G01 Z-6.0000 F100
G02 X53.6662 Y339.2406 I0.0873 J0.9962 F900
G01 X403.6400 F900
G02 Y337.2406 I0.0129 J-1.0000 F900
G01 X53.6662 F900
G02 X53.5660 Y337.2445 I-0.0086 J1.0647 F900
G01 Z-8.0000 F100
G02 X53.6662 Y339.2406 I0.0873 J0.9962 F900
G01 X403.6400 F900
G02 Y337.2406 I0.0129 J-1.0000 F900
G01 X53.6662 F900
G02 X53.5660 Y337.2445 I-0.0086 J1.0647 F900
G01 Z-10.0000 F100
G02 X53.6662 Y339.2406 I0.0873 J0.9962 F900
G01 X403.6400 F900
G02 Y337.2406 I0.0129 J-1.0000 F900
G01 X53.6662 F900
G02 X53.5660 Y337.2445 I-0.0086 J1.0647 F900
G01 Z-12.0000 F100
G02 X53.6662 Y339.2406 I0.0873 J0.9962 F900
G01 X403.6400 F900
G02 Y337.2406 I0.0129 J-1.0000 F900
G01 X53.6662 F900
G02 X53.5660 Y337.2445 I-0.0086 J1.0647 F900
G01 Z-13.0000 F100
G02 X53.6662 Y339.2406 I0.0873 J0.9962 F900
G01 X403.6400 F900
G02 Y337.2406 I0.0129 J-1.0000 F900
G01 X53.6662 F900
G02 X53.5660 Y337.2445 I-0.0086 J1.0647 F900
G00 Z30.0000 F480


;No. 7: Ausschnitt 2
G00 X53.5660 Y355.2445 Z30.0000 F2100
G00 Z0.5000 F480
G01 Z0.0000 F100
G01 Z-2.0000 F100
G02 X53.6662 Y357.2406 I0.0873 J0.9962 F900
G01 X403.6400 F900
G02 Y355.2406 I0.0129 J-1.0000 F900
G01 X53.6662 F900
G02 X53.5660 Y355.2445 I-0.0086 J1.0647 F900
G01 Z-4.0000 F100
G02 X53.6662 Y357.2406 I0.0873 J0.9962 F900
G01 X403.6400 F900
G02 Y355.2406 I0.0129 J-1.0000 F900
G01 X53.6662 F900
G02 X53.5660 Y355.2445 I-0.0086 J1.0647 F900
G01 Z-6.0000 F100
G02 X53.6662 Y357.2406 I0.0873 J0.9962 F900
G01 X403.6400 F900
G02 Y355.2406 I0.0129 J-1.0000 F900
G01 X53.6662 F900
G02 X53.5660 Y355.2445 I-0.0086 J1.0647 F900
G01 Z-8.0000 F100
G02 X53.6662 Y357.2406 I0.0873 J0.9962 F900
G01 X403.6400 F900
G02 Y355.2406 I0.0129 J-1.0000 F900
G01 X53.6662 F900
G02 X53.5660 Y355.2445 I-0.0086 J1.0647 F900
G01 Z-10.0000 F100
G02 X53.6662 Y357.2406 I0.0873 J0.9962 F900
G01 X403.6400 F900
G02 Y355.2406 I0.0129 J-1.0000 F900
G01 X53.6662 F900
G02 X53.5660 Y355.2445 I-0.0086 J1.0647 F900
G01 Z-12.0000 F100
G02 X53.6662 Y357.2406 I0.0873 J0.9962 F900
G01 X403.6400 F900
G02 Y355.2406 I0.0129 J-1.0000 F900
G01 X53.6662 F900
G02 X53.5660 Y355.2445 I-0.0086 J1.0647 F900
G01 Z-13.0000 F100
G02 X53.6662 Y357.2406 I0.0873 J0.9962 F900
G01 X403.6400 F900
G02 Y355.2406 I0.0129 J-1.0000 F900
G01 X53.6662 F900
G02 X53.5660 Y355.2445 I-0.0086 J1.0647 F900
G00 Z30.0000 F480


;No. 8: Ausschnitt 1
G00 X53.5660 Y373.2445 Z30.0000 F2100
G00 Z0.5000 F480
G01 Z0.0000 F100
G01 Z-2.0000 F100
G02 X53.6662 Y375.2406 I0.0873 J0.9962 F900
G01 X403.6400 F900
G02 Y373.2406 I0.0129 J-1.0000 F900
G01 X53.6662 F900
G02 X53.5660 Y373.2445 I-0.0086 J1.0647 F900
G01 Z-4.0000 F100
G02 X53.6662 Y375.2406 I0.0873 J0.9962 F900
G01 X403.6400 F900
G02 Y373.2406 I0.0129 J-1.0000 F900
G01 X53.6662 F900
G02 X53.5660 Y373.2445 I-0.0086 J1.0647 F900
G01 Z-6.0000 F100
G02 X53.6662 Y375.2406 I0.0873 J0.9962 F900
G01 X403.6400 F900
G02 Y373.2406 I0.0129 J-1.0000 F900
G01 X53.6662 F900
G02 X53.5660 Y373.2445 I-0.0086 J1.0647 F900
G01 Z-8.0000 F100
G02 X53.6662 Y375.2406 I0.0873 J0.9962 F900
G01 X403.6400 F900
G02 Y373.2406 I0.0129 J-1.0000 F900
G01 X53.6662 F900
G02 X53.5660 Y373.2445 I-0.0086 J1.0647 F900
G01 Z-10.0000 F100
G02 X53.6662 Y375.2406 I0.0873 J0.9962 F900
G01 X403.6400 F900
G02 Y373.2406 I0.0129 J-1.0000 F900
G01 X53.6662 F900
G02 X53.5660 Y373.2445 I-0.0086 J1.0647 F900
G01 Z-12.0000 F100
G02 X53.6662 Y375.2406 I0.0873 J0.9962 F900
G01 X403.6400 F900
G02 Y373.2406 I0.0129 J-1.0000 F900
G01 X53.6662 F900
G02 X53.5660 Y373.2445 I-0.0086 J1.0647 F900
G01 Z-13.0000 F100
G02 X53.6662 Y375.2406 I0.0873 J0.9962 F900
G01 X403.6400 F900
G02 Y373.2406 I0.0129 J-1.0000 F900
G01 X53.6662 F900
G02 X53.5660 Y373.2445 I-0.0086 J1.0647 F900
G00 Z30.0000 F480


;No. 9: Ausschnitt 9
G00 X42.2531 Y35.4910 Z30.0000 F2100
G00 Z0.5000 F480
G01 Z0.0000 F100
G01 Z-2.0000 F100
G01 X235.0531 F900
G01 Y30.9910 F900
G01 X42.2531 F900
G01 X41.6531 Y31.0092 F900
G01 Y40.2410 F900
G01 X235.6531 F900
G01 Y26.2410 F900
G01 X41.6531 F900
G01 Y31.0092 F900
G01 X42.2531 Y30.9910 F900
G01 Z-4.0000 F100
G01 X235.0531 F900
G01 Y35.4910 F900
G01 X42.2531 F900
G01 X41.6531 Y35.4727 F900
G01 Y40.2410 F900
G01 X235.6531 F900
G01 Y26.2410 F900
G01 X41.6531 F900
G01 Y35.4727 F900
G01 X42.2531 Y35.4910 F900
G01 Z-6.0000 F100
G01 X235.0531 F900
G01 Y30.9910 F900
G01 X42.2531 F900
G01 X41.6531 Y31.0092 F900
G01 Y40.2410 F900
G01 X235.6531 F900
G01 Y26.2410 F900
G01 X41.6531 F900
G01 Y31.0092 F900
G01 X42.2531 Y30.9910 F900
G00 Z30.0000 F480


;No. 10: Teil 1
G00 X367.6104 Y20.2410 Z30.0000 F2100
G00 Z0.5000 F480
G01 Z0.0000 F100
G01 Z-2.0000 F100
G01 X435.6531 F900
G03 X438.6531 Y23.2410 I0.0000 J3.0000 F900
G01 Y99.6804 F900
G01 Y108.6804 F900
G01 Y337.6983 F900
G01 Y346.6983 F900
G01 Y409.0696 F900
G03 X435.6531 Y412.0696 I-3.0000 J0.0000 F900
G01 X361.1467 F900
G01 X352.1467 F900
G01 X107.1595 F900
G01 X98.1595 F900
G01 X23.6531 F900
G03 X20.6531 Y409.0696 I0.0000 J-3.0000 F900
G01 Y335.6719 F900
G01 Y326.6719 F900
G01 Y96.1331 F900
G01 Y87.1331 F900
G01 Y23.2410 F900
G03 X23.6531 Y20.2410 I3.0000 J0.0000 F900
G01 X93.2166 F900
G01 X102.2166 F900
G01 X358.6104 F900
G01 X367.6104 F900
G01 Z-4.0000 F100
G01 X435.6531 F900
G03 X438.6531 Y23.2410 I0.0000 J3.0000 F900
G01 Y99.6804 F900
G01 Y108.6804 F900
G01 Y337.6983 F900
G01 Y346.6983 F900
G01 Y409.0696 F900
G03 X435.6531 Y412.0696 I-3.0000 J0.0000 F900
G01 X361.1467 F900
G01 X352.1467 F900
G01 X107.1595 F900
G01 X98.1595 F900
G01 X23.6531 F900
G03 X20.6531 Y409.0696 I0.0000 J-3.0000 F900
G01 Y335.6719 F900
G01 Y326.6719 F900
G01 Y96.1331 F900
G01 Y87.1331 F900
G01 Y23.2410 F900
G03 X23.6531 Y20.2410 I3.0000 J0.0000 F900
G01 X93.2166 F900
G01 X102.2166 F900
G01 X358.6104 F900
G01 X367.6104 F900
G01 Z-6.0000 F100
G01 X435.6531 F900
G03 X438.6531 Y23.2410 I0.0000 J3.0000 F900
G01 Y99.6804 F900
G01 Y108.6804 F900
G01 Y337.6983 F900
G01 Y346.6983 F900
G01 Y409.0696 F900
G03 X435.6531 Y412.0696 I-3.0000 J0.0000 F900
G01 X361.1467 F900
G01 X352.1467 F900
G01 X107.1595 F900
G01 X98.1595 F900
G01 X23.6531 F900
G03 X20.6531 Y409.0696 I0.0000 J-3.0000 F900
G01 Y335.6719 F900
G01 Y326.6719 F900
G01 Y96.1331 F900
G01 Y87.1331 F900
G01 Y23.2410 F900
G03 X23.6531 Y20.2410 I3.0000 J0.0000 F900
G01 X93.2166 F900
G01 X102.2166 F900
G01 X358.6104 F900
G01 X367.6104 F900
G01 Z-8.0000 F100
G01 X435.6531 F900
G03 X438.6531 Y23.2410 I0.0000 J3.0000 F900
G01 Y99.6804 F900
G01 Y108.6804 F900
G01 Y337.6983 F900
G01 Y346.6983 F900
G01 Y409.0696 F900
G03 X435.6531 Y412.0696 I-3.0000 J0.0000 F900
G01 X361.1467 F900
G01 X352.1467 F900
G01 X107.1595 F900
G01 X98.1595 F900
G01 X23.6531 F900
G03 X20.6531 Y409.0696 I0.0000 J-3.0000 F900
G01 Y335.6719 F900
G01 Y326.6719 F900
G01 Y96.1331 F900
G01 Y87.1331 F900
G01 Y23.2410 F900
G03 X23.6531 Y20.2410 I3.0000 J0.0000 F900
G01 X93.2166 F900
G01 X102.2166 F900
G01 X358.6104 F900
G01 X367.6104 F900
G01 Z-10.0000 F100
G01 X435.6531 F900
G03 X438.6531 Y23.2410 I0.0000 J3.0000 F900
G01 Y99.6804 F900
G00 Z-9.0000 F480
G01 Y108.6804 F900
G01 Z-10.0000 F100
G01 Y337.6983 F900
G00 Z-9.0000 F480
G01 Y346.6983 F900
G01 Z-10.0000 F100
G01 Y409.0696 F900
G03 X435.6531 Y412.0696 I-3.0000 J0.0000 F900
G01 X361.1467 F900
G00 Z-9.0000 F480
G01 X352.1467 F900
G01 Z-10.0000 F100
G01 X107.1595 F900
G00 Z-9.0000 F480
G01 X98.1595 F900
G01 Z-10.0000 F100
G01 X23.6531 F900
G03 X20.6531 Y409.0696 I0.0000 J-3.0000 F900
G01 Y335.6719 F900
G00 Z-9.0000 F480
G01 Y326.6719 F900
G01 Z-10.0000 F100
G01 Y96.1331 F900
G00 Z-9.0000 F480
G01 Y87.1331 F900
G01 Z-10.0000 F100
G01 Y23.2410 F900
G03 X23.6531 Y20.2410 I3.0000 J0.0000 F900
G01 X93.2166 F900
G00 Z-9.0000 F480
G01 X102.2166 F900
G01 Z-10.0000 F100
G01 X358.6104 F900
G00 Z-9.0000 F480
G01 X367.6104 F900
G00 Z-9.5000 F480
G01 Z-10.0000 F100
G01 Z-12.0000 F100
G01 X435.6531 F900
G03 X438.6531 Y23.2410 I0.0000 J3.0000 F900
G01 Y99.6804 F900
G00 Z-9.0000 F480
G01 Y108.6804 F900
G00 Z-9.5000 F480
G01 Z-10.0000 F100
G01 Z-12.0000 F100
G01 Y337.6983 F900
G00 Z-9.0000 F480
G01 Y346.6983 F900
G00 Z-9.5000 F480
G01 Z-10.0000 F100
G01 Z-12.0000 F100
G01 Y409.0696 F900
G03 X435.6531 Y412.0696 I-3.0000 J0.0000 F900
G01 X361.1467 F900
G00 Z-9.0000 F480
G01 X352.1467 F900
G00 Z-9.5000 F480
G01 Z-10.0000 F100
G01 Z-12.0000 F100
G01 X107.1595 F900
G00 Z-9.0000 F480
G01 X98.1595 F900
G00 Z-9.5000 F480
G01 Z-10.0000 F100
G01 Z-12.0000 F100
G01 X23.6531 F900
G03 X20.6531 Y409.0696 I0.0000 J-3.0000 F900
G01 Y335.6719 F900
G00 Z-9.0000 F480
G01 Y326.6719 F900
G00 Z-9.5000 F480
G01 Z-10.0000 F100
G01 Z-12.0000 F100
G01 Y96.1331 F900
G00 Z-9.0000 F480
G01 Y87.1331 F900
G00 Z-9.5000 F480
G01 Z-10.0000 F100
G01 Z-12.0000 F100
G01 Y23.2410 F900
G03 X23.6531 Y20.2410 I3.0000 J0.0000 F900
G01 X93.2166 F900
G00 Z-9.0000 F480
G01 X102.2166 F900
G00 Z-9.5000 F480
G01 Z-10.0000 F100
G01 Z-12.0000 F100
G01 X358.6104 F900
G00 Z-9.0000 F480
G01 X367.6104 F900
G00 Z-11.5000 F480
G01 Z-12.0000 F100
G01 Z-13.0000 F100
G01 X435.6531 F900
G03 X438.6531 Y23.2410 I0.0000 J3.0000 F900
G01 Y99.6804 F900
G00 Z-9.0000 F480
G01 Y108.6804 F900
G00 Z-11.5000 F480
G01 Z-12.0000 F100
G01 Z-13.0000 F100
G01 Y337.6983 F900
G00 Z-9.0000 F480
G01 Y346.6983 F900
G00 Z-11.5000 F480
G01 Z-12.0000 F100
G01 Z-13.0000 F100
G01 Y409.0696 F900
G03 X435.6531 Y412.0696 I-3.0000 J0.0000 F900
G01 X361.1467 F900
G00 Z-9.0000 F480
G01 X352.1467 F900
G00 Z-11.5000 F480
G01 Z-12.0000 F100
G01 Z-13.0000 F100
G01 X107.1595 F900
G00 Z-9.0000 F480
G01 X98.1595 F900
G00 Z-11.5000 F480
G01 Z-12.0000 F100
G01 Z-13.0000 F100
G01 X23.6531 F900
G03 X20.6531 Y409.0696 I0.0000 J-3.0000 F900
G01 Y335.6719 F900
G00 Z-9.0000 F480
G01 Y326.6719 F900
G00 Z-11.5000 F480
G01 Z-12.0000 F100
G01 Z-13.0000 F100
G01 Y96.1331 F900
G00 Z-9.0000 F480
G01 Y87.1331 F900
G00 Z-11.5000 F480
G01 Z-12.0000 F100
G01 Z-13.0000 F100
G01 Y23.2410 F900
G03 X23.6531 Y20.2410 I3.0000 J0.0000 F900
G01 X93.2166 F900
G00 Z-9.0000 F480
G01 X102.2166 F900
G00 Z-11.5000 F480
G01 Z-12.0000 F100
G01 Z-13.0000 F100
G01 X358.6104 F900
G00 Z-9.0000 F480
G01 X367.6104 F900
G00 Z30.0000 F480
G00 X0.0000 Y0.0000 F2100

M05
