;Project front-carve
;Created by Estlcam version 11 build 11,244
;Machining time about 00:05:48 hours

G90
M03 S24000
G00 Z30.0000 F480


;No. 1: Carve 1
G00 X54.0017 Y29.8586 F2100
G01 Z-0.7969 F1800 S24000
G01 Y30.0827 Z-0.8475 F1800
G01 X54.0515 Y30.1696 Z-0.8449 F1800
G01 X56.8007 Y31.8595 Z0.0000 F1800
G01 X54.0517 Y30.1698 Z-0.8449 F1800
G01 X53.9517 F1800
G01 X51.2027 Y31.8595 Z0.0000 F1800
G01 X53.9520 Y30.1696 Z-0.8449 F1800
G01 X54.0017 Y30.0827 Z-0.8475 F1800
G01 Y26.3852 Z-0.0126 F1800
G01 Y26.3291 Z0.0000 F1800
G01 Y30.0827 Z-1.6950 F1800
G01 X53.9520 Y30.1696 Z-1.6899 F1800
G01 X51.2027 Y31.8595 Z0.0000 F1800
G01 X53.9517 Y30.1698 Z-1.6897 F1800
G01 X54.0517 F1800
G01 X56.8007 Y31.8595 Z0.0000 F1800
G01 X54.0515 Y30.1696 Z-1.6899 F1800
G01 X54.0017 Y30.0827 Z-1.6950 F1800
G01 Y29.9707 Z-1.6444 F1800
G01 Y29.8586 Z-1.5938 F1800
G00 Z30.0000 F480
G00 X73.2352 Y27.7758 F2100
G01 Z-0.7185 F1800
G01 X73.1682 Y27.8206 F1800
G01 X73.1037 Y27.8691 F1800
G01 X73.0421 Y27.9211 F1800
G01 X72.9835 Y27.9765 F1800
G01 X72.9281 Y28.0351 F1800
G01 X72.8761 Y28.0967 F1800
G01 X72.8276 Y28.1612 F1800
G01 X72.7828 Y28.2282 F1800
G01 X72.7419 Y28.2977 F1800
G01 X72.7049 Y28.3693 F1800
G01 X72.6719 Y28.4429 F1800
G01 X72.6432 Y28.5182 F1800
G01 X72.6187 Y28.5950 F1800
G01 X72.5985 Y28.6731 F1800
G01 X72.5828 Y28.7522 F1800
G01 X72.5715 Y28.8321 F1800
G01 X72.5648 Y28.9124 F1800
G01 X72.5625 Y28.9930 F1800
G01 X72.5648 Y29.0736 F1800
G01 X72.5715 Y29.1539 F1800
G01 X72.5828 Y29.2338 F1800
G01 X72.5985 Y29.3129 F1800
G01 X72.6187 Y29.3910 F1800
G01 X72.6432 Y29.4678 F1800
G01 X72.6719 Y29.5431 F1800
G01 X72.7049 Y29.6167 F1800
G01 X72.7419 Y29.6883 F1800
G01 X72.7828 Y29.7578 F1800
G01 X72.8276 Y29.8248 F1800
G01 X72.8761 Y29.8893 F1800
G01 X72.9281 Y29.9509 F1800
G01 X72.9835 Y30.0095 F1800
G01 X73.0421 Y30.0649 F1800
G01 X73.1037 Y30.1169 F1800
G01 X73.1682 Y30.1654 F1800
G01 X73.2352 Y30.2102 F1800
G01 X73.3047 Y30.2511 F1800
G01 X73.3763 Y30.2881 F1800
G01 X73.4499 Y30.3211 F1800
G01 X73.5252 Y30.3498 F1800
G01 X73.6020 Y30.3743 F1800
G01 X73.6801 Y30.3945 F1800
G01 X73.7592 Y30.4102 F1800
G01 X73.8391 Y30.4215 F1800
G01 X73.9194 Y30.4282 F1800
G01 X74.0000 Y30.4305 F1800
G01 X74.0806 Y30.4282 F1800
G01 X74.1609 Y30.4215 F1800
G01 X74.2408 Y30.4102 F1800
G01 X74.3199 Y30.3945 F1800
G01 X74.3980 Y30.3743 F1800
G01 X74.4748 Y30.3498 F1800
G01 X74.5501 Y30.3211 F1800
G01 X74.6237 Y30.2881 F1800
G01 X74.6953 Y30.2511 F1800
G01 X74.7648 Y30.2102 F1800
G01 X74.8318 Y30.1654 F1800
G01 X74.8963 Y30.1169 F1800
G01 X74.9579 Y30.0649 F1800
G01 X75.0165 Y30.0095 F1800
G01 X75.0719 Y29.9509 F1800
G01 X75.1239 Y29.8893 F1800
G01 X75.1724 Y29.8248 F1800
G01 X75.2172 Y29.7578 F1800
G01 X75.2581 Y29.6883 F1800
G01 X75.2951 Y29.6167 F1800
G01 X75.3281 Y29.5431 F1800
G01 X75.3568 Y29.4678 F1800
G01 X75.3813 Y29.3910 F1800
G01 X75.4015 Y29.3129 F1800
G01 X75.4172 Y29.2338 F1800
G01 X75.4285 Y29.1539 F1800
G01 X75.4352 Y29.0736 F1800
G01 X75.4375 Y28.9930 F1800
G01 X75.4352 Y28.9124 F1800
G01 X75.4285 Y28.8321 F1800
G01 X75.4172 Y28.7522 F1800
G01 X75.4015 Y28.6731 F1800
G01 X75.3813 Y28.5950 F1800
G01 X75.3568 Y28.5182 F1800
G01 X75.3281 Y28.4429 F1800
G01 X75.2951 Y28.3693 F1800
G01 X75.2581 Y28.2977 F1800
G01 X75.2172 Y28.2282 F1800
G01 X75.1724 Y28.1612 F1800
G01 X75.1239 Y28.0967 F1800
G01 X75.0719 Y28.0351 F1800
G01 X75.0165 Y27.9765 F1800
G01 X74.9579 Y27.9211 F1800
G01 X74.8963 Y27.8691 F1800
G01 X74.8318 Y27.8206 F1800
G01 X74.7648 Y27.7758 F1800
G01 X74.6953 Y27.7349 F1800
G01 X74.6237 Y27.6979 F1800
G01 X74.5501 Y27.6649 F1800
G01 X74.4748 Y27.6362 F1800
G01 X74.3980 Y27.6117 F1800
G01 X74.3199 Y27.5915 F1800
G01 X74.2408 Y27.5758 F1800
G01 X74.1609 Y27.5645 F1800
G01 X74.0806 Y27.5578 F1800
G01 X74.0000 Y27.5555 F1800
G01 X73.9194 Y27.5578 F1800
G01 X73.8391 Y27.5645 F1800
G01 X73.7592 Y27.5758 F1800
G01 X73.6801 Y27.5915 F1800
G01 X73.6020 Y27.6117 F1800
G01 X73.5252 Y27.6362 F1800
G01 X73.4499 Y27.6649 F1800
G01 X73.3763 Y27.6979 F1800
G01 X73.3047 Y27.7349 F1800
G01 Z-1.4369 F1800
G01 X73.3763 Y27.6979 F1800
G01 X73.4499 Y27.6649 F1800
G01 X73.5252 Y27.6362 F1800
G01 X73.6020 Y27.6117 F1800
G01 X73.6801 Y27.5915 F1800
G01 X73.7592 Y27.5758 F1800
G01 X73.8391 Y27.5645 F1800
G01 X73.9194 Y27.5578 F1800
G01 X74.0000 Y27.5555 F1800
G01 X74.0806 Y27.5578 F1800
G01 X74.1609 Y27.5645 F1800
G01 X74.2408 Y27.5758 F1800
G01 X74.3199 Y27.5915 F1800
G01 X74.3980 Y27.6117 F1800
G01 X74.4748 Y27.6362 F1800
G01 X74.5501 Y27.6649 F1800
G01 X74.6237 Y27.6979 F1800
G01 X74.6953 Y27.7349 F1800
G01 X74.7648 Y27.7758 F1800
G01 X74.8318 Y27.8206 F1800
G01 X74.8963 Y27.8691 F1800
G01 X74.9579 Y27.9211 F1800
G01 X75.0165 Y27.9765 F1800
G01 X75.0719 Y28.0351 F1800
G01 X75.1239 Y28.0967 F1800
G01 X75.1724 Y28.1612 F1800
G01 X75.2172 Y28.2282 F1800
G01 X75.2581 Y28.2977 F1800
G01 X75.2951 Y28.3693 F1800
G01 X75.3281 Y28.4429 F1800
G01 X75.3568 Y28.5182 F1800
G01 X75.3813 Y28.5950 F1800
G01 X75.4015 Y28.6731 F1800
G01 X75.4172 Y28.7522 F1800
G01 X75.4285 Y28.8321 F1800
G01 X75.4352 Y28.9124 F1800
G01 X75.4375 Y28.9930 F1800
G01 X75.4352 Y29.0736 F1800
G01 X75.4285 Y29.1539 F1800
G01 X75.4172 Y29.2338 F1800
G01 X75.4015 Y29.3129 F1800
G01 X75.3813 Y29.3910 F1800
G01 X75.3568 Y29.4678 F1800
G01 X75.3281 Y29.5431 F1800
G01 X75.2951 Y29.6167 F1800
G01 X75.2581 Y29.6883 F1800
G01 X75.2172 Y29.7578 F1800
G01 X75.1724 Y29.8248 F1800
G01 X75.1239 Y29.8893 F1800
G01 X75.0719 Y29.9509 F1800
G01 X75.0165 Y30.0095 F1800
G01 X74.9579 Y30.0649 F1800
G01 X74.8963 Y30.1169 F1800
G01 X74.8318 Y30.1654 F1800
G01 X74.7648 Y30.2102 F1800
G01 X74.6953 Y30.2511 F1800
G01 X74.6237 Y30.2881 F1800
G01 X74.5501 Y30.3211 F1800
G01 X74.4748 Y30.3498 F1800
G01 X74.3980 Y30.3743 F1800
G01 X74.3199 Y30.3945 F1800
G01 X74.2408 Y30.4102 F1800
G01 X74.1609 Y30.4215 F1800
G01 X74.0806 Y30.4282 F1800
G01 X74.0000 Y30.4305 F1800
G01 X73.9194 Y30.4282 F1800
G01 X73.8391 Y30.4215 F1800
G01 X73.7592 Y30.4102 F1800
G01 X73.6801 Y30.3945 F1800
G01 X73.6020 Y30.3743 F1800
G01 X73.5252 Y30.3498 F1800
G01 X73.4499 Y30.3211 F1800
G01 X73.3763 Y30.2881 F1800
G01 X73.3047 Y30.2511 F1800
G01 X73.2352 Y30.2102 F1800
G01 X73.1682 Y30.1654 F1800
G01 X73.1037 Y30.1169 F1800
G01 X73.0421 Y30.0649 F1800
G01 X72.9835 Y30.0095 F1800
G01 X72.9281 Y29.9509 F1800
G01 X72.8761 Y29.8893 F1800
G01 X72.8276 Y29.8248 F1800
G01 X72.7828 Y29.7578 F1800
G01 X72.7419 Y29.6883 F1800
G01 X72.7049 Y29.6167 F1800
G01 X72.6719 Y29.5431 F1800
G01 X72.6432 Y29.4678 F1800
G01 X72.6187 Y29.3910 F1800
G01 X72.5985 Y29.3129 F1800
G01 X72.5828 Y29.2338 F1800
G01 X72.5715 Y29.1539 F1800
G01 X72.5648 Y29.0736 F1800
G01 X72.5625 Y28.9930 F1800
G01 X72.5648 Y28.9124 F1800
G01 X72.5715 Y28.8321 F1800
G01 X72.5828 Y28.7522 F1800
G01 X72.5985 Y28.6731 F1800
G01 X72.6187 Y28.5950 F1800
G01 X72.6432 Y28.5182 F1800
G01 X72.6719 Y28.4429 F1800
G01 X72.7049 Y28.3693 F1800
G01 X72.7419 Y28.2977 F1800
G01 X72.7828 Y28.2282 F1800
G01 X72.8276 Y28.1612 F1800
G01 X72.8761 Y28.0967 F1800
G01 X72.9281 Y28.0351 F1800
G01 X72.9835 Y27.9765 F1800
G01 X73.0421 Y27.9211 F1800
G01 X73.1037 Y27.8691 F1800
G01 X73.1682 Y27.8206 F1800
G01 X73.2352 Y27.7758 F1800
G00 Z30.0000 F480
G00 X65.1070 Y49.0411 F2100
G01 Z-0.8448 F1800
G01 X66.7967 Y51.7903 Z0.0000 F1800
G01 X65.1071 Y49.0412 Z-0.8448 F1800
G01 X65.0204 Y48.9911 Z-0.8476 F1800
G01 X61.2670 Z0.0000 F1800
G01 X65.0204 Z-0.8476 F1800
G01 X65.1071 Y48.9410 Z-0.8448 F1800
G01 X66.7660 Y46.2419 Z-0.0154 F1800
G01 X66.7967 Y46.1919 Z0.0000 F1800
G01 X65.1071 Y48.9410 Z-1.6896 F1800
G01 X65.0204 Y48.9911 Z-1.6952 F1800
G01 X61.2670 Z0.0000 F1800
G01 X65.0204 Z-1.6952 F1800
G01 X65.1071 Y49.0412 Z-1.6896 F1800
G01 X66.7967 Y51.7903 Z0.0000 F1800
G01 X65.1685 Y49.1411 Z-1.6283 F1800
G01 X65.1070 Y49.0411 Z-1.6897 F1800
G00 Z30.0000 F480
G00 X83.2459 Y48.9911 F2100
G01 Z-0.7717 F1800
G01 X86.6632 Z0.0000 F1800
G01 X82.9098 Z-0.8476 F1800
G01 X82.8231 Y49.0412 Z-0.8448 F1800
G01 X81.1335 Y51.7903 Z0.0000 F1800
G01 X82.8232 Y49.0411 Z-0.8448 F1800
G01 Y48.9411 F1800
G01 X81.1642 Y46.2419 Z-0.0154 F1800
G01 X81.1335 Y46.1919 Z0.0000 F1800
G01 X82.8232 Y48.9411 Z-1.6897 F1800
G01 Y49.0411 F1800
G01 X81.1335 Y51.7903 Z0.0000 F1800
G01 X82.8231 Y49.0412 Z-1.6896 F1800
G01 X82.9098 Y48.9911 Z-1.6952 F1800
G01 X86.6632 Z0.0000 F1800
G01 X83.3579 Z-1.4928 F1800
G01 X83.2459 Z-1.5434 F1800
G00 Z30.0000 F480
G00 X44.0013 Y48.3087 F2100
G01 Z-0.7715 F1800
G01 Y51.7260 Z0.0000 F1800
G01 Y47.9726 Z-0.8474 F1800
G01 X43.9519 Y47.8856 Z-0.8450 F1800
G01 X41.2027 Y46.1956 Z0.0000 F1800
G01 X43.9513 Y47.8852 Z-0.8448 F1800
G01 X44.0513 F1800
G01 X46.7499 Y46.2264 Z-0.0154 F1800
G01 X46.7999 Y46.1956 Z0.0000 F1800
G01 X44.0513 Y47.8852 Z-1.6896 F1800
G01 X43.9513 F1800
G01 X41.2027 Y46.1956 Z0.0000 F1800
G01 X43.9519 Y47.8856 Z-1.6899 F1800
G01 X44.0013 Y47.9726 Z-1.6947 F1800
G01 Y51.7260 Z0.0000 F1800
G01 Y48.4208 Z-1.4924 F1800
G01 Y48.3087 Z-1.5430 F1800
G00 Z30.0000 F480
G00 X126.3329 Y87.3175 F2100
G01 Z-0.3997 F1800
G01 X126.1717 Y86.9984 Z-0.4140 F1800
G01 X126.1040 Y86.9568 Z-0.4088 F1800
G01 X126.0409 Y86.9199 Z-0.4043 F1800
G01 X125.9781 Y86.8847 Z-0.4005 F1800
G01 X125.9155 Y86.8513 Z-0.3970 F1800
G01 X125.8529 Y86.8198 Z-0.3940 F1800
G01 X125.7904 Y86.7899 Z-0.3913 F1800
G01 X125.7277 Y86.7617 Z-0.3891 F1800
G01 X125.6652 Y86.7348 Z-0.3873 F1800
G01 X125.6024 Y86.7094 Z-0.3859 F1800
G01 X125.5520 Y86.6902 Z-0.3850 F1800
G01 X125.5014 Y86.6719 Z-0.3844 F1800
G01 X125.4507 Y86.6545 Z-0.3840 F1800
G01 X125.3997 Y86.6380 Z-0.3839 F1800
G01 X125.3484 Y86.6222 Z-0.3840 F1800
G01 X125.2969 Y86.6073 Z-0.3844 F1800
G01 X124.6285 Y86.4920 Z-0.4093 F1800
G01 X124.5840 Y86.4889 Z-0.4122 F1800
G01 X124.5391 Y86.4863 Z-0.4152 F1800
G01 X124.4936 Y86.4843 Z-0.4184 F1800
G01 X124.4476 Y86.4829 Z-0.4219 F1800
G01 X124.4009 Y86.4821 Z-0.4255 F1800
G01 X124.3537 Y86.4819 Z-0.4293 F1800
G01 X124.2571 Y86.4831 Z-0.4375 F1800
G01 X124.2077 Y86.4845 Z-0.4420 F1800
G01 X124.1575 Y86.4866 Z-0.4467 F1800
G01 X124.1065 Y86.4894 Z-0.4517 F1800
G01 X124.0547 Y86.4929 Z-0.4569 F1800
G01 X123.7426 Y86.5257 Z-0.4914 F1800
G01 X123.5484 Y86.5556 Z-0.5153 F1800
G01 X123.3972 Y86.5829 Z-0.5351 F1800
G01 X123.2676 Y86.6085 Z-0.5528 F1800
G01 X123.1487 Y86.6336 Z-0.5694 F1800
G01 X122.8004 Y86.7119 Z-0.6198 F1800
G01 X121.9614 Y86.9107 Z-0.7467 F1800
G01 X121.8629 Y87.0089 Z-0.7500 F1800
G01 X121.5469 Y87.3947 F1800
G01 X121.2543 Y87.8123 F1800
G01 X120.6345 Y88.8510 F1800
G01 X120.0964 Y89.7842 F1800
G01 X119.7447 Y90.4150 F1800
G01 X119.4175 Y91.0209 F1800
G01 X119.1840 Y91.4652 F1800
G01 X118.9109 Y92.0018 F1800
G01 X118.6504 Y92.5328 F1800
G01 X118.3989 Y93.0668 F1800
G01 X118.1568 Y93.6041 F1800
G01 X117.9249 Y94.1450 F1800
G01 X117.7655 Y94.5349 F1800
G01 X117.7039 Y94.6899 F1800
G01 X117.5537 Y95.0798 F1800
G01 X117.4944 Y95.2390 F1800
G01 X117.3539 Y95.6292 F1800
G01 X117.2971 Y95.7927 F1800
G01 X117.1666 Y96.1832 F1800
G01 X117.1128 Y96.3510 F1800
G01 X117.0228 Y96.6444 F1800
G01 X117.4623 Y97.0595 Z-0.6150 F1800
G01 X117.7711 Y97.3568 Z-0.5207 F1800
G01 X118.0681 Y97.6508 Z-0.4294 F1800
G01 X118.4065 Y97.9922 Z-0.3261 F1800
G01 X118.6699 Y98.2666 Z-0.2456 F1800
G01 X119.4780 Y99.1442 Z0.0000 F1800
G01 X118.7299 Y98.3321 Z-0.2271 F1800
G01 X118.5426 Y98.1331 Z-0.2846 F1800
G01 X118.4162 Y98.0022 Z-0.3232 F1800
G01 X118.0536 Y97.6360 Z-0.4339 F1800
G01 X117.7798 Y97.3652 Z-0.5180 F1800
G01 X117.6321 Y97.2225 Z-0.5632 F1800
G01 X117.1423 Y96.7589 Z-0.7130 F1800
G01 X116.8852 Y96.7304 Z-0.7432 F1800
G01 X116.6982 Y97.1038 Z-0.6763 F1800
G01 X116.5303 Y97.4630 Z-0.6140 F1800
G01 X116.3791 Y97.8088 Z-0.5560 F1800
G01 X116.2434 Y98.1437 Z-0.5015 F1800
G01 X116.1978 Y98.2609 Z-0.4829 F1800
G01 X116.1214 Y98.4680 Z-0.4504 F1800
G01 X116.0794 Y98.5858 Z-0.4322 F1800
G01 X116.0117 Y98.7821 Z-0.4024 F1800
G01 X115.9731 Y98.9001 Z-0.3848 F1800
G01 X115.9141 Y99.0880 Z-0.3570 F1800
G01 X115.8786 Y99.2056 Z-0.3400 F1800
G01 X115.8269 Y99.3846 Z-0.3145 F1800
G01 X115.7951 Y99.5026 Z-0.2978 F1800
G01 X115.7509 Y99.6744 Z-0.2739 F1800
G01 X115.7220 Y99.7916 Z-0.2580 F1800
G01 X115.6837 Y99.9555 Z-0.2360 F1800
G01 X115.6578 Y100.0720 Z-0.2207 F1800
G01 X115.6249 Y100.2284 Z-0.2005 F1800
G01 X115.6020 Y100.3442 Z-0.1859 F1800
G01 X115.5743 Y100.4936 Z-0.1673 F1800
G01 X115.5545 Y100.6086 Z-0.1532 F1800
G01 X115.5317 Y100.7515 Z-0.1361 F1800
G01 X115.5152 Y100.8658 Z-0.1227 F1800
G01 X115.4973 Y101.0026 Z-0.1068 F1800
G01 X115.4664 Y101.2842 Z-0.0745 F1800
G01 X115.4484 Y101.4399 Z-0.0553 F1800
G01 X115.4314 Y101.5749 Z-0.0369 F1800
G01 X115.4241 Y101.6313 Z-0.0284 F1800
G01 X115.4181 Y101.6787 Z-0.0205 F1800
G01 X115.4141 Y101.7162 Z-0.0134 F1800
G01 X115.4170 Y101.6903 Z-0.0184 F1800
G01 X115.4211 Y101.6557 Z-0.0244 F1800
G01 X115.4267 Y101.6118 Z-0.0314 F1800
G01 X115.4336 Y101.5582 Z-0.0393 F1800
G01 X115.4509 Y101.4200 Z-0.0579 F1800
G01 X115.4609 Y101.3346 Z-0.0685 F1800
G01 X115.4969 Y101.0064 Z-0.1064 F1800
G01 X115.5145 Y100.8702 Z-0.1221 F1800
G01 X115.5365 Y100.7192 Z-0.1399 F1800
G01 X115.5718 Y100.5081 Z-0.1655 F1800
G01 X115.5874 Y100.4188 Z-0.1764 F1800
G01 X115.6476 Y100.1180 Z-0.2146 F1800
G01 X115.6968 Y99.8966 Z-0.2438 F1800
G01 X115.7553 Y99.6564 Z-0.2764 F1800
G01 X115.7876 Y99.5305 Z-0.2939 F1800
G01 X115.8489 Y99.3046 Z-0.3257 F1800
G01 X115.9511 Y98.9679 Z-0.3746 F1800
G01 X116.0153 Y98.7712 Z-0.4041 F1800
G01 X116.0535 Y98.6585 Z-0.4210 F1800
G01 X116.1759 Y98.3181 Z-0.4738 F1800
G01 X116.2952 Y98.0123 Z-0.5226 F1800
G01 X116.4200 Y97.7109 Z-0.5721 F1800
G01 X116.5730 Y97.3677 Z-0.6302 F1800
G01 X116.6267 Y97.2527 Z-0.6502 F1800
G01 X116.7699 Y96.9568 Z-0.7022 F1800
G01 X116.8872 Y96.7263 Z-0.7439 F1800
G01 X116.8996 Y96.6704 Z-0.7500 F1800
G01 X116.8042 Y96.2325 F1800
G01 X116.7156 Y95.7920 F1800
G01 X116.6336 Y95.3488 F1800
G01 X116.5585 Y94.9032 F1800
G01 X116.4902 Y94.4554 F1800
G01 X116.4290 Y94.0054 F1800
G01 X116.3748 Y93.5535 F1800
G01 X116.3276 Y93.0999 F1800
G01 X116.2877 Y92.6446 F1800
G01 X116.2551 Y92.1879 F1800
G01 X116.2298 Y91.7299 F1800
G01 X116.2119 Y91.2707 F1800
G01 X116.2014 Y90.8106 F1800
G01 X116.1986 Y90.3496 F1800
G01 X116.2014 Y90.0428 F1800
G01 X116.2047 Y89.9567 F1800
G01 X116.4045 Y87.3650 F1800
G01 X116.4699 Y86.6779 F1800
G01 X116.5187 Y86.2321 F1800
G01 X116.5635 Y85.8647 F1800
G01 X116.6124 Y85.5046 F1800
G01 X116.6655 Y85.1531 F1800
G01 X116.7155 Y84.8540 F1800
G01 X116.7783 Y84.5161 F1800
G01 X116.8462 Y84.1904 F1800
G01 X116.9190 Y83.8785 F1800
G01 X116.9308 Y83.7641 Z-0.7456 F1800
G01 X116.8645 Y83.5470 Z-0.7158 F1800
G01 X116.8306 Y83.4267 Z-0.6992 F1800
G01 X116.7735 Y83.2117 Z-0.6703 F1800
G01 X116.7475 Y83.0986 Z-0.6553 F1800
G01 X116.7245 Y82.9926 Z-0.6415 F1800
G01 X116.7028 Y82.8871 Z-0.6280 F1800
G01 X116.6802 Y82.7838 Z-0.6146 F1800
G01 X116.5121 Y82.0597 Z-0.5185 F1800
G01 X116.4455 Y81.7529 Z-0.4792 F1800
G01 X116.4048 Y81.5513 Z-0.4541 F1800
G01 X116.3673 Y81.3518 Z-0.4298 F1800
G01 X116.3328 Y81.1541 Z-0.4064 F1800
G01 X116.2854 Y80.8581 Z-0.3720 F1800
G01 X116.2713 Y80.7646 Z-0.3613 F1800
G01 X116.2449 Y80.5731 Z-0.3398 F1800
G01 X116.2211 Y80.3840 Z-0.3189 F1800
G01 X116.2000 Y80.1973 Z-0.2985 F1800
G01 X116.1725 Y79.9171 Z-0.2684 F1800
G01 X116.1573 Y79.7368 Z-0.2492 F1800
G01 X116.1443 Y79.5593 Z-0.2303 F1800
G01 X116.1332 Y79.3848 Z-0.2118 F1800
G01 X116.1240 Y79.2133 Z-0.1934 F1800
G01 X116.0846 Y78.2908 Z-0.0937 F1800
G01 X116.0605 Y77.8730 Z-0.0479 F1800
G01 X116.0578 Y77.8086 Z-0.0404 F1800
G01 X116.0559 Y77.7477 Z-0.0330 F1800
G01 X116.0554 Y77.7190 Z-0.0295 F1800
G01 X116.0550 Y77.6658 Z-0.0227 F1800
G01 Y77.6415 Z-0.0195 F1800
G01 X116.0554 Y77.6189 Z-0.0165 F1800
G01 X116.0561 Y77.5983 Z-0.0136 F1800
G01 X116.0582 Y77.5635 Z-0.0086 F1800
G01 X116.0615 Y77.5377 Z-0.0045 F1800
G01 X116.0686 Y77.5150 Z0.0000 F1800
G01 X116.0560 Y77.6005 Z-0.0139 F1800
G01 X116.0561 Y77.7540 Z-0.0338 F1800
G01 X116.0620 Y77.9034 Z-0.0514 F1800
G01 X116.0876 Y78.3497 Z-0.1000 F1800
G01 X116.1278 Y79.2873 Z-0.2013 F1800
G01 X116.1372 Y79.4506 Z-0.2188 F1800
G01 X116.1483 Y79.6162 Z-0.2364 F1800
G01 X116.1612 Y79.7845 Z-0.2543 F1800
G01 X116.1761 Y79.9557 Z-0.2726 F1800
G01 X116.1931 Y80.1303 Z-0.2913 F1800
G01 X116.2125 Y80.3085 Z-0.3107 F1800
G01 X116.2344 Y80.4910 Z-0.3307 F1800
G01 X116.2593 Y80.6782 Z-0.3516 F1800
G01 X116.2805 Y80.8256 Z-0.3683 F1800
G01 X116.3207 Y81.0817 Z-0.3979 F1800
G01 X116.3640 Y81.3334 Z-0.4276 F1800
G01 X116.3957 Y81.5039 Z-0.4483 F1800
G01 X116.4300 Y81.6777 Z-0.4697 F1800
G01 X116.4865 Y81.9444 Z-0.5036 F1800
G01 X116.5706 Y82.3142 Z-0.5520 F1800
G01 X116.6751 Y82.7608 Z-0.6115 F1800
G01 X116.7035 Y82.8906 Z-0.6285 F1800
G01 X116.7384 Y83.0567 Z-0.6498 F1800
G01 X116.7986 Y83.3074 Z-0.6831 F1800
G01 X116.8553 Y83.5147 Z-0.7114 F1800
G01 X116.9141 Y83.7098 Z-0.7381 F1800
G01 X117.0155 Y83.8588 Z-0.7500 F1800
G01 X117.1813 Y83.9964 F1800
G01 X117.4089 Y84.1802 F1800
G01 X117.7152 Y84.4206 F1800
G01 X118.1077 Y84.7197 F1800
G01 X118.4291 Y84.9576 F1800
G01 X118.6760 Y85.1356 F1800
G01 X118.8950 Y85.2890 F1800
G01 X119.0153 Y85.3711 F1800
G01 X119.1664 Y85.4714 F1800
G01 X119.3215 Y85.5703 F1800
G01 X119.4860 Y85.6692 F1800
G01 X119.7279 Y85.8095 F1800
G01 X119.8616 Y85.8853 F1800
G01 X120.1046 Y86.0198 F1800
G01 X120.2375 Y86.0916 F1800
G01 X120.4815 Y86.2205 F1800
G01 X120.6133 Y86.2885 F1800
G01 X120.9887 Y86.4763 F1800
G01 X121.3635 Y86.6555 F1800
G01 X121.7372 Y86.8263 F1800
G01 X121.9016 Y86.8987 F1800
G01 X121.9983 Y86.9020 Z-0.7410 F1800
G01 X122.8514 Y86.7001 Z-0.6123 F1800
G01 X123.1006 Y86.6441 Z-0.5762 F1800
G01 X123.3067 Y86.6004 Z-0.5474 F1800
G01 X123.5424 Y86.5567 Z-0.5161 F1800
G01 X123.6421 Y86.5402 Z-0.5035 F1800
G01 X123.7409 Y86.5259 Z-0.4915 F1800
G01 X123.8391 Y86.5134 Z-0.4801 F1800
G01 X123.9783 Y86.4991 Z-0.4648 F1800
G01 X124.1051 Y86.4895 Z-0.4518 F1800
G01 X124.2305 Y86.4837 Z-0.4399 F1800
G01 X124.3757 Y86.4819 Z-0.4275 F1800
G01 X124.4968 Y86.4845 Z-0.4182 F1800
G01 X124.6168 Y86.4907 Z-0.4099 F1800
G01 X124.7530 Y86.5026 Z-0.4018 F1800
G01 X124.8691 Y86.5169 Z-0.3961 F1800
G01 X124.9838 Y86.5353 Z-0.3914 F1800
G01 X125.1123 Y86.5608 Z-0.3875 F1800
G01 X125.2234 Y86.5870 Z-0.3852 F1800
G01 X125.3332 Y86.6174 Z-0.3840 F1800
G01 X125.4550 Y86.6559 F1800
G01 X125.5616 Y86.6937 Z-0.3852 F1800
G01 X125.6670 Y86.7355 Z-0.3873 F1800
G01 X125.7829 Y86.7865 Z-0.3910 F1800
G01 X125.8852 Y86.8359 Z-0.3955 F1800
G01 X125.9863 Y86.8892 Z-0.4009 F1800
G01 X126.0969 Y86.9525 Z-0.4082 F1800
G01 X126.1950 Y87.0132 Z-0.4159 F1800
G01 X126.2922 Y87.0775 Z-0.4245 F1800
G01 X126.4171 Y87.0851 Z-0.4176 F1800
G01 X127.7024 Y86.6562 Z-0.2275 F1800
G01 X127.8807 Y86.6049 Z-0.2031 F1800
G01 X128.0049 Y86.5654 Z-0.1850 F1800
G01 X128.8214 Y86.2901 Z-0.0592 F1800
G01 X128.9510 Y86.2476 Z-0.0378 F1800
G01 X129.0011 Y86.2318 Z-0.0292 F1800
G01 X129.0422 Y86.2195 Z-0.0220 F1800
G01 X129.0745 Y86.2106 Z-0.0160 F1800
G01 X129.1158 Y86.2011 Z-0.0076 F1800
G01 X129.0927 Y86.2057 Z-0.0125 F1800
G01 X129.0500 Y86.2171 Z-0.0205 F1800
G01 X128.9952 Y86.2336 Z-0.0303 F1800
G01 X128.9298 Y86.2543 Z-0.0414 F1800
G01 X128.6865 Y86.3354 Z-0.0808 F1800
G01 X128.0528 Y86.5496 Z-0.1779 F1800
G01 X127.9222 Y86.5920 Z-0.1971 F1800
G01 X127.8795 Y86.6053 Z-0.2032 F1800
G01 X127.7940 Y86.6288 Z-0.2147 F1800
G01 X127.7176 Y86.6515 Z-0.2254 F1800
G01 X127.5121 Y86.7177 Z-0.2552 F1800
G01 X126.4276 Y87.0816 Z-0.4160 F1800
G01 X126.3398 Y87.1385 Z-0.4251 F1800
G01 X126.3361 Y87.2578 Z-0.4080 F1800
G01 X126.3293 Y87.3732 Z-0.3921 F1800
G01 X126.3194 Y87.4856 Z-0.3773 F1800
G01 X126.3068 Y87.5945 Z-0.3635 F1800
G01 X126.2916 Y87.6998 Z-0.3508 F1800
G01 X126.2744 Y87.8013 Z-0.3390 F1800
G01 X126.2558 Y87.8989 Z-0.3280 F1800
G01 X126.2364 Y87.9927 Z-0.3179 F1800
G01 X126.2166 Y88.0825 Z-0.3083 F1800
G01 X126.1774 Y88.2492 Z-0.2911 F1800
G01 X126.1406 Y88.3970 Z-0.2761 F1800
G01 X126.0809 Y88.6238 Z-0.2537 F1800
G01 X126.0553 Y88.7160 Z-0.2447 F1800
G01 X125.7511 Y89.7924 Z-0.1382 F1800
G01 X125.5786 Y90.4270 Z-0.0717 F1800
G01 X125.5337 Y90.5985 Z-0.0517 F1800
G01 X125.5096 Y90.6961 Z-0.0396 F1800
G01 X125.4996 Y90.7390 Z-0.0339 F1800
G01 X125.4913 Y90.7779 Z-0.0285 F1800
G01 X125.4848 Y90.8124 Z-0.0233 F1800
G01 X125.4801 Y90.8423 Z-0.0185 F1800
G01 X125.4851 Y90.9006 Z-0.0061 F1800
G01 Z-0.0122 F1800
G01 X125.4801 Y90.8423 Z-0.0370 F1800
G01 X125.4848 Y90.8124 Z-0.0467 F1800
G01 X125.4913 Y90.7779 Z-0.0569 F1800
G01 X125.4996 Y90.7390 Z-0.0678 F1800
G01 X125.5096 Y90.6961 Z-0.0791 F1800
G01 X125.5210 Y90.6492 Z-0.0910 F1800
G01 X125.5337 Y90.5985 Z-0.1035 F1800
G01 X125.5627 Y90.4873 Z-0.1296 F1800
G01 X125.6132 Y90.2990 Z-0.1716 F1800
G01 X125.7093 Y89.9455 Z-0.2456 F1800
G01 X126.0098 Y88.8742 Z-0.4582 F1800
G01 X126.0553 Y88.7160 Z-0.4894 F1800
G01 X126.1079 Y88.5230 Z-0.5273 F1800
G01 X126.1406 Y88.3970 Z-0.5523 F1800
G01 X126.1774 Y88.2492 Z-0.5821 F1800
G01 X126.2166 Y88.0825 Z-0.6166 F1800
G01 X126.2364 Y87.9927 Z-0.6357 F1800
G01 X126.2558 Y87.8989 Z-0.6561 F1800
G01 X126.2744 Y87.8013 Z-0.6779 F1800
G01 X126.2916 Y87.6998 Z-0.7015 F1800
G01 X126.3068 Y87.5945 Z-0.7270 F1800
G01 X126.3194 Y87.4856 Z-0.7545 F1800
G01 X126.3293 Y87.3732 Z-0.7842 F1800
G01 X126.3361 Y87.2578 Z-0.8160 F1800
G01 X126.3398 Y87.1385 Z-0.8502 F1800
G01 X126.4276 Y87.0816 Z-0.8321 F1800
G01 X127.6723 Y86.6657 Z-0.4637 F1800
G01 X127.7176 Y86.6515 Z-0.4507 F1800
G01 X127.7940 Y86.6288 Z-0.4294 F1800
G01 X127.8795 Y86.6053 Z-0.4065 F1800
G01 X127.9815 Y86.5730 Z-0.3769 F1800
G01 X128.3116 Y86.4629 Z-0.2779 F1800
G01 X128.7739 Y86.3059 Z-0.1338 F1800
G01 X128.9298 Y86.2543 Z-0.0828 F1800
G01 X128.9952 Y86.2336 Z-0.0605 F1800
G01 X129.0500 Y86.2171 Z-0.0411 F1800
G01 X129.0927 Y86.2057 Z-0.0249 F1800
G01 X129.1158 Y86.2011 Z-0.0153 F1800
G01 X129.0745 Y86.2106 Z-0.0320 F1800
G01 X129.0422 Y86.2195 Z-0.0439 F1800
G01 X129.0011 Y86.2318 Z-0.0585 F1800
G01 X128.9510 Y86.2476 Z-0.0757 F1800
G01 X128.8214 Y86.2901 Z-0.1185 F1800
G01 X128.4300 Y86.4227 Z-0.2416 F1800
G01 X128.0049 Y86.5654 Z-0.3701 F1800
G01 X127.8807 Y86.6049 Z-0.4061 F1800
G01 X127.7024 Y86.6562 Z-0.4551 F1800
G01 X127.1815 Y86.8279 Z-0.6077 F1800
G01 X126.4171 Y87.0851 Z-0.8352 F1800
G01 X126.2922 Y87.0775 Z-0.8490 F1800
G01 X126.1950 Y87.0132 Z-0.8318 F1800
G01 X126.0969 Y86.9525 Z-0.8165 F1800
G01 X125.9863 Y86.8892 Z-0.8019 F1800
G01 X125.8852 Y86.8359 Z-0.7909 F1800
G01 X125.7829 Y86.7865 Z-0.7821 F1800
G01 X125.6670 Y86.7355 Z-0.7747 F1800
G01 X125.5616 Y86.6937 Z-0.7704 F1800
G01 X125.4550 Y86.6559 Z-0.7681 F1800
G01 X125.3332 Y86.6174 F1800
G01 X125.2234 Y86.5870 Z-0.7704 F1800
G01 X125.1123 Y86.5608 Z-0.7749 F1800
G01 X124.9838 Y86.5353 Z-0.7828 F1800
G01 X124.8691 Y86.5169 Z-0.7921 F1800
G01 X124.7530 Y86.5026 Z-0.8036 F1800
G01 X124.6168 Y86.4907 Z-0.8198 F1800
G01 X124.4968 Y86.4845 Z-0.8364 F1800
G01 X124.3757 Y86.4819 Z-0.8549 F1800
G01 X124.2305 Y86.4837 Z-0.8798 F1800
G01 X124.1051 Y86.4895 Z-0.9037 F1800
G01 X123.9783 Y86.4991 Z-0.9296 F1800
G01 X123.8391 Y86.5134 Z-0.9601 F1800
G01 X123.7409 Y86.5259 Z-0.9831 F1800
G01 X123.6421 Y86.5402 Z-1.0070 F1800
G01 X123.5424 Y86.5567 Z-1.0321 F1800
G01 X123.3067 Y86.6004 Z-1.0947 F1800
G01 X123.1006 Y86.6441 Z-1.1523 F1800
G01 X122.8514 Y86.7001 Z-1.2245 F1800
G01 X121.9983 Y86.9020 Z-1.4820 F1800
G01 X121.9016 Y86.8987 Z-1.5000 F1800
G01 X121.6097 Y86.7688 F1800
G01 X121.2344 Y86.5947 F1800
G01 X120.8582 Y86.4120 F1800
G01 X120.6133 Y86.2885 F1800
G01 X120.4815 Y86.2205 F1800
G01 X120.2375 Y86.0916 F1800
G01 X120.1046 Y86.0198 F1800
G01 X119.8616 Y85.8853 F1800
G01 X119.7279 Y85.8095 F1800
G01 X119.4860 Y85.6692 F1800
G01 X119.3215 Y85.5703 F1800
G01 X119.1664 Y85.4714 F1800
G01 X119.0153 Y85.3711 F1800
G01 X118.8321 Y85.2454 F1800
G01 X118.5873 Y85.0722 F1800
G01 X118.2689 Y84.8399 F1800
G01 X117.8737 Y84.5426 F1800
G01 X117.5599 Y84.2995 F1800
G01 X117.2632 Y84.0632 F1800
G01 X117.1233 Y83.9488 F1800
G01 X117.0155 Y83.8588 F1800
G01 X116.9141 Y83.7098 Z-1.4763 F1800
G01 X116.8553 Y83.5147 Z-1.4227 F1800
G01 X116.7986 Y83.3074 Z-1.3662 F1800
G01 X116.7384 Y83.0567 Z-1.2996 F1800
G01 X116.6852 Y82.8061 Z-1.2350 F1800
G01 X116.6419 Y82.6155 Z-1.1845 F1800
G01 X116.5066 Y82.0350 Z-1.0306 F1800
G01 X116.4482 Y81.7658 Z-0.9616 F1800
G01 X116.4125 Y81.5904 Z-0.9178 F1800
G01 X116.3795 Y81.4183 Z-0.8757 F1800
G01 X116.3490 Y81.2491 Z-0.8351 F1800
G01 X116.3072 Y80.9979 Z-0.7763 F1800
G01 X116.2805 Y80.8256 Z-0.7366 F1800
G01 X116.2593 Y80.6782 Z-0.7032 F1800
G01 X116.2344 Y80.4910 Z-0.6614 F1800
G01 X116.2125 Y80.3085 Z-0.6213 F1800
G01 X116.1931 Y80.1303 Z-0.5826 F1800
G01 X116.1761 Y79.9557 Z-0.5451 F1800
G01 X116.1612 Y79.7845 Z-0.5086 F1800
G01 X116.1483 Y79.6162 Z-0.4728 F1800
G01 X116.1372 Y79.4506 Z-0.4375 F1800
G01 X116.1200 Y79.1261 Z-0.3681 F1800
G01 X116.0876 Y78.3497 Z-0.2000 F1800
G01 X116.0620 Y77.9034 Z-0.1027 F1800
G01 X116.0561 Y77.7540 Z-0.0675 F1800
G01 X116.0560 Y77.6005 Z-0.0278 F1800
G01 X116.0686 Y77.5150 Z0.0000 F1800
G01 X116.0615 Y77.5377 Z-0.0090 F1800
G01 X116.0582 Y77.5635 Z-0.0171 F1800
G01 X116.0561 Y77.5983 Z-0.0272 F1800
G01 X116.0554 Y77.6189 Z-0.0329 F1800
G01 X116.0550 Y77.6415 Z-0.0390 F1800
G01 Y77.6658 Z-0.0454 F1800
G01 X116.0554 Y77.7190 Z-0.0589 F1800
G01 X116.0559 Y77.7477 Z-0.0660 F1800
G01 X116.0578 Y77.8086 Z-0.0807 F1800
G01 X116.0605 Y77.8730 Z-0.0958 F1800
G01 X116.0641 Y77.9397 Z-0.1109 F1800
G01 X116.0846 Y78.2908 Z-0.1873 F1800
G01 X116.1240 Y79.2133 Z-0.3868 F1800
G01 X116.1332 Y79.3848 Z-0.4235 F1800
G01 X116.1443 Y79.5593 Z-0.4607 F1800
G01 X116.1573 Y79.7368 Z-0.4984 F1800
G01 X116.1725 Y79.9171 Z-0.5369 F1800
G01 X116.2000 Y80.1973 Z-0.5971 F1800
G01 X116.2211 Y80.3840 Z-0.6378 F1800
G01 X116.2449 Y80.5731 Z-0.6796 F1800
G01 X116.2713 Y80.7646 Z-0.7226 F1800
G01 X116.3161 Y81.0534 Z-0.7891 F1800
G01 X116.3493 Y81.2507 Z-0.8355 F1800
G01 X116.3854 Y81.4499 Z-0.8833 F1800
G01 X116.4246 Y81.6513 Z-0.9329 F1800
G01 X116.4670 Y81.8546 Z-0.9841 F1800
G01 X116.5351 Y82.1611 Z-1.0635 F1800
G01 X116.6802 Y82.7838 Z-1.2291 F1800
G01 X116.7028 Y82.8871 Z-1.2561 F1800
G01 X116.7245 Y82.9926 Z-1.2830 F1800
G01 X116.7475 Y83.0986 Z-1.3106 F1800
G01 X116.7735 Y83.2117 Z-1.3406 F1800
G01 X116.8306 Y83.4267 Z-1.3984 F1800
G01 X116.8645 Y83.5470 Z-1.4316 F1800
G01 X116.9308 Y83.7641 Z-1.4913 F1800
G01 X116.9190 Y83.8785 Z-1.5000 F1800
G01 X116.8462 Y84.1904 F1800
G01 X116.7783 Y84.5161 F1800
G01 X116.7155 Y84.8540 F1800
G01 X116.6576 Y85.2027 F1800
G01 X116.6044 Y85.5607 F1800
G01 X116.5556 Y85.9268 F1800
G01 X116.5109 Y86.2996 F1800
G01 X116.4598 Y86.7798 F1800
G01 X116.3973 Y87.4463 F1800
G01 X116.2047 Y89.9567 F1800
G01 X116.2014 Y90.0428 F1800
G01 X116.1985 Y90.4023 F1800
G01 X116.2023 Y90.8633 F1800
G01 X116.2136 Y91.3235 F1800
G01 X116.2323 Y91.7827 F1800
G01 X116.2585 Y92.2407 F1800
G01 X116.2920 Y92.6973 F1800
G01 X116.3327 Y93.1525 F1800
G01 X116.3807 Y93.6060 F1800
G01 X116.4357 Y94.0577 F1800
G01 X116.4978 Y94.5074 F1800
G01 X116.5668 Y94.9550 F1800
G01 X116.6428 Y95.4003 F1800
G01 X116.7255 Y95.8431 F1800
G01 X116.8149 Y96.2833 F1800
G01 X116.8996 Y96.6704 F1800
G01 X116.8872 Y96.7263 Z-1.4878 F1800
G01 X116.7699 Y96.9568 Z-1.4043 F1800
G01 X116.6267 Y97.2527 Z-1.3005 F1800
G01 X116.5730 Y97.3677 Z-1.2604 F1800
G01 X116.4200 Y97.7109 Z-1.1443 F1800
G01 X116.2952 Y98.0123 Z-1.0451 F1800
G01 X116.1759 Y98.3181 Z-0.9476 F1800
G01 X116.0535 Y98.6585 Z-0.8420 F1800
G01 X115.9878 Y98.8549 Z-0.7831 F1800
G01 X115.9511 Y98.9679 Z-0.7492 F1800
G01 X115.8489 Y99.3046 Z-0.6515 F1800
G01 X115.7876 Y99.5305 Z-0.5877 F1800
G01 X115.7553 Y99.6564 Z-0.5528 F1800
G01 X115.6968 Y99.8966 Z-0.4875 F1800
G01 X115.6476 Y100.1180 Z-0.4293 F1800
G01 X115.5874 Y100.4188 Z-0.3528 F1800
G01 X115.5564 Y100.5971 Z-0.3093 F1800
G01 X115.5365 Y100.7192 Z-0.2798 F1800
G01 X115.5145 Y100.8702 Z-0.2443 F1800
G01 X115.4969 Y101.0064 Z-0.2128 F1800
G01 X115.4714 Y101.2377 Z-0.1600 F1800
G01 X115.4609 Y101.3346 Z-0.1370 F1800
G01 X115.4509 Y101.4200 Z-0.1157 F1800
G01 X115.4417 Y101.4944 Z-0.0962 F1800
G01 X115.4336 Y101.5582 Z-0.0786 F1800
G01 X115.4267 Y101.6118 Z-0.0628 F1800
G01 X115.4211 Y101.6557 Z-0.0488 F1800
G01 X115.4170 Y101.6903 Z-0.0368 F1800
G01 X115.4141 Y101.7162 Z-0.0268 F1800
G01 X115.4181 Y101.6787 Z-0.0410 F1800
G01 X115.4241 Y101.6313 Z-0.0567 F1800
G01 X115.4314 Y101.5749 Z-0.0738 F1800
G01 X115.4396 Y101.5107 Z-0.0918 F1800
G01 X115.4484 Y101.4399 Z-0.1106 F1800
G01 X115.4575 Y101.3639 Z-0.1298 F1800
G01 X115.4664 Y101.2842 Z-0.1491 F1800
G01 X115.4973 Y101.0026 Z-0.2137 F1800
G01 X115.5152 Y100.8658 Z-0.2453 F1800
G01 X115.5317 Y100.7515 Z-0.2722 F1800
G01 X115.5545 Y100.6086 Z-0.3065 F1800
G01 X115.5743 Y100.4936 Z-0.3345 F1800
G01 X115.6020 Y100.3442 Z-0.3717 F1800
G01 X115.6249 Y100.2284 Z-0.4010 F1800
G01 X115.6578 Y100.0720 Z-0.4414 F1800
G01 X115.6837 Y99.9555 Z-0.4720 F1800
G01 X115.7220 Y99.7916 Z-0.5159 F1800
G01 X115.7509 Y99.6744 Z-0.5479 F1800
G01 X115.7951 Y99.5026 Z-0.5956 F1800
G01 X115.8269 Y99.3846 Z-0.6290 F1800
G01 X115.8786 Y99.2056 Z-0.6800 F1800
G01 X115.9141 Y99.0880 Z-0.7141 F1800
G01 X115.9731 Y98.9001 Z-0.7695 F1800
G01 X116.0117 Y98.7821 Z-0.8049 F1800
G01 X116.0794 Y98.5858 Z-0.8644 F1800
G01 X116.1214 Y98.4680 Z-0.9008 F1800
G01 X116.1978 Y98.2609 Z-0.9659 F1800
G01 X116.2434 Y98.1437 Z-1.0031 F1800
G01 X116.3791 Y97.8088 Z-1.1121 F1800
G01 X116.5303 Y97.4630 Z-1.2281 F1800
G01 X116.6982 Y97.1038 Z-1.3526 F1800
G01 X116.8852 Y96.7304 Z-1.4863 F1800
G01 X117.1423 Y96.7589 Z-1.4260 F1800
G01 X117.6321 Y97.2225 Z-1.1264 F1800
G01 X117.7798 Y97.3652 Z-1.0360 F1800
G01 X118.0536 Y97.6360 Z-0.8678 F1800
G01 X118.4162 Y98.0022 Z-0.6464 F1800
G01 X118.5426 Y98.1331 Z-0.5692 F1800
G01 X118.7299 Y98.3321 Z-0.4542 F1800
G01 X119.4780 Y99.1442 Z0.0000 F1800
G01 X118.6699 Y98.2666 Z-0.4913 F1800
G01 X118.4065 Y97.9922 Z-0.6523 F1800
G01 X118.0681 Y97.6508 Z-0.8588 F1800
G01 X117.7711 Y97.3568 Z-1.0414 F1800
G01 X117.4623 Y97.0595 Z-1.2300 F1800
G01 X117.0228 Y96.6444 Z-1.5000 F1800
G01 X117.1128 Y96.3510 F1800
G01 X117.1666 Y96.1832 F1800
G01 X117.2971 Y95.7927 F1800
G01 X117.3539 Y95.6292 F1800
G01 X117.4944 Y95.2390 F1800
G01 X117.5537 Y95.0798 F1800
G01 X117.7039 Y94.6899 F1800
G01 X117.7655 Y94.5349 F1800
G01 X117.9884 Y93.9941 F1800
G01 X118.2219 Y93.4570 F1800
G01 X118.4653 Y92.9234 F1800
G01 X118.7180 Y92.3930 F1800
G01 X118.9753 Y91.8735 F1800
G01 X119.2447 Y91.3483 F1800
G01 X119.5663 Y90.7432 F1800
G01 X119.8517 Y90.2217 F1800
G01 X120.1907 Y89.6190 F1800
G01 X120.6952 Y88.7478 F1800
G01 X121.2543 Y87.8123 F1800
G01 X121.5469 Y87.3947 F1800
G01 X121.8629 Y87.0089 F1800
G01 X121.9614 Y86.9107 Z-1.4934 F1800
G01 X122.8004 Y86.7119 Z-1.2396 F1800
G01 X123.1487 Y86.6336 Z-1.1387 F1800
G01 X123.2676 Y86.6085 Z-1.1055 F1800
G01 X123.3972 Y86.5829 Z-1.0702 F1800
G01 X123.5484 Y86.5556 Z-1.0306 F1800
G01 X123.7426 Y86.5257 Z-0.9827 F1800
G01 X124.0547 Y86.4929 Z-0.9138 F1800
G01 X124.1065 Y86.4894 Z-0.9034 F1800
G01 X124.1575 Y86.4866 Z-0.8935 F1800
G01 X124.2077 Y86.4845 Z-0.8840 F1800
G01 X124.2571 Y86.4831 Z-0.8751 F1800
G01 X124.3058 Y86.4823 Z-0.8665 F1800
G01 X124.3537 Y86.4819 Z-0.8585 F1800
G01 X124.4009 Y86.4821 Z-0.8509 F1800
G01 X124.4476 Y86.4829 Z-0.8437 F1800
G01 X124.4936 Y86.4843 Z-0.8369 F1800
G01 X124.5391 Y86.4863 Z-0.8304 F1800
G01 X124.5840 Y86.4889 Z-0.8243 F1800
G01 X124.6285 Y86.4920 Z-0.8185 F1800
G01 X125.2969 Y86.6073 Z-0.7688 F1800
G01 X125.3484 Y86.6222 Z-0.7681 F1800
G01 X125.3997 Y86.6380 Z-0.7678 F1800
G01 X125.4507 Y86.6545 Z-0.7681 F1800
G01 X125.5014 Y86.6719 Z-0.7688 F1800
G01 X125.5520 Y86.6902 Z-0.7701 F1800
G01 X125.6024 Y86.7094 Z-0.7718 F1800
G01 X125.6652 Y86.7348 Z-0.7746 F1800
G01 X125.7277 Y86.7617 Z-0.7782 F1800
G01 X125.7904 Y86.7899 Z-0.7826 F1800
G01 X125.8529 Y86.8198 Z-0.7879 F1800
G01 X125.9155 Y86.8513 Z-0.7940 F1800
G01 X125.9781 Y86.8847 Z-0.8009 F1800
G01 X126.0409 Y86.9199 Z-0.8087 F1800
G01 X126.1040 Y86.9568 Z-0.8175 F1800
G01 X126.1717 Y86.9984 Z-0.8280 F1800
G01 X126.3329 Y87.3175 Z-0.7994 F1800
G01 Z-1.1992 F1800
G01 X126.1717 Y86.9984 Z-1.2420 F1800
G01 X126.1040 Y86.9568 Z-1.2263 F1800
G01 X126.0409 Y86.9199 Z-1.2130 F1800
G01 X125.9781 Y86.8847 Z-1.2014 F1800
G01 X125.9155 Y86.8513 Z-1.1910 F1800
G01 X125.8529 Y86.8198 Z-1.1819 F1800
G01 X125.7904 Y86.7899 Z-1.1740 F1800
G01 X125.7277 Y86.7617 Z-1.1672 F1800
G01 X125.6652 Y86.7348 Z-1.1619 F1800
G01 X125.6024 Y86.7094 Z-1.1577 F1800
G01 X125.5520 Y86.6902 Z-1.1551 F1800
G01 X125.5014 Y86.6719 Z-1.1533 F1800
G01 X125.4507 Y86.6545 Z-1.1521 F1800
G01 X125.3997 Y86.6380 Z-1.1517 F1800
G01 X125.3484 Y86.6222 Z-1.1521 F1800
G01 X125.2969 Y86.6073 Z-1.1533 F1800
G01 X124.6285 Y86.4920 Z-1.2278 F1800
G01 X124.5840 Y86.4889 Z-1.2365 F1800
G01 X124.5391 Y86.4863 Z-1.2456 F1800
G01 X124.4936 Y86.4843 Z-1.2553 F1800
G01 X124.4476 Y86.4829 Z-1.2656 F1800
G01 X124.4009 Y86.4821 Z-1.2764 F1800
G01 X124.3537 Y86.4819 Z-1.2878 F1800
G01 X124.3058 Y86.4823 Z-1.2998 F1800
G01 X124.2571 Y86.4831 Z-1.3126 F1800
G01 X124.2077 Y86.4845 Z-1.3261 F1800
G01 X124.1575 Y86.4866 Z-1.3402 F1800
G01 X124.1065 Y86.4894 Z-1.3551 F1800
G01 X124.0547 Y86.4929 Z-1.3707 F1800
G01 X123.7426 Y86.5257 Z-1.4741 F1800
G01 X123.5484 Y86.5556 Z-1.5459 F1800
G01 X123.3972 Y86.5829 Z-1.6053 F1800
G01 X123.2676 Y86.6085 Z-1.6583 F1800
G01 X123.1487 Y86.6336 Z-1.7081 F1800
G01 X122.9184 Y86.6849 Z-1.8074 F1800
G01 X122.5501 Y86.7710 Z-1.9709 F1800
G01 X121.9614 Y86.9107 Z-2.2401 F1800
G01 X121.8629 Y87.0089 Z-2.2500 F1800
G01 X121.5469 Y87.3947 F1800
G01 X121.2543 Y87.8123 F1800
G01 X120.6345 Y88.8510 F1800
G01 X120.0964 Y89.7842 F1800
G01 X119.7447 Y90.4150 F1800
G01 X119.4175 Y91.0209 F1800
G01 X119.1840 Y91.4652 F1800
G01 X118.9109 Y92.0018 F1800
G01 X118.6504 Y92.5328 F1800
G01 X118.3989 Y93.0668 F1800
G01 X118.1568 Y93.6041 F1800
G01 X117.9249 Y94.1450 F1800
G01 X117.7655 Y94.5349 F1800
G01 X117.7039 Y94.6899 F1800
G01 X117.5537 Y95.0798 F1800
G01 X117.4944 Y95.2390 F1800
G01 X117.3539 Y95.6292 F1800
G01 X117.2971 Y95.7927 F1800
G01 X117.1666 Y96.1832 F1800
G01 X117.1128 Y96.3510 F1800
G01 X117.0228 Y96.6444 F1800
G01 X117.4623 Y97.0595 Z-1.8451 F1800
G01 X117.7711 Y97.3568 Z-1.5621 F1800
G01 X118.0681 Y97.6508 Z-1.2882 F1800
G01 X118.4065 Y97.9922 Z-0.9784 F1800
G01 X118.6699 Y98.2666 Z-0.7369 F1800
G01 X119.4780 Y99.1442 Z0.0000 F1800
G01 X118.7299 Y98.3321 Z-0.6813 F1800
G01 X118.5426 Y98.1331 Z-0.8538 F1800
G01 X118.4162 Y98.0022 Z-0.9696 F1800
G01 X118.0536 Y97.6360 Z-1.3017 F1800
G01 X117.7798 Y97.3652 Z-1.5541 F1800
G01 X117.3032 Y96.9112 Z-1.9902 F1800
G01 X117.1423 Y96.7589 Z-2.1391 F1800
G01 X116.8852 Y96.7304 Z-2.2295 F1800
G01 X116.6982 Y97.1038 Z-2.0288 F1800
G01 X116.5303 Y97.4630 Z-1.8421 F1800
G01 X116.3791 Y97.8088 Z-1.6681 F1800
G01 X116.2434 Y98.1437 Z-1.5046 F1800
G01 X116.1978 Y98.2609 Z-1.4488 F1800
G01 X116.1214 Y98.4680 Z-1.3512 F1800
G01 X116.0794 Y98.5858 Z-1.2966 F1800
G01 X116.0117 Y98.7821 Z-1.2073 F1800
G01 X115.9731 Y98.9001 Z-1.1543 F1800
G01 X115.9141 Y99.0880 Z-1.0711 F1800
G01 X115.8786 Y99.2056 Z-1.0200 F1800
G01 X115.8269 Y99.3846 Z-0.9434 F1800
G01 X115.7951 Y99.5026 Z-0.8934 F1800
G01 X115.7509 Y99.6744 Z-0.8218 F1800
G01 X115.7220 Y99.7916 Z-0.7739 F1800
G01 X115.6837 Y99.9555 Z-0.7081 F1800
G01 X115.6578 Y100.0720 Z-0.6621 F1800
G01 X115.6249 Y100.2284 Z-0.6015 F1800
G01 X115.6020 Y100.3442 Z-0.5576 F1800
G01 X115.5743 Y100.4936 Z-0.5018 F1800
G01 X115.5545 Y100.6086 Z-0.4597 F1800
G01 X115.5317 Y100.7515 Z-0.4083 F1800
G01 X115.5152 Y100.8658 Z-0.3680 F1800
G01 X115.4973 Y101.0026 Z-0.3205 F1800
G01 X115.4750 Y101.2022 Z-0.2522 F1800
G01 X115.4664 Y101.2842 Z-0.2236 F1800
G01 X115.4575 Y101.3639 Z-0.1947 F1800
G01 X115.4484 Y101.4399 Z-0.1659 F1800
G01 X115.4396 Y101.5107 Z-0.1377 F1800
G01 X115.4314 Y101.5749 Z-0.1106 F1800
G01 X115.4241 Y101.6313 Z-0.0851 F1800
G01 X115.4181 Y101.6787 Z-0.0615 F1800
G01 X115.4141 Y101.7162 Z-0.0402 F1800
G01 X115.4170 Y101.6903 Z-0.0553 F1800
G01 X115.4211 Y101.6557 Z-0.0732 F1800
G01 X115.4267 Y101.6118 Z-0.0941 F1800
G01 X115.4336 Y101.5582 Z-0.1179 F1800
G01 X115.4417 Y101.4944 Z-0.1443 F1800
G01 X115.4509 Y101.4200 Z-0.1736 F1800
G01 X115.4609 Y101.3346 Z-0.2055 F1800
G01 X115.4714 Y101.2377 Z-0.2399 F1800
G01 X115.4969 Y101.0064 Z-0.3192 F1800
G01 X115.5145 Y100.8702 Z-0.3664 F1800
G01 X115.5365 Y100.7192 Z-0.4197 F1800
G01 X115.5718 Y100.5081 Z-0.4965 F1800
G01 X115.5874 Y100.4188 Z-0.5292 F1800
G01 X115.6476 Y100.1180 Z-0.6439 F1800
G01 X115.6968 Y99.8966 Z-0.7313 F1800
G01 X115.7553 Y99.6564 Z-0.8292 F1800
G01 X115.7876 Y99.5305 Z-0.8816 F1800
G01 X115.8489 Y99.3046 Z-0.9772 F1800
G01 X115.9511 Y98.9679 Z-1.1237 F1800
G01 X116.0153 Y98.7712 Z-1.2122 F1800
G01 X116.0535 Y98.6585 Z-1.2630 F1800
G01 X116.1759 Y98.3181 Z-1.4214 F1800
G01 X116.2952 Y98.0123 Z-1.5677 F1800
G01 X116.4200 Y97.7109 Z-1.7164 F1800
G01 X116.5730 Y97.3677 Z-1.8906 F1800
G01 X116.6585 Y97.1860 Z-1.9858 F1800
G01 X116.7699 Y96.9568 Z-2.1065 F1800
G01 X116.8872 Y96.7263 Z-2.2317 F1800
G01 X116.8996 Y96.6704 Z-2.2500 F1800
G01 X116.8042 Y96.2325 F1800
G01 X116.7156 Y95.7920 F1800
G01 X116.6336 Y95.3488 F1800
G01 X116.5585 Y94.9032 F1800
G01 X116.4902 Y94.4554 F1800
G01 X116.4290 Y94.0054 F1800
G01 X116.3748 Y93.5535 F1800
G01 X116.3276 Y93.0999 F1800
G01 X116.2877 Y92.6446 F1800
G01 X116.2551 Y92.1879 F1800
G01 X116.2298 Y91.7299 F1800
G01 X116.2119 Y91.2707 F1800
G01 X116.2014 Y90.8106 F1800
G01 X116.1986 Y90.3496 F1800
G01 X116.2014 Y90.0428 F1800
G01 X116.2047 Y89.9567 F1800
G01 X116.4045 Y87.3650 F1800
G01 X116.4699 Y86.6779 F1800
G01 X116.5187 Y86.2321 F1800
G01 X116.5635 Y85.8647 F1800
G01 X116.6124 Y85.5046 F1800
G01 X116.6655 Y85.1531 F1800
G01 X116.7155 Y84.8540 F1800
G01 X116.7783 Y84.5161 F1800
G01 X116.8462 Y84.1904 F1800
G01 X116.9190 Y83.8785 F1800
G01 X116.9308 Y83.7641 Z-2.2369 F1800
G01 X116.8645 Y83.5470 Z-2.1474 F1800
G01 X116.8306 Y83.4267 Z-2.0976 F1800
G01 X116.7735 Y83.2117 Z-2.0109 F1800
G01 X116.7475 Y83.0986 Z-1.9659 F1800
G01 X116.7245 Y82.9926 Z-1.9244 F1800
G01 X116.7028 Y82.8871 Z-1.8841 F1800
G01 X116.6802 Y82.7838 Z-1.8437 F1800
G01 X116.5121 Y82.0597 Z-1.5555 F1800
G01 X116.4670 Y81.8546 Z-1.4762 F1800
G01 X116.4246 Y81.6513 Z-1.3993 F1800
G01 X116.3854 Y81.4499 Z-1.3250 F1800
G01 X116.3493 Y81.2507 Z-1.2533 F1800
G01 X116.3161 Y81.0534 Z-1.1837 F1800
G01 X116.2713 Y80.7646 Z-1.0839 F1800
G01 X116.2449 Y80.5731 Z-1.0194 F1800
G01 X116.2211 Y80.3840 Z-0.9567 F1800
G01 X116.2000 Y80.1973 Z-0.8956 F1800
G01 X116.1725 Y79.9171 Z-0.8053 F1800
G01 X116.1573 Y79.7368 Z-0.7476 F1800
G01 X116.1443 Y79.5593 Z-0.6910 F1800
G01 X116.1332 Y79.3848 Z-0.6353 F1800
G01 X116.1240 Y79.2133 Z-0.5802 F1800
G01 X116.0846 Y78.2908 Z-0.2810 F1800
G01 X116.0641 Y77.9397 Z-0.1663 F1800
G01 X116.0605 Y77.8730 Z-0.1436 F1800
G01 X116.0578 Y77.8086 Z-0.1211 F1800
G01 X116.0559 Y77.7477 Z-0.0990 F1800
G01 X116.0554 Y77.7190 Z-0.0884 F1800
G01 X116.0551 Y77.6917 Z-0.0781 F1800
G01 X116.0550 Y77.6658 Z-0.0681 F1800
G01 Y77.6415 Z-0.0585 F1800
G01 X116.0554 Y77.6189 Z-0.0494 F1800
G01 X116.0561 Y77.5983 Z-0.0408 F1800
G01 X116.0582 Y77.5635 Z-0.0257 F1800
G01 X116.0615 Y77.5377 Z-0.0135 F1800
G01 X116.0686 Y77.5150 Z0.0000 F1800
G01 X116.0560 Y77.6005 Z-0.0417 F1800
G01 X116.0561 Y77.7540 Z-0.1013 F1800
G01 X116.0620 Y77.9034 Z-0.1541 F1800
G01 X116.0876 Y78.3497 Z-0.3001 F1800
G01 X116.1278 Y79.2873 Z-0.6040 F1800
G01 X116.1483 Y79.6162 Z-0.7092 F1800
G01 X116.1612 Y79.7845 Z-0.7629 F1800
G01 X116.1761 Y79.9557 Z-0.8177 F1800
G01 X116.1931 Y80.1303 Z-0.8740 F1800
G01 X116.2125 Y80.3085 Z-0.9320 F1800
G01 X116.2344 Y80.4910 Z-0.9921 F1800
G01 X116.2593 Y80.6782 Z-1.0548 F1800
G01 X116.2805 Y80.8256 Z-1.1049 F1800
G01 X116.3207 Y81.0817 Z-1.1936 F1800
G01 X116.3490 Y81.2491 Z-1.2527 F1800
G01 X116.3795 Y81.4183 Z-1.3135 F1800
G01 X116.4125 Y81.5904 Z-1.3767 F1800
G01 X116.4482 Y81.7658 Z-1.4424 F1800
G01 X116.5066 Y82.0350 Z-1.5459 F1800
G01 X116.5933 Y82.4107 Z-1.6945 F1800
G01 X116.6751 Y82.7608 Z-1.8346 F1800
G01 X116.7035 Y82.8906 Z-1.8855 F1800
G01 X116.7384 Y83.0567 Z-1.9495 F1800
G01 X116.7986 Y83.3074 Z-2.0493 F1800
G01 X116.8553 Y83.5147 Z-2.1341 F1800
G01 X116.9141 Y83.7098 Z-2.2144 F1800
G01 X117.0155 Y83.8588 Z-2.2500 F1800
G01 X117.1813 Y83.9964 F1800
G01 X117.4089 Y84.1802 F1800
G01 X117.7152 Y84.4206 F1800
G01 X118.1077 Y84.7197 F1800
G01 X118.4291 Y84.9576 F1800
G01 X118.6760 Y85.1356 F1800
G01 X118.8950 Y85.2890 F1800
G01 X119.0153 Y85.3711 F1800
G01 X119.1664 Y85.4714 F1800
G01 X119.3215 Y85.5703 F1800
G01 X119.4860 Y85.6692 F1800
G01 X119.7279 Y85.8095 F1800
G01 X119.8616 Y85.8853 F1800
G01 X120.1046 Y86.0198 F1800
G01 X120.2375 Y86.0916 F1800
G01 X120.4815 Y86.2205 F1800
G01 X120.6133 Y86.2885 F1800
G01 X120.9887 Y86.4763 F1800
G01 X121.3635 Y86.6555 F1800
G01 X121.7372 Y86.8263 F1800
G01 X121.9016 Y86.8987 F1800
G01 X121.9983 Y86.9020 Z-2.2231 F1800
G01 X122.6400 Y86.7496 Z-1.9306 F1800
G01 X122.8514 Y86.7001 Z-1.8368 F1800
G01 X123.1006 Y86.6441 Z-1.7285 F1800
G01 X123.3067 Y86.6004 Z-1.6421 F1800
G01 X123.5424 Y86.5567 Z-1.5482 F1800
G01 X123.6421 Y86.5402 Z-1.5105 F1800
G01 X123.7409 Y86.5259 Z-1.4746 F1800
G01 X123.8391 Y86.5134 Z-1.4402 F1800
G01 X123.9783 Y86.4991 Z-1.3944 F1800
G01 X124.1051 Y86.4895 Z-1.3555 F1800
G01 X124.2305 Y86.4837 Z-1.3198 F1800
G01 X124.3757 Y86.4819 Z-1.2824 F1800
G01 X124.4968 Y86.4845 Z-1.2546 F1800
G01 X124.6168 Y86.4907 Z-1.2298 F1800
G01 X124.7530 Y86.5026 Z-1.2054 F1800
G01 X124.8691 Y86.5169 Z-1.1882 F1800
G01 X124.9838 Y86.5353 Z-1.1742 F1800
G01 X125.1123 Y86.5608 Z-1.1624 F1800
G01 X125.2234 Y86.5870 Z-1.1557 F1800
G01 X125.3332 Y86.6174 Z-1.1521 F1800
G01 X125.4550 Y86.6559 F1800
G01 X125.5616 Y86.6937 Z-1.1556 F1800
G01 X125.6670 Y86.7355 Z-1.1620 F1800
G01 X125.7829 Y86.7865 Z-1.1731 F1800
G01 X125.8852 Y86.8359 Z-1.1864 F1800
G01 X125.9863 Y86.8892 Z-1.2028 F1800
G01 X126.0969 Y86.9525 Z-1.2247 F1800
G01 X126.1950 Y87.0132 Z-1.2477 F1800
G01 X126.2922 Y87.0775 Z-1.2734 F1800
G01 X126.4171 Y87.0851 Z-1.2529 F1800
G01 X127.5068 Y86.7195 Z-0.7679 F1800
G01 X127.7024 Y86.6562 Z-0.6826 F1800
G01 X127.8807 Y86.6049 Z-0.6092 F1800
G01 X128.0049 Y86.5654 Z-0.5551 F1800
G01 X128.3016 Y86.4663 Z-0.4214 F1800
G01 X128.6491 Y86.3482 Z-0.2602 F1800
G01 X128.8214 Y86.2901 Z-0.1777 F1800
G01 X128.8913 Y86.2670 Z-0.1434 F1800
G01 X128.9510 Y86.2476 Z-0.1135 F1800
G01 X129.0011 Y86.2318 Z-0.0877 F1800
G01 X129.0422 Y86.2195 Z-0.0659 F1800
G01 X129.0745 Y86.2106 Z-0.0481 F1800
G01 X129.1158 Y86.2011 Z-0.0229 F1800
G01 X129.0927 Y86.2057 Z-0.0374 F1800
G01 X129.0500 Y86.2171 Z-0.0616 F1800
G01 X128.9952 Y86.2336 Z-0.0908 F1800
G01 X128.9298 Y86.2543 Z-0.1242 F1800
G01 X128.8555 Y86.2787 Z-0.1610 F1800
G01 X128.6865 Y86.3354 Z-0.2425 F1800
G01 X128.3116 Y86.4629 Z-0.4169 F1800
G01 X128.0528 Y86.5496 Z-0.5338 F1800
G01 X127.9222 Y86.5920 Z-0.5913 F1800
G01 X127.8795 Y86.6053 Z-0.6097 F1800
G01 X127.7940 Y86.6288 Z-0.6441 F1800
G01 X127.7176 Y86.6515 Z-0.6761 F1800
G01 X127.5708 Y86.6985 Z-0.7398 F1800
G01 X126.4276 Y87.0816 Z-1.2481 F1800
G01 X126.3398 Y87.1385 Z-1.2753 F1800
G01 X126.3361 Y87.2578 Z-1.2240 F1800
G01 X126.3293 Y87.3732 Z-1.1763 F1800
G01 X126.3194 Y87.4856 Z-1.1318 F1800
G01 X126.3068 Y87.5945 Z-1.0905 F1800
G01 X126.2916 Y87.6998 Z-1.0523 F1800
G01 X126.2744 Y87.8013 Z-1.0169 F1800
G01 X126.2558 Y87.8989 Z-0.9841 F1800
G01 X126.2364 Y87.9927 Z-0.9536 F1800
G01 X126.2166 Y88.0825 Z-0.9249 F1800
G01 X126.1774 Y88.2492 Z-0.8732 F1800
G01 X126.1406 Y88.3970 Z-0.8284 F1800
G01 X126.0809 Y88.6238 Z-0.7611 F1800
G01 X126.0553 Y88.7160 Z-0.7341 F1800
G01 X125.7511 Y89.7924 Z-0.4147 F1800
G01 X125.6504 Y90.1622 Z-0.3012 F1800
G01 X125.5955 Y90.3642 Z-0.2360 F1800
G01 X125.5627 Y90.4873 Z-0.1944 F1800
G01 X125.5476 Y90.5445 Z-0.1745 F1800
G01 X125.5337 Y90.5985 Z-0.1552 F1800
G01 X125.5210 Y90.6492 Z-0.1365 F1800
G01 X125.5096 Y90.6961 Z-0.1187 F1800
G01 X125.4996 Y90.7390 Z-0.1017 F1800
G01 X125.4913 Y90.7779 Z-0.0854 F1800
G01 X125.4848 Y90.8124 Z-0.0700 F1800
G01 X125.4801 Y90.8423 Z-0.0556 F1800
G01 X125.4851 Y90.9006 Z-0.0183 F1800
G01 Z-0.0244 F1800
G01 X125.4801 Y90.8423 Z-0.0741 F1800
G01 X125.4848 Y90.8124 Z-0.0934 F1800
G01 X125.4913 Y90.7779 Z-0.1139 F1800
G01 X125.4996 Y90.7390 Z-0.1356 F1800
G01 X125.5096 Y90.6961 Z-0.1582 F1800
G01 X125.5210 Y90.6492 Z-0.1820 F1800
G01 X125.5337 Y90.5985 Z-0.2070 F1800
G01 X125.5476 Y90.5445 Z-0.2327 F1800
G01 X125.5786 Y90.4270 Z-0.2867 F1800
G01 X125.6132 Y90.2990 Z-0.3432 F1800
G01 X125.6697 Y90.0912 Z-0.4314 F1800
G01 X125.7935 Y89.6388 Z-0.6142 F1800
G01 X126.0809 Y88.6238 Z-1.0148 F1800
G01 X126.1406 Y88.3970 Z-1.1046 F1800
G01 X126.1774 Y88.2492 Z-1.1643 F1800
G01 X126.2166 Y88.0825 Z-1.2332 F1800
G01 X126.2364 Y87.9927 Z-1.2714 F1800
G01 X126.2558 Y87.8989 Z-1.3122 F1800
G01 X126.2744 Y87.8013 Z-1.3559 F1800
G01 X126.2916 Y87.6998 Z-1.4030 F1800
G01 X126.3068 Y87.5945 Z-1.4540 F1800
G01 X126.3194 Y87.4856 Z-1.5090 F1800
G01 X126.3293 Y87.3732 Z-1.5684 F1800
G01 X126.3361 Y87.2578 Z-1.6321 F1800
G01 X126.3398 Y87.1385 Z-1.7004 F1800
G01 X126.4276 Y87.0816 Z-1.6642 F1800
G01 X127.6240 Y86.6812 Z-0.9554 F1800
G01 X127.7176 Y86.6515 Z-0.9015 F1800
G01 X127.7940 Y86.6288 Z-0.8588 F1800
G01 X127.8795 Y86.6053 Z-0.8129 F1800
G01 X127.9222 Y86.5920 Z-0.7885 F1800
G01 X128.0528 Y86.5496 Z-0.7117 F1800
G01 X128.4058 Y86.4309 Z-0.4982 F1800
G01 X128.6865 Y86.3354 Z-0.3233 F1800
G01 X128.8555 Y86.2787 Z-0.2147 F1800
G01 X128.9298 Y86.2543 Z-0.1656 F1800
G01 X128.9952 Y86.2336 Z-0.1211 F1800
G01 X129.0500 Y86.2171 Z-0.0822 F1800
G01 X129.0927 Y86.2057 Z-0.0498 F1800
G01 X129.1158 Y86.2011 Z-0.0305 F1800
G01 X129.0745 Y86.2106 Z-0.0641 F1800
G01 X129.0422 Y86.2195 Z-0.0879 F1800
G01 X129.0011 Y86.2318 Z-0.1169 F1800
G01 X128.9510 Y86.2476 Z-0.1513 F1800
G01 X128.8913 Y86.2670 Z-0.1912 F1800
G01 X128.7409 Y86.3171 Z-0.2887 F1800
G01 X128.4300 Y86.4227 Z-0.4833 F1800
G01 X128.1600 Y86.5140 Z-0.6476 F1800
G01 X128.0049 Y86.5654 Z-0.7401 F1800
G01 X127.8807 Y86.6049 Z-0.8122 F1800
G01 X127.7024 Y86.6562 Z-0.9101 F1800
G01 X127.1815 Y86.8279 Z-1.2154 F1800
G01 X126.4171 Y87.0851 Z-1.6705 F1800
G01 X126.2922 Y87.0775 Z-1.6979 F1800
G01 X126.1950 Y87.0132 Z-1.6635 F1800
G01 X126.0969 Y86.9525 Z-1.6329 F1800
G01 X125.9863 Y86.8892 Z-1.6037 F1800
G01 X125.8852 Y86.8359 Z-1.5819 F1800
G01 X125.7829 Y86.7865 Z-1.5641 F1800
G01 X125.6670 Y86.7355 Z-1.5494 F1800
G01 X125.5616 Y86.6937 Z-1.5407 F1800
G01 X125.4550 Y86.6559 Z-1.5362 F1800
G01 X125.3332 Y86.6174 F1800
G01 X125.2234 Y86.5870 Z-1.5409 F1800
G01 X125.1123 Y86.5608 Z-1.5498 F1800
G01 X124.9838 Y86.5353 Z-1.5655 F1800
G01 X124.8691 Y86.5169 Z-1.5843 F1800
G01 X124.7530 Y86.5026 Z-1.6073 F1800
G01 X124.6168 Y86.4907 Z-1.6397 F1800
G01 X124.4968 Y86.4845 Z-1.6728 F1800
G01 X124.3757 Y86.4819 Z-1.7099 F1800
G01 X124.2305 Y86.4837 Z-1.7597 F1800
G01 X124.1051 Y86.4895 Z-1.8073 F1800
G01 X123.9783 Y86.4991 Z-1.8592 F1800
G01 X123.8391 Y86.5134 Z-1.9202 F1800
G01 X123.7409 Y86.5259 Z-1.9662 F1800
G01 X123.6421 Y86.5402 Z-2.0140 F1800
G01 X123.5424 Y86.5567 Z-2.0642 F1800
G01 X123.3067 Y86.6004 Z-2.1895 F1800
G01 X123.1006 Y86.6441 Z-2.3046 F1800
G01 X122.8514 Y86.7001 Z-2.4490 F1800
G01 X122.3784 Y86.8114 Z-2.7318 F1800
G01 X121.9983 Y86.9020 Z-2.9641 F1800
G01 X121.9016 Y86.8987 Z-3.0000 F1800
G01 X121.6097 Y86.7688 F1800
G01 X121.2344 Y86.5947 F1800
G01 X120.8582 Y86.4120 F1800
G01 X120.6133 Y86.2885 F1800
G01 X120.4815 Y86.2205 F1800
G01 X120.2375 Y86.0916 F1800
G01 X120.1046 Y86.0198 F1800
G01 X119.8616 Y85.8853 F1800
G01 X119.7279 Y85.8095 F1800
G01 X119.4860 Y85.6692 F1800
G01 X119.3215 Y85.5703 F1800
G01 X119.1664 Y85.4714 F1800
G01 X119.0153 Y85.3711 F1800
G01 X118.8321 Y85.2454 F1800
G01 X118.5873 Y85.0722 F1800
G01 X118.2689 Y84.8399 F1800
G01 X117.8737 Y84.5426 F1800
G01 X117.5599 Y84.2995 F1800
G01 X117.2632 Y84.0632 F1800
G01 X117.1233 Y83.9488 F1800
G01 X117.0155 Y83.8588 F1800
G01 X116.9141 Y83.7098 Z-2.9526 F1800
G01 X116.8553 Y83.5147 Z-2.8454 F1800
G01 X116.7986 Y83.3074 Z-2.7324 F1800
G01 X116.7384 Y83.0567 Z-2.5993 F1800
G01 X116.6852 Y82.8061 Z-2.4700 F1800
G01 X116.6419 Y82.6155 Z-2.3691 F1800
G01 X116.5273 Y82.1267 Z-2.1090 F1800
G01 X116.4670 Y81.8547 Z-1.9683 F1800
G01 X116.4300 Y81.6777 Z-1.8790 F1800
G01 X116.3957 Y81.5039 Z-1.7930 F1800
G01 X116.3640 Y81.3334 Z-1.7104 F1800
G01 X116.3347 Y81.1653 Z-1.6307 F1800
G01 X116.2939 Y80.9135 Z-1.5135 F1800
G01 X116.2805 Y80.8256 Z-1.4732 F1800
G01 X116.2593 Y80.6782 Z-1.4064 F1800
G01 X116.2344 Y80.4910 Z-1.3228 F1800
G01 X116.2125 Y80.3085 Z-1.2426 F1800
G01 X116.1931 Y80.1303 Z-1.1653 F1800
G01 X116.1761 Y79.9557 Z-1.0903 F1800
G01 X116.1612 Y79.7845 Z-1.0172 F1800
G01 X116.1372 Y79.4506 Z-0.8751 F1800
G01 X116.1200 Y79.1261 Z-0.7361 F1800
G01 X116.0798 Y78.1998 Z-0.3352 F1800
G01 X116.0620 Y77.9034 Z-0.2054 F1800
G01 X116.0561 Y77.7540 Z-0.1351 F1800
G01 X116.0560 Y77.6005 Z-0.0556 F1800
G01 X116.0686 Y77.5150 Z0.0000 F1800
G01 X116.0615 Y77.5377 Z-0.0180 F1800
G01 X116.0582 Y77.5635 Z-0.0343 F1800
G01 X116.0561 Y77.5983 Z-0.0544 F1800
G01 X116.0554 Y77.6189 Z-0.0658 F1800
G01 X116.0550 Y77.6415 Z-0.0779 F1800
G01 Y77.6658 Z-0.0908 F1800
G01 X116.0551 Y77.6917 Z-0.1041 F1800
G01 X116.0554 Y77.7190 Z-0.1178 F1800
G01 X116.0559 Y77.7477 Z-0.1320 F1800
G01 X116.0578 Y77.8086 Z-0.1615 F1800
G01 X116.0605 Y77.8730 Z-0.1915 F1800
G01 X116.0641 Y77.9397 Z-0.2218 F1800
G01 X116.0846 Y78.2908 Z-0.3747 F1800
G01 X116.1240 Y79.2133 Z-0.7736 F1800
G01 X116.1332 Y79.3848 Z-0.8470 F1800
G01 X116.1443 Y79.5593 Z-0.9213 F1800
G01 X116.1573 Y79.7368 Z-0.9968 F1800
G01 X116.1725 Y79.9171 Z-1.0737 F1800
G01 X116.2000 Y80.1973 Z-1.1942 F1800
G01 X116.2211 Y80.3840 Z-1.2755 F1800
G01 X116.2449 Y80.5731 Z-1.3591 F1800
G01 X116.2713 Y80.7646 Z-1.4452 F1800
G01 X116.3161 Y81.0534 Z-1.5783 F1800
G01 X116.3493 Y81.2507 Z-1.6710 F1800
G01 X116.3854 Y81.4499 Z-1.7667 F1800
G01 X116.4246 Y81.6513 Z-1.8657 F1800
G01 X116.4670 Y81.8546 Z-1.9683 F1800
G01 X116.5351 Y82.1611 Z-2.1270 F1800
G01 X116.6802 Y82.7838 Z-2.4583 F1800
G01 X116.7028 Y82.8871 Z-2.5122 F1800
G01 X116.7245 Y82.9926 Z-2.5659 F1800
G01 X116.7475 Y83.0986 Z-2.6211 F1800
G01 X116.7735 Y83.2117 Z-2.6812 F1800
G01 X116.8306 Y83.4267 Z-2.7968 F1800
G01 X116.8645 Y83.5470 Z-2.8632 F1800
G01 X116.9308 Y83.7641 Z-2.9826 F1800
G01 X116.9190 Y83.8785 Z-3.0000 F1800
G01 X116.8462 Y84.1904 F1800
G01 X116.7783 Y84.5161 F1800
G01 X116.7155 Y84.8540 F1800
G01 X116.6576 Y85.2027 F1800
G01 X116.6044 Y85.5607 F1800
G01 X116.5556 Y85.9268 F1800
G01 X116.5109 Y86.2996 F1800
G01 X116.4598 Y86.7798 F1800
G01 X116.3973 Y87.4463 F1800
G01 X116.2047 Y89.9567 F1800
G01 X116.2014 Y90.0428 F1800
G01 X116.1985 Y90.4023 F1800
G01 X116.2023 Y90.8633 F1800
G01 X116.2136 Y91.3235 F1800
G01 X116.2323 Y91.7827 F1800
G01 X116.2585 Y92.2407 F1800
G01 X116.2920 Y92.6973 F1800
G01 X116.3327 Y93.1525 F1800
G01 X116.3807 Y93.6060 F1800
G01 X116.4357 Y94.0577 F1800
G01 X116.4978 Y94.5074 F1800
G01 X116.5668 Y94.9550 F1800
G01 X116.6428 Y95.4003 F1800
G01 X116.7255 Y95.8431 F1800
G01 X116.8149 Y96.2833 F1800
G01 X116.8996 Y96.6704 F1800
G01 X116.8872 Y96.7263 Z-2.9756 F1800
G01 X116.7699 Y96.9568 Z-2.8086 F1800
G01 X116.6267 Y97.2527 Z-2.6010 F1800
G01 X116.5730 Y97.3677 Z-2.5209 F1800
G01 X116.4200 Y97.7109 Z-2.2886 F1800
G01 X116.2952 Y98.0123 Z-2.0903 F1800
G01 X116.1759 Y98.3181 Z-1.8952 F1800
G01 X116.0535 Y98.6585 Z-1.6840 F1800
G01 X115.9878 Y98.8549 Z-1.5662 F1800
G01 X115.9511 Y98.9679 Z-1.4983 F1800
G01 X115.8489 Y99.3046 Z-1.3029 F1800
G01 X115.7876 Y99.5305 Z-1.1754 F1800
G01 X115.7553 Y99.6564 Z-1.1056 F1800
G01 X115.6968 Y99.8966 Z-0.9750 F1800
G01 X115.6476 Y100.1180 Z-0.8586 F1800
G01 X115.5874 Y100.4188 Z-0.7056 F1800
G01 X115.5564 Y100.5971 Z-0.6186 F1800
G01 X115.5365 Y100.7192 Z-0.5596 F1800
G01 X115.5145 Y100.8702 Z-0.4886 F1800
G01 X115.4969 Y101.0064 Z-0.4256 F1800
G01 X115.4714 Y101.2377 Z-0.3199 F1800
G01 X115.4609 Y101.3346 Z-0.2740 F1800
G01 X115.4509 Y101.4200 Z-0.2314 F1800
G01 X115.4417 Y101.4944 Z-0.1925 F1800
G01 X115.4336 Y101.5582 Z-0.1571 F1800
G01 X115.4267 Y101.6118 Z-0.1255 F1800
G01 X115.4211 Y101.6557 Z-0.0976 F1800
G01 X115.4170 Y101.6903 Z-0.0737 F1800
G01 X115.4141 Y101.7162 Z-0.0537 F1800
G01 X115.4181 Y101.6787 Z-0.0820 F1800
G01 X115.4241 Y101.6313 Z-0.1135 F1800
G01 X115.4314 Y101.5749 Z-0.1475 F1800
G01 X115.4396 Y101.5107 Z-0.1836 F1800
G01 X115.4484 Y101.4399 Z-0.2212 F1800
G01 X115.4575 Y101.3639 Z-0.2596 F1800
G01 X115.4664 Y101.2842 Z-0.2982 F1800
G01 X115.4843 Y101.1162 Z-0.3756 F1800
G01 X115.4973 Y101.0026 Z-0.4273 F1800
G01 X115.5152 Y100.8658 Z-0.4907 F1800
G01 X115.5317 Y100.7515 Z-0.5444 F1800
G01 X115.5545 Y100.6086 Z-0.6130 F1800
G01 X115.5743 Y100.4936 Z-0.6691 F1800
G01 X115.6020 Y100.3442 Z-0.7434 F1800
G01 X115.6249 Y100.2284 Z-0.8021 F1800
G01 X115.6578 Y100.0720 Z-0.8828 F1800
G01 X115.6837 Y99.9555 Z-0.9441 F1800
G01 X115.7220 Y99.7916 Z-1.0318 F1800
G01 X115.7509 Y99.6744 Z-1.0958 F1800
G01 X115.7951 Y99.5026 Z-1.1912 F1800
G01 X115.8269 Y99.3846 Z-1.2579 F1800
G01 X115.8786 Y99.2056 Z-1.3601 F1800
G01 X115.9141 Y99.0880 Z-1.4282 F1800
G01 X115.9731 Y98.9001 Z-1.5391 F1800
G01 X116.0117 Y98.7821 Z-1.6098 F1800
G01 X116.0794 Y98.5858 Z-1.7289 F1800
G01 X116.1214 Y98.4680 Z-1.8016 F1800
G01 X116.1978 Y98.2609 Z-1.9317 F1800
G01 X116.2434 Y98.1437 Z-2.0062 F1800
G01 X116.3791 Y97.8088 Z-2.2242 F1800
G01 X116.5303 Y97.4630 Z-2.4561 F1800
G01 X116.6982 Y97.1038 Z-2.7051 F1800
G01 X116.8852 Y96.7304 Z-2.9726 F1800
G01 X117.1423 Y96.7589 Z-2.8521 F1800
G01 X117.6321 Y97.2225 Z-2.2527 F1800
G01 X118.0536 Y97.6360 Z-1.7356 F1800
G01 X118.4162 Y98.0022 Z-1.2927 F1800
G01 X118.5426 Y98.1331 Z-1.1384 F1800
G01 X118.7299 Y98.3321 Z-0.9084 F1800
G01 X119.4780 Y99.1442 Z0.0000 F1800
G01 X118.6699 Y98.2666 Z-0.9825 F1800
G01 X118.4065 Y97.9922 Z-1.3046 F1800
G01 X118.0681 Y97.6508 Z-1.7177 F1800
G01 X117.7711 Y97.3568 Z-2.0828 F1800
G01 X117.4623 Y97.0595 Z-2.4601 F1800
G01 X117.0228 Y96.6444 Z-3.0000 F1800
G01 X117.1128 Y96.3510 F1800
G01 X117.1666 Y96.1832 F1800
G01 X117.2971 Y95.7927 F1800
G01 X117.3539 Y95.6292 F1800
G01 X117.4944 Y95.2390 F1800
G01 X117.5537 Y95.0798 F1800
G01 X117.7039 Y94.6899 F1800
G01 X117.7655 Y94.5349 F1800
G01 X117.9884 Y93.9941 F1800
G01 X118.2219 Y93.4570 F1800
G01 X118.4653 Y92.9234 F1800
G01 X118.7180 Y92.3930 F1800
G01 X118.9753 Y91.8735 F1800
G01 X119.2447 Y91.3483 F1800
G01 X119.5663 Y90.7432 F1800
G01 X119.8517 Y90.2217 F1800
G01 X120.1907 Y89.6190 F1800
G01 X120.6952 Y88.7478 F1800
G01 X121.2543 Y87.8123 F1800
G01 X121.5469 Y87.3947 F1800
G01 X121.8629 Y87.0089 F1800
G01 X121.9614 Y86.9107 Z-2.9868 F1800
G01 X122.5501 Y86.7710 Z-2.6279 F1800
G01 X122.9184 Y86.6849 Z-2.4098 F1800
G01 X123.0338 Y86.6591 Z-2.3428 F1800
G01 X123.1487 Y86.6336 Z-2.2775 F1800
G01 X123.2676 Y86.6085 Z-2.2110 F1800
G01 X123.3972 Y86.5829 Z-2.1404 F1800
G01 X123.5484 Y86.5556 Z-2.0612 F1800
G01 X123.7426 Y86.5257 Z-1.9654 F1800
G01 X124.0547 Y86.4929 Z-1.8276 F1800
G01 X124.1065 Y86.4894 Z-1.8068 F1800
G01 X124.1575 Y86.4866 Z-1.7870 F1800
G01 X124.2077 Y86.4845 Z-1.7681 F1800
G01 X124.2571 Y86.4831 Z-1.7501 F1800
G01 X124.3058 Y86.4823 Z-1.7330 F1800
G01 X124.3537 Y86.4819 Z-1.7170 F1800
G01 X124.4009 Y86.4821 Z-1.7018 F1800
G01 X124.4476 Y86.4829 Z-1.6874 F1800
G01 X124.4936 Y86.4843 Z-1.6738 F1800
G01 X124.5391 Y86.4863 Z-1.6608 F1800
G01 X124.5840 Y86.4889 Z-1.6486 F1800
G01 X124.6285 Y86.4920 Z-1.6371 F1800
G01 X125.2969 Y86.6073 Z-1.5377 F1800
G01 X125.3484 Y86.6222 Z-1.5362 F1800
G01 X125.3997 Y86.6380 Z-1.5356 F1800
G01 X125.4507 Y86.6545 Z-1.5362 F1800
G01 X125.5014 Y86.6719 Z-1.5377 F1800
G01 X125.5520 Y86.6902 Z-1.5402 F1800
G01 X125.6024 Y86.7094 Z-1.5436 F1800
G01 X125.6652 Y86.7348 Z-1.5492 F1800
G01 X125.7277 Y86.7617 Z-1.5563 F1800
G01 X125.7904 Y86.7899 Z-1.5653 F1800
G01 X125.8529 Y86.8198 Z-1.5758 F1800
G01 X125.9155 Y86.8513 Z-1.5880 F1800
G01 X125.9781 Y86.8847 Z-1.6018 F1800
G01 X126.0409 Y86.9199 Z-1.6174 F1800
G01 X126.1040 Y86.9568 Z-1.6350 F1800
G01 X126.1717 Y86.9984 Z-1.6559 F1800
G01 X126.3329 Y87.3175 Z-1.5989 F1800
G00 Z30.0000 F480
G00 X123.2032 Y96.0297 F2100
G01 Z-0.7410 F1800
G01 X123.2216 Y95.9612 Z-0.7283 F1800
G01 X123.2671 Y95.8014 Z-0.6964 F1800
G01 X123.3604 Y95.4787 Z-0.6377 F1800
G01 X123.4463 Y95.1894 Z-0.5891 F1800
G01 X123.5053 Y94.9980 Z-0.5581 F1800
G01 X123.5814 Y94.7689 Z-0.5198 F1800
G01 X123.6026 Y94.7065 Z-0.5090 F1800
G01 X123.6950 Y94.4488 Z-0.4654 F1800
G01 X123.7917 Y94.1943 Z-0.4224 F1800
G01 X123.8391 Y94.0753 Z-0.4024 F1800
G01 X123.9066 Y93.9107 Z-0.3738 F1800
G01 X124.0103 Y93.6647 Z-0.3341 F1800
G01 X124.1265 Y93.3929 Z-0.2950 F1800
G01 X124.2473 Y93.1158 Z-0.2603 F1800
G01 X124.3639 Y92.8542 Z-0.2326 F1800
G01 X124.4743 Y92.6099 Z-0.2114 F1800
G01 X124.5134 Y92.5270 Z-0.2050 F1800
G01 X124.5506 Y92.4496 Z-0.1982 F1800
G01 X124.5860 Y92.3779 Z-0.1911 F1800
G01 X124.6202 Y92.3122 Z-0.1845 F1800
G01 X124.6525 Y92.2524 Z-0.1778 F1800
G01 X124.6826 Y92.1984 Z-0.1707 F1800
G01 X124.7105 Y92.1504 Z-0.1634 F1800
G01 X124.7361 Y92.1085 Z-0.1562 F1800
G01 X124.7572 Y92.0711 Z-0.1462 F1800
G01 X124.7742 Y92.0383 Z-0.1341 F1800
G01 X124.7875 Y92.0104 Z-0.1209 F1800
G01 X124.8033 Y91.9671 Z-0.0913 F1800
G00 Z30.0000 F480
G00 X123.1762 Y96.1373 F2100
G01 Z-0.2533 F1800
G01 X123.1343 Y96.3172 Z-0.2634 F1800
G01 X123.1112 Y96.4221 Z-0.2691 F1800
G01 X123.0736 Y96.6027 Z-0.2789 F1800
G01 X123.0355 Y96.7993 Z-0.2895 F1800
G01 X122.9998 Y96.9968 Z-0.2999 F1800
G01 X122.9193 Y97.4685 Z-0.3267 F1800
G01 X122.8990 Y97.5980 Z-0.3344 F1800
G01 X122.8829 Y97.7331 Z-0.3416 F1800
G01 X122.8688 Y97.8709 Z-0.3487 F1800
G01 X122.8561 Y98.0107 Z-0.3559 F1800
G01 X122.8344 Y98.2947 Z-0.3706 F1800
G01 X122.8171 Y98.5814 Z-0.3858 F1800
G01 X122.8043 Y98.8665 Z-0.4013 F1800
G01 X122.7997 Y99.0072 Z-0.4090 F1800
G01 X122.7965 Y99.1462 Z-0.4167 F1800
G01 X122.7976 Y99.2824 Z-0.4232 F1800
G01 X122.8036 Y99.4154 Z-0.4285 F1800
G01 X122.8125 Y99.5452 Z-0.4331 F1800
G01 X122.8233 Y99.6717 Z-0.4375 F1800
G01 X122.8362 Y99.7952 Z-0.4417 F1800
G01 X122.8506 Y99.9160 Z-0.4459 F1800
G01 X122.8667 Y100.0353 Z-0.4504 F1800
G01 X122.8854 Y100.1546 Z-0.4550 F1800
G01 X122.9257 Y100.3879 Z-0.4645 F1800
G01 X122.9543 Y100.5415 Z-0.4707 F1800
G01 X122.9782 Y100.6636 Z-0.4757 F1800
G01 X123.0364 Y100.9388 Z-0.4873 F1800
G01 X123.1006 Y101.2134 Z-0.4991 F1800
G01 X123.1395 Y101.3692 Z-0.5060 F1800
G01 X123.1707 Y101.4877 Z-0.5113 F1800
G01 X123.2134 Y101.6443 Z-0.5185 F1800
G01 X123.2471 Y101.7616 Z-0.5239 F1800
G01 X123.2942 Y101.9189 Z-0.5313 F1800
G01 X123.3304 Y102.0352 Z-0.5369 F1800
G01 X123.3823 Y102.1930 Z-0.5443 F1800
G01 X123.4222 Y102.3078 Z-0.5497 F1800
G01 X123.4800 Y102.4654 Z-0.5569 F1800
G01 X123.5245 Y102.5782 Z-0.5616 F1800
G01 X123.5921 Y102.7332 Z-0.5671 F1800
G01 X123.7145 Y102.9983 Z-0.5766 F1800
G01 X123.8409 Y103.2646 Z-0.5881 F1800
G01 X123.8942 Y103.3744 Z-0.5933 F1800
G01 X123.9743 Y103.5304 Z-0.6003 F1800
G01 X124.0321 Y103.6384 Z-0.6051 F1800
G01 X124.1184 Y103.7932 Z-0.6120 F1800
G01 X124.2718 Y104.0538 Z-0.6236 F1800
G01 X124.4304 Y104.3155 Z-0.6372 F1800
G01 X124.4965 Y104.4222 Z-0.6432 F1800
G01 X124.5851 Y104.5591 Z-0.6507 F1800
G01 X124.6790 Y104.6993 Z-0.6584 F1800
G01 X124.7605 Y104.8181 Z-0.6652 F1800
G01 X124.9434 Y105.0770 Z-0.6810 F1800
G01 X125.1332 Y105.3365 Z-0.6983 F1800
G01 X125.2388 Y105.4772 Z-0.7084 F1800
G01 X125.4271 Y105.7135 Z-0.7277 F1800
G01 X125.5386 Y105.8443 Z-0.7398 F1800
G01 X125.6530 Y105.9765 Z-0.7521 F1800
G01 X125.8240 Y106.1691 Z-0.7700 F1800
G01 X126.0144 Y106.3766 Z-0.7892 F1800
G01 X126.1972 Y106.5692 Z-0.8070 F1800
G01 X126.3269 Y106.7023 Z-0.8192 F1800
G01 X126.4595 Y106.8342 Z-0.8312 F1800
G01 X126.5947 Y106.9652 Z-0.8430 F1800
G01 X126.6729 Y107.0398 Z-0.8497 F1800
G01 X126.8128 Y107.1693 Z-0.8613 F1800
G01 X126.9556 Y107.2971 Z-0.8725 F1800
G01 X127.0158 Y107.3501 Z-0.8772 F1800
G01 X127.1614 Y107.4748 Z-0.8881 F1800
G01 X127.3099 Y107.5972 Z-0.8987 F1800
G01 X127.4612 Y107.7175 Z-0.9091 F1800
G01 X127.5546 Y107.7897 Z-0.9153 F1800
G01 X127.7423 Y107.9293 Z-0.9274 F1800
G01 X127.9031 Y108.0437 Z-0.9374 F1800
G01 X128.0677 Y108.1556 Z-0.9473 F1800
G01 X128.1448 Y108.2069 Z-0.9514 F1800
G01 X128.1912 Y108.2421 Z-0.9528 F1800
G01 X128.7067 Y107.9826 Z-0.7786 F1800
G01 X129.5811 Y107.5767 Z-0.4749 F1800
G01 X129.0933 Y107.7997 Z-0.6460 F1800
G01 X128.8371 Y107.9199 Z-0.7340 F1800
G01 X128.5357 Y108.0666 Z-0.8368 F1800
G01 X128.3703 Y108.1506 Z-0.8930 F1800
G01 X128.2028 Y108.2629 Z-0.9501 F1800
G01 X128.2427 Y108.3461 Z-0.9380 F1800
G01 X128.3491 Y108.5581 Z-0.9062 F1800
G01 X128.4315 Y108.6898 Z-0.8819 F1800
G01 X128.6123 Y108.9260 Z-0.8290 F1800
G01 X128.7765 Y109.1176 Z-0.7821 F1800
G01 X128.9496 Y109.3006 Z-0.7339 F1800
G01 X129.1281 Y109.4744 Z-0.6856 F1800
G01 X129.3105 Y109.6384 Z-0.6377 F1800
G01 X129.4952 Y109.7922 Z-0.5908 F1800
G01 X129.6806 Y109.9352 Z-0.5454 F1800
G01 X129.8648 Y110.0672 Z-0.5020 F1800
G01 X130.0466 Y110.1881 Z-0.4609 F1800
G01 X130.2257 Y110.2977 Z-0.4221 F1800
G01 X130.4005 Y110.3964 Z-0.3860 F1800
G01 X130.5698 Y110.4850 Z-0.3527 F1800
G01 X130.7348 Y110.5633 Z-0.3217 F1800
G01 X130.8936 Y110.6332 Z-0.2936 F1800
G01 X131.0481 Y110.6942 Z-0.2673 F1800
G01 X131.1971 Y110.7487 Z-0.2435 F1800
G01 X131.3426 Y110.7964 Z-0.2211 F1800
G01 X131.4504 Y110.8293 Z-0.2052 F1800
G01 X131.5939 Y110.8698 Z-0.1850 F1800
G01 X131.7329 Y110.9044 Z-0.1662 F1800
G01 X131.8669 Y110.9341 Z-0.1493 F1800
G01 X131.9969 Y110.9582 Z-0.1340 F1800
G01 X132.0605 Y110.9682 Z-0.1270 F1800
G01 X132.1233 Y110.9770 Z-0.1203 F1800
G01 X132.1853 Y110.9847 Z-0.1141 F1800
G01 X132.2466 Y110.9914 Z-0.1083 F1800
G01 X132.3076 Y110.9970 Z-0.1028 F1800
G01 X132.3683 Y111.0015 Z-0.0975 F1800
G01 X132.4291 Y111.0053 Z-0.0926 F1800
G01 X132.4900 Y111.0083 Z-0.0879 F1800
G01 X132.5515 Y111.0106 Z-0.0834 F1800
G01 X132.6137 Y111.0122 Z-0.0792 F1800
G01 X132.8274 Y111.0160 Z-0.0651 F1800
G01 X132.8984 Y111.0188 Z-0.0599 F1800
G01 X132.9622 Y111.0223 Z-0.0549 F1800
G01 X133.0189 Y111.0261 Z-0.0498 F1800
G01 X133.0685 Y111.0296 Z-0.0446 F1800
G01 X133.1110 Y111.0325 Z-0.0392 F1800
G01 X133.1464 Y111.0350 Z-0.0338 F1800
G01 X133.1745 Y111.0369 Z-0.0286 F1800
G01 X133.2088 Y111.0393 Z-0.0203 F1800
G01 X133.1873 Y111.0375 Z-0.0259 F1800
G01 X133.1626 Y111.0357 Z-0.0310 F1800
G01 X133.1300 Y111.0334 Z-0.0364 F1800
G01 X133.0893 Y111.0307 Z-0.0420 F1800
G01 X133.0405 Y111.0274 Z-0.0476 F1800
G01 X132.9833 Y111.0235 Z-0.0531 F1800
G01 X132.9383 Y111.0208 Z-0.0569 F1800
G01 X132.8818 Y111.0180 Z-0.0612 F1800
G01 X132.8515 Y111.0168 Z-0.0634 F1800
G01 X132.7874 Y111.0149 Z-0.0679 F1800
G01 X132.5799 Y111.0115 Z-0.0814 F1800
G01 X132.5099 Y111.0091 Z-0.0864 F1800
G01 X132.4415 Y111.0060 Z-0.0916 F1800
G01 X132.4083 Y111.0041 Z-0.0942 F1800
G01 X132.3450 Y111.0000 Z-0.0995 F1800
G01 X132.3151 Y110.9976 Z-0.1021 F1800
G01 X132.2558 Y110.9923 Z-0.1074 F1800
G01 X132.1606 Y110.9818 Z-0.1165 F1800
G01 X132.0650 Y110.9688 Z-0.1265 F1800
G01 X131.9691 Y110.9536 Z-0.1372 F1800
G01 X131.8831 Y110.9374 Z-0.1473 F1800
G01 X131.7902 Y110.9176 Z-0.1588 F1800
G01 X131.6969 Y110.8959 Z-0.1709 F1800
G01 X131.6034 Y110.8722 Z-0.1837 F1800
G01 X131.5090 Y110.8464 Z-0.1969 F1800
G01 X131.3889 Y110.8108 Z-0.2142 F1800
G01 X131.2685 Y110.7731 Z-0.2322 F1800
G01 X131.1673 Y110.7383 Z-0.2481 F1800
G01 X131.0515 Y110.6955 Z-0.2668 F1800
G01 X130.9353 Y110.6503 Z-0.2863 F1800
G01 X130.8440 Y110.6122 Z-0.3021 F1800
G01 X130.7326 Y110.5623 Z-0.3221 F1800
G01 X130.6210 Y110.5102 Z-0.3428 F1800
G01 X130.5405 Y110.4702 Z-0.3583 F1800
G01 X130.4338 Y110.4144 Z-0.3792 F1800
G01 X130.3269 Y110.3565 Z-0.4009 F1800
G01 X130.2581 Y110.3169 Z-0.4153 F1800
G01 X130.1564 Y110.2564 Z-0.4367 F1800
G01 X130.0545 Y110.1931 Z-0.4592 F1800
G01 X129.9980 Y110.1570 Z-0.4717 F1800
G01 X129.9013 Y110.0921 Z-0.4936 F1800
G01 X129.8045 Y110.0258 Z-0.5159 F1800
G01 X129.7606 Y109.9946 Z-0.5262 F1800
G01 X129.5773 Y109.8578 Z-0.5704 F1800
G01 X129.5458 Y109.8329 Z-0.5782 F1800
G01 X129.3728 Y109.6923 Z-0.6217 F1800
G01 X129.1901 Y109.5325 Z-0.6691 F1800
G01 X129.1049 Y109.4526 Z-0.6918 F1800
G01 X129.0254 Y109.4011 Z-0.7053 F1800
G01 X128.9578 Y109.3089 Z-0.7317 F1800
G01 X128.8791 Y109.2287 Z-0.7533 F1800
G01 X128.7776 Y109.1188 Z-0.7818 F1800
G01 X128.6669 Y108.9926 Z-0.8132 F1800
G01 X128.5698 Y108.8740 Z-0.8412 F1800
G01 X128.4549 Y108.8421 Z-0.8381 F1800
G01 X128.3355 Y108.8280 Z-0.8270 F1800
G01 Z-1.6541 F1800
G01 X128.4549 Y108.8421 Z-1.6762 F1800
G01 X128.5698 Y108.8740 Z-1.6825 F1800
G01 X128.6669 Y108.9926 Z-1.6263 F1800
G01 X128.7776 Y109.1188 Z-1.5636 F1800
G01 X128.8791 Y109.2287 Z-1.5065 F1800
G01 X128.9578 Y109.3089 Z-1.4634 F1800
G01 X129.0254 Y109.4011 Z-1.4106 F1800
G01 X129.1049 Y109.4526 Z-1.3836 F1800
G01 X129.1901 Y109.5325 Z-1.3382 F1800
G01 X129.3728 Y109.6923 Z-1.2434 F1800
G01 X129.5458 Y109.8329 Z-1.1565 F1800
G01 X129.5773 Y109.8578 Z-1.1408 F1800
G01 X129.7606 Y109.9946 Z-1.0525 F1800
G01 X129.8045 Y110.0258 Z-1.0319 F1800
G01 X129.9013 Y110.0921 Z-0.9871 F1800
G01 X129.9980 Y110.1570 Z-0.9433 F1800
G01 X130.0545 Y110.1931 Z-0.9183 F1800
G01 X130.1564 Y110.2564 Z-0.8735 F1800
G01 X130.2581 Y110.3169 Z-0.8306 F1800
G01 X130.3269 Y110.3565 Z-0.8017 F1800
G01 X130.4338 Y110.4144 Z-0.7585 F1800
G01 X130.5405 Y110.4702 Z-0.7166 F1800
G01 X130.6210 Y110.5102 Z-0.6857 F1800
G01 X130.7326 Y110.5623 Z-0.6442 F1800
G01 X130.8440 Y110.6122 Z-0.6042 F1800
G01 X130.9353 Y110.6503 Z-0.5725 F1800
G01 X131.0515 Y110.6955 Z-0.5335 F1800
G01 X131.1673 Y110.7383 Z-0.4962 F1800
G01 X131.2685 Y110.7731 Z-0.4645 F1800
G01 X131.3889 Y110.8108 Z-0.4284 F1800
G01 X131.5090 Y110.8464 Z-0.3938 F1800
G01 X131.6034 Y110.8722 Z-0.3674 F1800
G01 X131.6969 Y110.8959 Z-0.3419 F1800
G01 X131.7902 Y110.9176 Z-0.3177 F1800
G01 X131.8831 Y110.9374 Z-0.2947 F1800
G01 X131.9691 Y110.9536 Z-0.2744 F1800
G01 X132.0650 Y110.9688 Z-0.2529 F1800
G01 X132.1606 Y110.9818 Z-0.2330 F1800
G01 X132.2558 Y110.9923 Z-0.2149 F1800
G01 X132.3151 Y110.9976 Z-0.2042 F1800
G01 X132.3450 Y111.0000 Z-0.1990 F1800
G01 X132.4083 Y111.0041 Z-0.1885 F1800
G01 X132.4754 Y111.0077 Z-0.1780 F1800
G01 X132.5099 Y111.0091 Z-0.1729 F1800
G01 X132.5799 Y111.0115 Z-0.1629 F1800
G01 X132.6504 Y111.0130 Z-0.1534 F1800
G01 X132.7874 Y111.0149 Z-0.1357 F1800
G01 X132.8515 Y111.0168 Z-0.1268 F1800
G01 X132.9109 Y111.0194 Z-0.1180 F1800
G01 X132.9383 Y111.0208 Z-0.1137 F1800
G01 X132.9833 Y111.0235 Z-0.1062 F1800
G01 X133.0405 Y111.0274 Z-0.0952 F1800
G01 X133.0893 Y111.0307 Z-0.0841 F1800
G01 X133.1300 Y111.0334 Z-0.0729 F1800
G01 X133.1626 Y111.0357 Z-0.0619 F1800
G01 X133.1873 Y111.0375 Z-0.0518 F1800
G01 X133.2088 Y111.0393 Z-0.0406 F1800
G01 X133.1745 Y111.0369 Z-0.0573 F1800
G01 X133.1464 Y111.0350 Z-0.0676 F1800
G01 X133.1110 Y111.0325 Z-0.0784 F1800
G01 X133.0685 Y111.0296 Z-0.0891 F1800
G01 X133.0189 Y111.0261 Z-0.0996 F1800
G01 X132.9622 Y111.0223 Z-0.1097 F1800
G01 X132.8984 Y111.0188 Z-0.1199 F1800
G01 X132.8274 Y111.0160 Z-0.1302 F1800
G01 X132.7494 Y111.0143 Z-0.1407 F1800
G01 X132.6137 Y111.0122 Z-0.1583 F1800
G01 X132.5515 Y111.0106 Z-0.1669 F1800
G01 X132.4900 Y111.0083 Z-0.1758 F1800
G01 X132.4291 Y111.0053 Z-0.1852 F1800
G01 X132.3683 Y111.0015 Z-0.1951 F1800
G01 X132.3076 Y110.9970 Z-0.2056 F1800
G01 X132.2466 Y110.9914 Z-0.2166 F1800
G01 X132.1853 Y110.9847 Z-0.2282 F1800
G01 X132.1233 Y110.9770 Z-0.2407 F1800
G01 X132.0605 Y110.9682 Z-0.2539 F1800
G01 X131.9969 Y110.9582 Z-0.2680 F1800
G01 X131.8669 Y110.9341 Z-0.2986 F1800
G01 X131.7329 Y110.9044 Z-0.3324 F1800
G01 X131.5939 Y110.8698 Z-0.3700 F1800
G01 X131.4504 Y110.8293 Z-0.4105 F1800
G01 X131.3426 Y110.7964 Z-0.4422 F1800
G01 X131.1971 Y110.7487 Z-0.4869 F1800
G01 X131.0481 Y110.6942 Z-0.5346 F1800
G01 X130.8936 Y110.6332 Z-0.5871 F1800
G01 X130.7348 Y110.5633 Z-0.6434 F1800
G01 X130.5698 Y110.4850 Z-0.7055 F1800
G01 X130.4005 Y110.3964 Z-0.7720 F1800
G01 X130.2257 Y110.2977 Z-0.8442 F1800
G01 X130.0466 Y110.1881 Z-0.9218 F1800
G01 X129.8648 Y110.0672 Z-1.0040 F1800
G01 X129.6806 Y109.9352 Z-1.0908 F1800
G01 X129.4952 Y109.7922 Z-1.1817 F1800
G01 X129.3105 Y109.6384 Z-1.2755 F1800
G01 X129.1281 Y109.4744 Z-1.3713 F1800
G01 X128.9496 Y109.3006 Z-1.4679 F1800
G01 X128.7765 Y109.1176 Z-1.5643 F1800
G01 X128.6123 Y108.9260 Z-1.6579 F1800
G01 X128.4315 Y108.6898 Z-1.7638 F1800
G01 X128.3491 Y108.5581 Z-1.8125 F1800
G01 X128.2427 Y108.3461 Z-1.8759 F1800
G01 X128.2028 Y108.2629 Z-1.9003 F1800
G01 X128.3703 Y108.1506 Z-1.7860 F1800
G01 X128.5357 Y108.0666 Z-1.6737 F1800
G01 X128.8371 Y107.9199 Z-1.4681 F1800
G01 X129.2035 Y107.7490 Z-1.2157 F1800
G01 X129.5214 Y107.6039 Z-0.9924 F1800
G01 X129.5811 Y107.5767 Z-0.9498 F1800
G01 X128.7067 Y107.9826 Z-1.5572 F1800
G01 X128.1912 Y108.2421 Z-1.9056 F1800
G01 X128.1448 Y108.2069 Z-1.9029 F1800
G01 X128.0677 Y108.1556 Z-1.8945 F1800
G01 X127.9031 Y108.0437 Z-1.8748 F1800
G01 X127.7423 Y107.9293 Z-1.8548 F1800
G01 X127.5546 Y107.7897 Z-1.8307 F1800
G01 X127.4004 Y107.6697 Z-1.8099 F1800
G01 X127.3099 Y107.5972 Z-1.7975 F1800
G01 X127.1614 Y107.4748 Z-1.7763 F1800
G01 X127.0158 Y107.3501 Z-1.7545 F1800
G01 X126.8728 Y107.2234 Z-1.7321 F1800
G01 X126.8128 Y107.1693 Z-1.7225 F1800
G01 X126.6729 Y107.0398 Z-1.6995 F1800
G01 X126.5358 Y106.9087 Z-1.6758 F1800
G01 X126.4014 Y106.7766 Z-1.6518 F1800
G01 X126.3269 Y106.7023 Z-1.6384 F1800
G01 X126.1406 Y106.5104 Z-1.6031 F1800
G01 X126.0144 Y106.3766 Z-1.5784 F1800
G01 X125.8240 Y106.1691 Z-1.5400 F1800
G01 X125.6530 Y105.9765 Z-1.5043 F1800
G01 X125.4767 Y105.7722 Z-1.4664 F1800
G01 X125.4271 Y105.7135 Z-1.4554 F1800
G01 X125.2388 Y105.4772 Z-1.4168 F1800
G01 X125.1332 Y105.3365 Z-1.3967 F1800
G01 X124.9434 Y105.0770 Z-1.3620 F1800
G01 X124.8095 Y104.8881 Z-1.3388 F1800
G01 X124.7605 Y104.8181 Z-1.3305 F1800
G01 X124.6790 Y104.6993 Z-1.3169 F1800
G01 X124.5851 Y104.5591 Z-1.3014 F1800
G01 X124.4965 Y104.4222 Z-1.2864 F1800
G01 X124.4304 Y104.3155 Z-1.2744 F1800
G01 X124.2718 Y104.0538 Z-1.2473 F1800
G01 X124.1184 Y103.7932 Z-1.2239 F1800
G01 X124.0321 Y103.6384 Z-1.2103 F1800
G01 X123.9743 Y103.5304 Z-1.2006 F1800
G01 X123.8942 Y103.3744 Z-1.1865 F1800
G01 X123.7662 Y103.1082 Z-1.1623 F1800
G01 X123.6425 Y102.8432 Z-1.1417 F1800
G01 X123.5921 Y102.7332 Z-1.1342 F1800
G01 X123.5245 Y102.5782 Z-1.1233 F1800
G01 X123.4800 Y102.4654 Z-1.1137 F1800
G01 X123.4222 Y102.3078 Z-1.0993 F1800
G01 X123.3823 Y102.1930 Z-1.0887 F1800
G01 X123.3304 Y102.0352 Z-1.0737 F1800
G01 X123.2942 Y101.9189 Z-1.0626 F1800
G01 X123.2471 Y101.7616 Z-1.0479 F1800
G01 X123.2134 Y101.6443 Z-1.0370 F1800
G01 X123.1707 Y101.4877 Z-1.0226 F1800
G01 X123.1395 Y101.3692 Z-1.0120 F1800
G01 X123.1006 Y101.2134 Z-0.9982 F1800
G01 X123.0720 Y101.0937 Z-0.9877 F1800
G01 X123.0364 Y100.9388 Z-0.9745 F1800
G01 X122.9782 Y100.6636 Z-0.9515 F1800
G01 X122.9543 Y100.5415 Z-0.9414 F1800
G01 X122.9039 Y100.2646 Z-0.9191 F1800
G01 X122.8854 Y100.1546 Z-0.9100 F1800
G01 X122.8667 Y100.0353 Z-0.9007 F1800
G01 X122.8506 Y99.9160 Z-0.8919 F1800
G01 X122.8362 Y99.7952 Z-0.8835 F1800
G01 X122.8233 Y99.6717 Z-0.8751 F1800
G01 X122.8125 Y99.5452 Z-0.8663 F1800
G01 X122.8036 Y99.4154 Z-0.8569 F1800
G01 X122.7976 Y99.2824 Z-0.8464 F1800
G01 X122.7965 Y99.1462 Z-0.8333 F1800
G01 X122.7997 Y99.0072 Z-0.8180 F1800
G01 X122.8101 Y98.7244 Z-0.7871 F1800
G01 X122.8252 Y98.4380 Z-0.7564 F1800
G01 X122.8447 Y98.1521 Z-0.7264 F1800
G01 X122.8561 Y98.0107 Z-0.7117 F1800
G01 X122.8688 Y97.8709 Z-0.6973 F1800
G01 X122.8829 Y97.7331 Z-0.6832 F1800
G01 X122.8990 Y97.5980 Z-0.6689 F1800
G01 X122.9193 Y97.4685 Z-0.6534 F1800
G01 X122.9998 Y96.9968 Z-0.5998 F1800
G01 X123.0355 Y96.7993 Z-0.5790 F1800
G01 X123.0736 Y96.6027 Z-0.5578 F1800
G01 X123.1112 Y96.4221 Z-0.5383 F1800
G01 X123.1343 Y96.3172 Z-0.5268 F1800
G01 X123.1550 Y96.2272 Z-0.5169 F1800
G01 X123.1762 Y96.1373 Z-0.5066 F1800
G01 Z-0.7599 F1800
G01 X123.1343 Y96.3172 Z-0.7901 F1800
G01 X123.1112 Y96.4221 Z-0.8074 F1800
G01 X123.0736 Y96.6027 Z-0.8368 F1800
G01 X123.0355 Y96.7993 Z-0.8685 F1800
G01 X122.9998 Y96.9968 Z-0.8997 F1800
G01 X122.9500 Y97.2863 Z-0.9478 F1800
G01 X122.9193 Y97.4685 Z-0.9801 F1800
G01 X122.8990 Y97.5980 Z-1.0033 F1800
G01 X122.8829 Y97.7331 Z-1.0248 F1800
G01 X122.8688 Y97.8709 Z-1.0460 F1800
G01 X122.8561 Y98.0107 Z-1.0676 F1800
G01 X122.8344 Y98.2947 Z-1.1119 F1800
G01 X122.8171 Y98.5814 Z-1.1575 F1800
G01 X122.8043 Y98.8665 Z-1.2038 F1800
G01 X122.7965 Y99.1462 Z-1.2500 F1800
G01 X122.7976 Y99.2824 Z-1.2696 F1800
G01 X122.8036 Y99.4154 Z-1.2854 F1800
G01 X122.8125 Y99.5452 Z-1.2994 F1800
G01 X122.8233 Y99.6717 Z-1.3126 F1800
G01 X122.8362 Y99.7952 Z-1.3252 F1800
G01 X122.8506 Y99.9160 Z-1.3378 F1800
G01 X122.8667 Y100.0353 Z-1.3511 F1800
G01 X122.8854 Y100.1546 Z-1.3650 F1800
G01 X122.9039 Y100.2646 Z-1.3787 F1800
G01 X122.9257 Y100.3879 Z-1.3934 F1800
G01 X122.9543 Y100.5415 Z-1.4121 F1800
G01 X122.9782 Y100.6636 Z-1.4272 F1800
G01 X123.0364 Y100.9388 Z-1.4618 F1800
G01 X123.0720 Y101.0937 Z-1.4816 F1800
G01 X123.1006 Y101.2134 Z-1.4973 F1800
G01 X123.1395 Y101.3692 Z-1.5181 F1800
G01 X123.1707 Y101.4877 Z-1.5340 F1800
G01 X123.2134 Y101.6443 Z-1.5556 F1800
G01 X123.2471 Y101.7616 Z-1.5718 F1800
G01 X123.2942 Y101.9189 Z-1.5940 F1800
G01 X123.3304 Y102.0352 Z-1.6106 F1800
G01 X123.3823 Y102.1930 Z-1.6330 F1800
G01 X123.4222 Y102.3078 Z-1.6490 F1800
G01 X123.4800 Y102.4654 Z-1.6706 F1800
G01 X123.5245 Y102.5782 Z-1.6849 F1800
G01 X123.5921 Y102.7332 Z-1.7013 F1800
G01 X123.6425 Y102.8432 Z-1.7125 F1800
G01 X123.7145 Y102.9983 Z-1.7299 F1800
G01 X123.7662 Y103.1082 Z-1.7434 F1800
G01 X123.8409 Y103.2646 Z-1.7642 F1800
G01 X123.8942 Y103.3744 Z-1.7798 F1800
G01 X123.9743 Y103.5304 Z-1.8009 F1800
G01 X124.0321 Y103.6384 Z-1.8154 F1800
G01 X124.1184 Y103.7932 Z-1.8359 F1800
G01 X124.1804 Y103.8995 Z-1.8496 F1800
G01 X124.2718 Y104.0538 Z-1.8709 F1800
G01 X124.3359 Y104.1602 Z-1.8867 F1800
G01 X124.4304 Y104.3155 Z-1.9116 F1800
G01 X124.4965 Y104.4222 Z-1.9296 F1800
G01 X124.5851 Y104.5591 Z-1.9520 F1800
G01 X124.6790 Y104.6993 Z-1.9753 F1800
G01 X124.7605 Y104.8181 Z-1.9957 F1800
G01 X124.8585 Y104.9580 Z-2.0207 F1800
G01 X124.9434 Y105.0770 Z-2.0430 F1800
G01 X125.0452 Y105.2172 Z-2.0705 F1800
G01 X125.1332 Y105.3365 Z-2.0950 F1800
G01 X125.2388 Y105.4772 Z-2.1252 F1800
G01 X125.4271 Y105.7135 Z-2.1831 F1800
G01 X125.4767 Y105.7722 Z-2.1996 F1800
G01 X125.6530 Y105.9765 Z-2.2564 F1800
G01 X125.8240 Y106.1691 Z-2.3100 F1800
G01 X126.0144 Y106.3766 Z-2.3677 F1800
G01 X126.1406 Y106.5104 Z-2.4047 F1800
G01 X126.3269 Y106.7023 Z-2.4576 F1800
G01 X126.4595 Y106.8342 Z-2.4935 F1800
G01 X126.5947 Y106.9652 Z-2.5289 F1800
G01 X126.6729 Y107.0398 Z-2.5492 F1800
G01 X126.8128 Y107.1693 Z-2.5838 F1800
G01 X126.9556 Y107.2971 Z-2.6176 F1800
G01 X127.0158 Y107.3501 Z-2.6317 F1800
G01 X127.1614 Y107.4748 Z-2.6644 F1800
G01 X127.3099 Y107.5972 Z-2.6962 F1800
G01 X127.4612 Y107.7175 Z-2.7273 F1800
G01 X127.5546 Y107.7897 Z-2.7460 F1800
G01 X127.7423 Y107.9293 Z-2.7822 F1800
G01 X127.9031 Y108.0437 Z-2.8122 F1800
G01 X128.0677 Y108.1556 Z-2.8418 F1800
G01 X128.1448 Y108.2069 Z-2.8543 F1800
G01 X128.1912 Y108.2421 Z-2.8584 F1800
G01 X128.7067 Y107.9826 Z-2.3359 F1800
G01 X129.5811 Y107.5767 Z-1.4247 F1800
G01 X129.3011 Y107.7042 Z-1.7215 F1800
G01 X128.9710 Y107.8567 Z-2.0643 F1800
G01 X128.6919 Y107.9898 Z-2.3510 F1800
G01 X128.5357 Y108.0666 Z-2.5105 F1800
G01 X128.3703 Y108.1506 Z-2.6790 F1800
G01 X128.2028 Y108.2629 Z-2.8504 F1800
G01 X128.2427 Y108.3461 Z-2.8139 F1800
G01 X128.3491 Y108.5581 Z-2.7187 F1800
G01 X128.4315 Y108.6898 Z-2.6456 F1800
G01 X128.6123 Y108.9260 Z-2.4869 F1800
G01 X128.7765 Y109.1176 Z-2.3464 F1800
G01 X128.9496 Y109.3006 Z-2.2018 F1800
G01 X129.1281 Y109.4744 Z-2.0569 F1800
G01 X129.3105 Y109.6384 Z-1.9132 F1800
G01 X129.4952 Y109.7922 Z-1.7725 F1800
G01 X129.6806 Y109.9352 Z-1.6362 F1800
G01 X129.8648 Y110.0672 Z-1.5059 F1800
G01 X130.0466 Y110.1881 Z-1.3828 F1800
G01 X130.2257 Y110.2977 Z-1.2663 F1800
G01 X130.4005 Y110.3964 Z-1.1579 F1800
G01 X130.5698 Y110.4850 Z-1.0582 F1800
G01 X130.7348 Y110.5633 Z-0.9652 F1800
G01 X130.8936 Y110.6332 Z-0.8807 F1800
G01 X131.0481 Y110.6942 Z-0.8019 F1800
G01 X131.1971 Y110.7487 Z-0.7304 F1800
G01 X131.3426 Y110.7964 Z-0.6633 F1800
G01 X131.4504 Y110.8293 Z-0.6157 F1800
G01 X131.5939 Y110.8698 Z-0.5550 F1800
G01 X131.7329 Y110.9044 Z-0.4986 F1800
G01 X131.8669 Y110.9341 Z-0.4479 F1800
G01 X131.9969 Y110.9582 Z-0.4020 F1800
G01 X132.0605 Y110.9682 Z-0.3809 F1800
G01 X132.1233 Y110.9770 Z-0.3610 F1800
G01 X132.1853 Y110.9847 Z-0.3423 F1800
G01 X132.2466 Y110.9914 Z-0.3248 F1800
G01 X132.3076 Y110.9970 Z-0.3084 F1800
G01 X132.3683 Y111.0015 Z-0.2926 F1800
G01 X132.4291 Y111.0053 Z-0.2778 F1800
G01 X132.4900 Y111.0083 Z-0.2637 F1800
G01 X132.5515 Y111.0106 Z-0.2503 F1800
G01 X132.6137 Y111.0122 Z-0.2375 F1800
G01 X132.7494 Y111.0143 Z-0.2110 F1800
G01 X132.8274 Y111.0160 Z-0.1952 F1800
G01 X132.8984 Y111.0188 Z-0.1798 F1800
G01 X132.9622 Y111.0223 Z-0.1646 F1800
G01 X133.0189 Y111.0261 Z-0.1494 F1800
G01 X133.0685 Y111.0296 Z-0.1337 F1800
G01 X133.1110 Y111.0325 Z-0.1176 F1800
G01 X133.1464 Y111.0350 Z-0.1014 F1800
G01 X133.1745 Y111.0369 Z-0.0859 F1800
G01 X133.2088 Y111.0393 Z-0.0609 F1800
G01 X133.1873 Y111.0375 Z-0.0777 F1800
G01 X133.1626 Y111.0357 Z-0.0929 F1800
G01 X133.1300 Y111.0334 Z-0.1093 F1800
G01 X133.0893 Y111.0307 Z-0.1261 F1800
G01 X133.0405 Y111.0274 Z-0.1429 F1800
G01 X132.9833 Y111.0235 Z-0.1592 F1800
G01 X132.9383 Y111.0208 Z-0.1706 F1800
G01 X132.8818 Y111.0180 Z-0.1835 F1800
G01 X132.8515 Y111.0168 Z-0.1902 F1800
G01 X132.7874 Y111.0149 Z-0.2036 F1800
G01 X132.6152 Y111.0123 Z-0.2372 F1800
G01 X132.5799 Y111.0115 Z-0.2443 F1800
G01 X132.5099 Y111.0091 Z-0.2593 F1800
G01 X132.4415 Y111.0060 Z-0.2749 F1800
G01 X132.4083 Y111.0041 Z-0.2827 F1800
G01 X132.3450 Y111.0000 Z-0.2985 F1800
G01 X132.3151 Y110.9976 Z-0.3063 F1800
G01 X132.2558 Y110.9923 Z-0.3223 F1800
G01 X132.1606 Y110.9818 Z-0.3495 F1800
G01 X132.0650 Y110.9688 Z-0.3794 F1800
G01 X131.9691 Y110.9536 Z-0.4115 F1800
G01 X131.8831 Y110.9374 Z-0.4420 F1800
G01 X131.7902 Y110.9176 Z-0.4765 F1800
G01 X131.6969 Y110.8959 Z-0.5128 F1800
G01 X131.6034 Y110.8722 Z-0.5511 F1800
G01 X131.5090 Y110.8464 Z-0.5906 F1800
G01 X131.3889 Y110.8108 Z-0.6426 F1800
G01 X131.2685 Y110.7731 Z-0.6967 F1800
G01 X131.1673 Y110.7383 Z-0.7442 F1800
G01 X131.0515 Y110.6955 Z-0.8003 F1800
G01 X130.9353 Y110.6503 Z-0.8588 F1800
G01 X130.8440 Y110.6122 Z-0.9063 F1800
G01 X130.7326 Y110.5623 Z-0.9664 F1800
G01 X130.6210 Y110.5102 Z-1.0285 F1800
G01 X130.5405 Y110.4702 Z-1.0749 F1800
G01 X130.4338 Y110.4144 Z-1.1377 F1800
G01 X130.3269 Y110.3565 Z-1.2026 F1800
G01 X130.2581 Y110.3169 Z-1.2458 F1800
G01 X130.1564 Y110.2564 Z-1.3102 F1800
G01 X130.0545 Y110.1931 Z-1.3775 F1800
G01 X129.9980 Y110.1570 Z-1.4150 F1800
G01 X129.9013 Y110.0921 Z-1.4807 F1800
G01 X129.8045 Y110.0258 Z-1.5478 F1800
G01 X129.7606 Y109.9946 Z-1.5787 F1800
G01 X129.5773 Y109.8578 Z-1.7112 F1800
G01 X129.5458 Y109.8329 Z-1.7347 F1800
G01 X129.3728 Y109.6923 Z-1.8650 F1800
G01 X129.1901 Y109.5325 Z-2.0073 F1800
G01 X129.1049 Y109.4526 Z-2.0754 F1800
G01 X129.0254 Y109.4011 Z-2.1159 F1800
G01 X128.9578 Y109.3089 Z-2.1951 F1800
G01 X128.8791 Y109.2287 Z-2.2598 F1800
G01 X128.7776 Y109.1188 Z-2.3454 F1800
G01 X128.6669 Y108.9926 Z-2.4395 F1800
G01 X128.5698 Y108.8740 Z-2.5237 F1800
G01 X128.4549 Y108.8421 Z-2.5142 F1800
G01 X128.3355 Y108.8280 Z-2.4811 F1800
G00 Z30.0000 F480
G00 X124.4542 Y111.2455 F2100
G01 Z-0.5956 F1800
G01 X124.5088 Y111.4371 Z-0.6505 F1800
G01 X124.5357 Y111.5266 Z-0.6760 F1800
G01 X124.5825 Y111.6165 Z-0.6955 F1800
G01 X124.8158 Y111.7360 Z-0.6678 F1800
G01 X124.9748 Y111.8191 Z-0.6507 F1800
G01 X125.1313 Y111.9026 Z-0.6355 F1800
G01 X125.2147 Y111.9480 Z-0.6281 F1800
G01 X125.2850 Y111.9846 Z-0.6215 F1800
G01 X125.3701 Y112.0257 Z-0.6125 F1800
G01 X125.5573 Y112.1114 Z-0.5920 F1800
G01 X125.7041 Y112.1780 Z-0.5773 F1800
G01 X125.8443 Y112.2430 Z-0.5653 F1800
G01 X125.9793 Y112.3070 Z-0.5564 F1800
G01 X126.1176 Y112.3737 Z-0.5506 F1800
G01 X126.2173 Y112.4240 Z-0.5486 F1800
G01 X126.3542 Y112.4957 Z-0.5483 F1800
G01 X126.4524 Y112.5496 Z-0.5504 F1800
G01 X126.5872 Y112.6263 Z-0.5559 F1800
G01 X126.6844 Y112.6840 Z-0.5620 F1800
G01 X126.8183 Y112.7663 Z-0.5732 F1800
G01 X126.9152 Y112.8276 Z-0.5832 F1800
G01 X127.0498 Y112.9156 Z-0.5998 F1800
G01 X127.1458 Y112.9833 Z-0.6151 F1800
G01 X127.2791 Y113.0870 Z-0.6422 F1800
G01 X127.3730 Y113.1669 Z-0.6656 F1800
G01 X127.5066 Y113.2908 Z-0.7053 F1800
G01 X127.5992 Y113.3841 Z-0.7374 F1800
G01 X127.7351 Y113.5320 Z-0.7913 F1800
G01 X127.8273 Y113.6399 Z-0.8325 F1800
G01 X127.9686 Y113.8138 Z-0.9014 F1800
G01 X128.0687 Y113.9024 Z-0.9344 F1800
G01 X128.2755 Y113.7722 Z-0.8508 F1800
G01 X128.4086 Y113.6907 Z-0.7992 F1800
G01 X128.5971 Y113.5846 Z-0.7321 F1800
G01 X128.7253 Y113.5191 Z-0.6907 F1800
G01 X128.8994 Y113.4393 Z-0.6405 F1800
G01 X129.0242 Y113.3890 Z-0.6089 F1800
G01 X129.1883 Y113.3320 Z-0.5731 F1800
G01 X129.3108 Y113.2964 Z-0.5509 F1800
G01 X129.4685 Y113.2598 Z-0.5282 F1800
G01 X129.5899 Y113.2388 Z-0.5153 F1800
G01 X129.7443 Y113.2214 Z-0.5047 F1800
G01 X129.8658 Y113.2150 Z-0.5010 F1800
G01 X130.1420 Y113.2057 Z-0.4985 F1800
G01 X130.4194 Y113.1920 Z-0.4982 F1800
G01 X130.6984 Y113.1738 Z-0.5000 F1800
G01 X130.8330 Y113.1635 Z-0.5017 F1800
G01 X130.9998 Y113.1492 Z-0.5044 F1800
G01 X131.1142 Y113.1376 Z-0.5062 F1800
G01 X131.2817 Y113.1173 Z-0.5086 F1800
G01 X131.4466 Y113.0947 Z-0.5102 F1800
G01 X131.6186 Y113.0703 F1800
G01 X131.7002 Y113.0593 Z-0.5091 F1800
G01 X131.7556 Y113.0527 Z-0.5076 F1800
G01 X131.8365 Y113.0557 Z-0.4990 F1800
G01 X131.9669 Y113.0673 Z-0.4805 F1800
G01 X132.0916 Y113.0768 Z-0.4626 F1800
G01 X132.2114 Y113.0841 Z-0.4453 F1800
G01 X132.3268 Y113.0893 Z-0.4284 F1800
G01 X132.4385 Y113.0924 Z-0.4120 F1800
G01 X132.5470 Y113.0933 Z-0.3961 F1800
G01 X132.6529 Y113.0921 Z-0.3806 F1800
G01 X132.7563 Y113.0887 Z-0.3656 F1800
G01 X132.8581 Y113.0805 Z-0.3499 F1800
G01 X132.9579 Y113.0696 Z-0.3344 F1800
G01 X133.0554 Y113.0575 Z-0.3199 F1800
G01 X133.1509 Y113.0442 Z-0.3064 F1800
G01 X133.2447 Y113.0297 Z-0.2938 F1800
G01 X133.3372 Y113.0140 Z-0.2820 F1800
G01 X133.4290 Y112.9970 Z-0.2707 F1800
G01 X133.5208 Y112.9763 Z-0.2587 F1800
G01 X133.6131 Y112.9533 Z-0.2465 F1800
G01 X133.7069 Y112.9286 Z-0.2342 F1800
G01 X133.8029 Y112.9020 Z-0.2217 F1800
G01 X133.8887 Y112.8774 Z-0.2107 F1800
G01 X134.0254 Y112.8361 Z-0.1935 F1800
G01 X134.1546 Y112.7948 Z-0.1777 F1800
G01 X134.2164 Y112.7742 Z-0.1703 F1800
G01 X134.2764 Y112.7535 Z-0.1632 F1800
G01 X134.3346 Y112.7325 Z-0.1564 F1800
G01 X134.3909 Y112.7116 Z-0.1500 F1800
G01 X134.4454 Y112.6906 Z-0.1439 F1800
G01 X134.4980 Y112.6691 Z-0.1380 F1800
G01 X134.5489 Y112.6477 Z-0.1325 F1800
G01 X134.5979 Y112.6262 Z-0.1273 F1800
G01 X134.6452 Y112.6043 Z-0.1224 F1800
G01 X134.6907 Y112.5825 Z-0.1179 F1800
G01 X134.7346 Y112.5604 Z-0.1138 F1800
G01 X134.7767 Y112.5381 Z-0.1099 F1800
G01 X134.8174 Y112.5157 Z-0.1066 F1800
G01 X134.8565 Y112.4931 Z-0.1037 F1800
G01 X134.8940 Y112.4699 Z-0.1010 F1800
G01 X134.9758 Y112.4169 Z-0.0961 F1800
G01 X135.0863 Y112.3433 Z-0.0888 F1800
G01 X135.2008 Y112.2647 Z-0.0803 F1800
G01 X135.3103 Y112.1870 Z-0.0710 F1800
G01 X135.3840 Y112.1332 Z-0.0641 F1800
G01 X135.4269 Y112.1007 Z-0.0595 F1800
G01 X135.4807 Y112.0601 Z-0.0532 F1800
G01 X135.5566 Y112.0016 Z-0.0421 F1800
G01 X135.6110 Y111.9595 Z-0.0310 F1800
G01 X135.6453 Y111.9330 Z-0.0207 F1800
G01 X135.6860 Y111.9053 Z0.0000 F1800
G01 X135.6585 Y111.9224 Z-0.0147 F1800
G01 X135.6400 Y111.9369 Z-0.0226 F1800
G01 X135.6062 Y111.9632 Z-0.0322 F1800
G01 X135.5584 Y112.0002 Z-0.0418 F1800
G01 X135.4975 Y112.0470 Z-0.0510 F1800
G01 X135.4247 Y112.1023 Z-0.0598 F1800
G01 X135.3407 Y112.1648 Z-0.0682 F1800
G01 X135.2461 Y112.2327 Z-0.0765 F1800
G01 X135.1422 Y112.3050 Z-0.0847 F1800
G01 X135.0302 Y112.3807 Z-0.0925 F1800
G01 X134.9114 Y112.4588 Z-0.0999 F1800
G01 X134.8180 Y112.5153 Z-0.1065 F1800
G01 X134.7494 Y112.5527 Z-0.1124 F1800
G01 X134.6837 Y112.5859 Z-0.1186 F1800
G01 X134.6109 Y112.6203 Z-0.1259 F1800
G01 X134.5428 Y112.6503 Z-0.1332 F1800
G01 X134.4670 Y112.6819 Z-0.1415 F1800
G01 X134.3980 Y112.7089 Z-0.1492 F1800
G01 X134.3204 Y112.7377 Z-0.1581 F1800
G01 X134.2581 Y112.7599 Z-0.1654 F1800
G01 X134.1474 Y112.7972 Z-0.1785 F1800
G01 X134.0359 Y112.8329 Z-0.1922 F1800
G01 X133.9258 Y112.8665 Z-0.2059 F1800
G01 X133.8192 Y112.8974 Z-0.2196 F1800
G01 X133.6712 Y112.9382 Z-0.2388 F1800
G01 X133.5839 Y112.9608 Z-0.2503 F1800
G01 X133.5447 Y112.9705 Z-0.2555 F1800
G01 X133.4775 Y112.9865 Z-0.2643 F1800
G01 X133.4293 Y112.9969 Z-0.2707 F1800
G01 X133.3786 Y113.0067 Z-0.2768 F1800
G01 X133.2675 Y113.0260 Z-0.2908 F1800
G01 X133.2033 Y113.0364 Z-0.2992 F1800
G01 X133.1349 Y113.0466 Z-0.3086 F1800
G01 X133.0637 Y113.0564 Z-0.3187 F1800
G01 X132.9910 Y113.0658 Z-0.3293 F1800
G01 X132.9181 Y113.0743 Z-0.3404 F1800
G01 X132.8465 Y113.0817 Z-0.3517 F1800
G01 X132.7668 Y113.0882 Z-0.3641 F1800
G01 X132.6684 Y113.0918 Z-0.3783 F1800
G01 X132.5694 Y113.0933 Z-0.3928 F1800
G01 X132.4701 Y113.0929 Z-0.4073 F1800
G01 X132.3706 Y113.0908 Z-0.4219 F1800
G01 X132.2712 Y113.0871 Z-0.4365 F1800
G01 X132.1720 Y113.0819 Z-0.4510 F1800
G01 X132.0733 Y113.0755 Z-0.4653 F1800
G01 X131.9752 Y113.0680 Z-0.4793 F1800
G01 X131.8780 Y113.0596 Z-0.4931 F1800
G01 X131.7817 Y113.0503 Z-0.5065 F1800
G01 X131.6900 Y113.0606 Z-0.5092 F1800
G01 X131.5995 Y113.0729 Z-0.5103 F1800
G01 X131.4219 Y113.0982 Z-0.5101 F1800
G01 X131.3349 Y113.1104 Z-0.5092 F1800
G01 X131.1655 Y113.1316 Z-0.5070 F1800
G01 X131.0836 Y113.1410 Z-0.5056 F1800
G01 X131.0037 Y113.1488 Z-0.5044 F1800
G01 X130.8167 Y113.1649 Z-0.5014 F1800
G01 X130.5169 Y113.1864 Z-0.4984 F1800
G01 X130.2169 Y113.2028 Z-0.4980 F1800
G01 X129.9167 Y113.2138 Z-0.5003 F1800
G01 X129.8666 Y113.2149 Z-0.5010 F1800
G01 X129.8140 Y113.2168 Z-0.5021 F1800
G01 X129.7613 Y113.2200 Z-0.5039 F1800
G01 X129.7084 Y113.2247 Z-0.5065 F1800
G01 X129.6640 Y113.2295 Z-0.5092 F1800
G01 X129.6192 Y113.2348 Z-0.5127 F1800
G01 X129.5740 Y113.2412 Z-0.5168 F1800
G01 X129.5284 Y113.2486 Z-0.5214 F1800
G01 X129.4823 Y113.2571 Z-0.5265 F1800
G01 X129.4357 Y113.2667 Z-0.5323 F1800
G01 X129.3884 Y113.2775 Z-0.5387 F1800
G01 X129.3499 Y113.2866 Z-0.5446 F1800
G01 X129.3108 Y113.2964 Z-0.5509 F1800
G01 X129.2712 Y113.3071 Z-0.5577 F1800
G01 X129.2311 Y113.3188 Z-0.5650 F1800
G01 X129.1904 Y113.3313 Z-0.5727 F1800
G01 X129.1490 Y113.3449 Z-0.5810 F1800
G01 X129.1069 Y113.3594 Z-0.5898 F1800
G01 X129.0636 Y113.3746 Z-0.5996 F1800
G01 X129.0306 Y113.3866 Z-0.6073 F1800
G01 X128.9970 Y113.3994 Z-0.6155 F1800
G01 X128.9629 Y113.4129 Z-0.6240 F1800
G01 X128.9283 Y113.4271 Z-0.6329 F1800
G01 X128.8932 Y113.4421 Z-0.6422 F1800
G01 X128.8574 Y113.4578 Z-0.6519 F1800
G01 X128.8210 Y113.4744 Z-0.6621 F1800
G01 X128.7835 Y113.4916 Z-0.6731 F1800
G01 X128.7451 Y113.5096 Z-0.6847 F1800
G01 X128.7059 Y113.5286 Z-0.6968 F1800
G01 X128.6659 Y113.5487 Z-0.7095 F1800
G01 X128.6251 Y113.5698 Z-0.7228 F1800
G01 X128.5833 Y113.5921 Z-0.7368 F1800
G01 X128.5263 Y113.6237 Z-0.7564 F1800
G01 X128.4666 Y113.6573 Z-0.7778 F1800
G01 X128.4043 Y113.6932 Z-0.8008 F1800
G01 X128.3399 Y113.7320 Z-0.8255 F1800
G01 X128.2731 Y113.7737 Z-0.8518 F1800
G01 X128.2068 Y113.8162 Z-0.8785 F1800
G01 X128.0989 Y113.8837 Z-0.9222 F1800
G01 X128.0443 Y113.9651 Z-0.9383 F1800
G01 X127.9603 Y114.6362 Z-0.8923 F1800
G01 X127.9082 Y114.9955 Z-0.8676 F1800
G01 X127.8596 Y115.3032 Z-0.8458 F1800
G01 X127.7953 Y115.6782 Z-0.8176 F1800
G01 X127.7522 Y115.9111 Z-0.7989 F1800
G01 X127.7086 Y116.1324 Z-0.7801 F1800
G01 X127.6644 Y116.3441 Z-0.7610 F1800
G01 X127.6191 Y116.5484 Z-0.7414 F1800
G01 X127.5960 Y116.6485 Z-0.7314 F1800
G01 X127.2923 Y117.7649 Z-0.5981 F1800
G01 X127.2406 Y117.9448 Z-0.5749 F1800
G01 X127.1883 Y118.1203 Z-0.5512 F1800
G01 X127.1351 Y118.2904 Z-0.5268 F1800
G01 X127.1020 Y118.3920 Z-0.5114 F1800
G01 X127.0464 Y118.5546 Z-0.4854 F1800
G01 X126.9897 Y118.7096 Z-0.4586 F1800
G01 X126.9317 Y118.8564 Z-0.4309 F1800
G01 X126.8723 Y118.9946 Z-0.4022 F1800
G01 X126.8111 Y119.1247 Z-0.3723 F1800
G01 X126.7473 Y119.2476 Z-0.3407 F1800
G01 X126.6794 Y119.3656 Z-0.3066 F1800
G01 X126.6048 Y119.4828 Z-0.2682 F1800
G01 X126.5185 Y119.6043 Z-0.2231 F1800
G01 X126.4123 Y119.7365 Z-0.1678 F1800
G01 X126.1401 Y120.0426 Z-0.0268 F1800
G01 X126.0883 Y120.1003 Z0.0000 F1800
G01 X126.4123 Y119.7365 Z-0.3356 F1800
G01 X126.5185 Y119.6043 Z-0.4461 F1800
G01 X126.6048 Y119.4828 Z-0.5363 F1800
G01 X126.6794 Y119.3656 Z-0.6132 F1800
G01 X126.7473 Y119.2476 Z-0.6814 F1800
G01 X126.8111 Y119.1247 Z-0.7446 F1800
G01 X126.8723 Y118.9946 Z-0.8044 F1800
G01 X126.9317 Y118.8564 Z-0.8618 F1800
G01 X126.9897 Y118.7096 Z-0.9172 F1800
G01 X127.0464 Y118.5546 Z-0.9709 F1800
G01 X127.1020 Y118.3920 Z-1.0229 F1800
G01 X127.1351 Y118.2904 Z-1.0535 F1800
G01 X127.1567 Y118.2225 Z-1.0734 F1800
G01 X127.2104 Y118.0472 Z-1.1224 F1800
G01 X127.2632 Y117.8670 Z-1.1702 F1800
G01 X127.3153 Y117.6829 Z-1.2168 F1800
G01 X127.4444 Y117.2093 Z-1.3304 F1800
G01 X127.5960 Y116.6485 Z-1.4628 F1800
G01 X127.6419 Y116.4471 Z-1.5026 F1800
G01 X127.6866 Y116.2393 Z-1.5412 F1800
G01 X127.7305 Y116.0231 Z-1.5791 F1800
G01 X127.7738 Y115.7962 Z-1.6166 F1800
G01 X127.8168 Y115.5569 Z-1.6540 F1800
G01 X127.8596 Y115.3032 Z-1.6917 F1800
G01 X127.9180 Y114.9310 Z-1.7442 F1800
G01 X127.9603 Y114.6362 Z-1.7846 F1800
G01 X128.0443 Y113.9651 Z-1.8765 F1800
G01 X128.0989 Y113.8837 Z-1.8443 F1800
G01 X128.2068 Y113.8162 Z-1.7570 F1800
G01 X128.3068 Y113.7524 Z-1.6768 F1800
G01 X128.3724 Y113.7122 Z-1.6259 F1800
G01 X128.4357 Y113.6749 Z-1.5782 F1800
G01 X128.4968 Y113.6402 Z-1.5336 F1800
G01 X128.5550 Y113.6076 Z-1.4928 F1800
G01 X128.5833 Y113.5921 Z-1.4735 F1800
G01 X128.6251 Y113.5698 Z-1.4456 F1800
G01 X128.6659 Y113.5487 Z-1.4190 F1800
G01 X128.7059 Y113.5286 Z-1.3936 F1800
G01 X128.7451 Y113.5096 Z-1.3693 F1800
G01 X128.7835 Y113.4916 Z-1.3462 F1800
G01 X128.8210 Y113.4744 Z-1.3242 F1800
G01 X128.8574 Y113.4578 Z-1.3038 F1800
G01 X128.8932 Y113.4421 Z-1.2843 F1800
G01 X128.9283 Y113.4271 Z-1.2657 F1800
G01 X128.9629 Y113.4129 Z-1.2479 F1800
G01 X128.9970 Y113.3994 Z-1.2309 F1800
G01 X129.0306 Y113.3866 Z-1.2147 F1800
G01 X129.0636 Y113.3746 Z-1.1992 F1800
G01 X129.1069 Y113.3594 Z-1.1797 F1800
G01 X129.1490 Y113.3449 Z-1.1620 F1800
G01 X129.1904 Y113.3313 Z-1.1454 F1800
G01 X129.2311 Y113.3188 Z-1.1299 F1800
G01 X129.2712 Y113.3071 Z-1.1154 F1800
G01 X129.3108 Y113.2964 Z-1.1018 F1800
G01 X129.3499 Y113.2866 Z-1.0892 F1800
G01 X129.3884 Y113.2775 Z-1.0774 F1800
G01 X129.4357 Y113.2667 Z-1.0646 F1800
G01 X129.4823 Y113.2571 Z-1.0531 F1800
G01 X129.5284 Y113.2486 Z-1.0427 F1800
G01 X129.5740 Y113.2412 Z-1.0335 F1800
G01 X129.6192 Y113.2348 Z-1.0254 F1800
G01 X129.6640 Y113.2295 Z-1.0184 F1800
G01 X129.7084 Y113.2247 Z-1.0129 F1800
G01 X129.7613 Y113.2200 Z-1.0079 F1800
G01 X129.8140 Y113.2168 Z-1.0043 F1800
G01 X129.8666 Y113.2149 Z-1.0020 F1800
G01 X129.9167 Y113.2138 Z-1.0005 F1800
G01 X130.2169 Y113.2028 Z-0.9960 F1800
G01 X130.5169 Y113.1864 Z-0.9968 F1800
G01 X130.8167 Y113.1649 Z-1.0028 F1800
G01 X131.0037 Y113.1488 Z-1.0088 F1800
G01 X131.0836 Y113.1410 Z-1.0113 F1800
G01 X131.1655 Y113.1316 Z-1.0141 F1800
G01 X131.2494 Y113.1214 Z-1.0164 F1800
G01 X131.3349 Y113.1104 Z-1.0183 F1800
G01 X131.4219 Y113.0982 Z-1.0201 F1800
G01 X131.5101 Y113.0856 Z-1.0210 F1800
G01 X131.5995 Y113.0729 Z-1.0206 F1800
G01 X131.6900 Y113.0606 Z-1.0185 F1800
G01 X131.7817 Y113.0503 Z-1.0131 F1800
G01 X131.8780 Y113.0596 Z-0.9862 F1800
G01 X131.9752 Y113.0680 Z-0.9587 F1800
G01 X132.0733 Y113.0755 Z-0.9305 F1800
G01 X132.1720 Y113.0819 Z-0.9019 F1800
G01 X132.2712 Y113.0871 Z-0.8729 F1800
G01 X132.3706 Y113.0908 Z-0.8438 F1800
G01 X132.4701 Y113.0929 Z-0.8146 F1800
G01 X132.5694 Y113.0933 Z-0.7855 F1800
G01 X132.6684 Y113.0918 Z-0.7567 F1800
G01 X132.7668 Y113.0882 Z-0.7282 F1800
G01 X132.8465 Y113.0817 Z-0.7034 F1800
G01 X132.9181 Y113.0743 Z-0.6808 F1800
G01 X132.9910 Y113.0658 Z-0.6587 F1800
G01 X133.0637 Y113.0564 Z-0.6374 F1800
G01 X133.1349 Y113.0466 Z-0.6172 F1800
G01 X133.2033 Y113.0364 Z-0.5984 F1800
G01 X133.2675 Y113.0260 Z-0.5816 F1800
G01 X133.3786 Y113.0067 Z-0.5536 F1800
G01 X133.4293 Y112.9969 Z-0.5413 F1800
G01 X133.4775 Y112.9865 Z-0.5286 F1800
G01 X133.5447 Y112.9705 Z-0.5109 F1800
G01 X133.6262 Y112.9500 Z-0.4895 F1800
G01 X133.7186 Y112.9254 Z-0.4653 F1800
G01 X133.8192 Y112.8974 Z-0.4392 F1800
G01 X133.9258 Y112.8665 Z-0.4119 F1800
G01 X134.0359 Y112.8329 Z-0.3843 F1800
G01 X134.1474 Y112.7972 Z-0.3570 F1800
G01 X134.2030 Y112.7787 Z-0.3437 F1800
G01 X134.2581 Y112.7599 Z-0.3307 F1800
G01 X134.3204 Y112.7377 Z-0.3162 F1800
G01 X134.3980 Y112.7089 Z-0.2985 F1800
G01 X134.4670 Y112.6819 Z-0.2829 F1800
G01 X134.5428 Y112.6503 Z-0.2663 F1800
G01 X134.6109 Y112.6203 Z-0.2518 F1800
G01 X134.6837 Y112.5859 Z-0.2371 F1800
G01 X134.7494 Y112.5527 Z-0.2247 F1800
G01 X134.8180 Y112.5153 Z-0.2131 F1800
G01 X134.9114 Y112.4588 Z-0.1998 F1800
G01 X135.0302 Y112.3807 Z-0.1850 F1800
G01 X135.1422 Y112.3050 Z-0.1694 F1800
G01 X135.2461 Y112.2327 Z-0.1530 F1800
G01 X135.3407 Y112.1648 Z-0.1363 F1800
G01 X135.4247 Y112.1023 Z-0.1196 F1800
G01 X135.4975 Y112.0470 Z-0.1021 F1800
G01 X135.5584 Y112.0002 Z-0.0836 F1800
G01 X135.6062 Y111.9632 Z-0.0643 F1800
G01 X135.6400 Y111.9369 Z-0.0453 F1800
G01 X135.6585 Y111.9224 Z-0.0294 F1800
G01 X135.6860 Y111.9053 Z0.0000 F1800
G01 X135.6453 Y111.9330 Z-0.0415 F1800
G01 X135.6110 Y111.9595 Z-0.0620 F1800
G01 X135.5566 Y112.0016 Z-0.0842 F1800
G01 X135.4807 Y112.0601 Z-0.1065 F1800
G01 X135.4269 Y112.1007 Z-0.1191 F1800
G01 X135.3840 Y112.1332 Z-0.1282 F1800
G01 X135.2839 Y112.2061 Z-0.1467 F1800
G01 X135.2008 Y112.2647 Z-0.1606 F1800
G01 X135.0863 Y112.3433 Z-0.1776 F1800
G01 X134.9758 Y112.4169 Z-0.1922 F1800
G01 X134.8940 Y112.4699 Z-0.2020 F1800
G01 X134.8565 Y112.4931 Z-0.2073 F1800
G01 X134.8174 Y112.5157 Z-0.2132 F1800
G01 X134.7767 Y112.5381 Z-0.2199 F1800
G01 X134.7346 Y112.5604 Z-0.2275 F1800
G01 X134.6907 Y112.5825 Z-0.2358 F1800
G01 X134.6452 Y112.6043 Z-0.2448 F1800
G01 X134.5979 Y112.6262 Z-0.2546 F1800
G01 X134.5489 Y112.6477 Z-0.2650 F1800
G01 X134.4980 Y112.6691 Z-0.2760 F1800
G01 X134.4454 Y112.6906 Z-0.2879 F1800
G01 X134.3909 Y112.7116 Z-0.3000 F1800
G01 X134.3346 Y112.7325 Z-0.3129 F1800
G01 X134.2764 Y112.7535 Z-0.3265 F1800
G01 X134.2164 Y112.7742 Z-0.3405 F1800
G01 X134.1546 Y112.7948 Z-0.3553 F1800
G01 X134.0909 Y112.8155 Z-0.3708 F1800
G01 X133.9580 Y112.8568 Z-0.4038 F1800
G01 X133.8887 Y112.8774 Z-0.4213 F1800
G01 X133.8029 Y112.9020 Z-0.4434 F1800
G01 X133.7069 Y112.9286 Z-0.4683 F1800
G01 X133.6131 Y112.9533 Z-0.4929 F1800
G01 X133.5208 Y112.9763 Z-0.5173 F1800
G01 X133.4290 Y112.9970 Z-0.5414 F1800
G01 X133.3372 Y113.0140 Z-0.5639 F1800
G01 X133.2447 Y113.0297 Z-0.5876 F1800
G01 X133.1509 Y113.0442 Z-0.6128 F1800
G01 X133.0554 Y113.0575 Z-0.6398 F1800
G01 X132.9579 Y113.0696 Z-0.6687 F1800
G01 X132.8581 Y113.0805 Z-0.6997 F1800
G01 X132.7563 Y113.0887 Z-0.7312 F1800
G01 X132.6529 Y113.0921 Z-0.7612 F1800
G01 X132.5470 Y113.0933 Z-0.7921 F1800
G01 X132.4385 Y113.0924 Z-0.8240 F1800
G01 X132.3268 Y113.0893 Z-0.8568 F1800
G01 X132.2114 Y113.0841 Z-0.8905 F1800
G01 X132.0916 Y113.0768 Z-0.9253 F1800
G01 X131.9669 Y113.0673 Z-0.9610 F1800
G01 X131.8365 Y113.0557 Z-0.9979 F1800
G01 X131.7556 Y113.0527 Z-1.0153 F1800
G01 X131.7002 Y113.0593 Z-1.0181 F1800
G01 X131.6186 Y113.0703 Z-1.0203 F1800
G01 X131.5679 Y113.0774 Z-1.0209 F1800
G01 X131.4466 Y113.0947 Z-1.0205 F1800
G01 X131.3760 Y113.1047 Z-1.0193 F1800
G01 X131.2817 Y113.1173 Z-1.0172 F1800
G01 X131.1980 Y113.1277 Z-1.0151 F1800
G01 X131.1142 Y113.1376 Z-1.0124 F1800
G01 X130.9998 Y113.1492 Z-1.0087 F1800
G01 X130.8330 Y113.1635 Z-1.0033 F1800
G01 X130.6984 Y113.1738 Z-1.0001 F1800
G01 X130.5742 Y113.1824 Z-0.9979 F1800
G01 X130.4194 Y113.1920 Z-0.9963 F1800
G01 X130.2962 Y113.1986 Z-0.9961 F1800
G01 X130.1420 Y113.2057 Z-0.9970 F1800
G01 X130.0197 Y113.2103 Z-0.9987 F1800
G01 X129.8658 Y113.2150 Z-1.0020 F1800
G01 X129.7443 Y113.2214 Z-1.0094 F1800
G01 X129.5899 Y113.2388 Z-1.0305 F1800
G01 X129.4685 Y113.2598 Z-1.0564 F1800
G01 X129.3108 Y113.2964 Z-1.1019 F1800
G01 X129.1883 Y113.3320 Z-1.1462 F1800
G01 X129.0242 Y113.3890 Z-1.2177 F1800
G01 X128.8994 Y113.4393 Z-1.2810 F1800
G01 X128.7253 Y113.5191 Z-1.3815 F1800
G01 X128.5971 Y113.5846 Z-1.4642 F1800
G01 X128.4086 Y113.6907 Z-1.5984 F1800
G01 X128.2755 Y113.7722 Z-1.7017 F1800
G01 X128.0687 Y113.9024 Z-1.8689 F1800
G01 X127.9686 Y113.8138 Z-1.8029 F1800
G01 X127.8273 Y113.6399 Z-1.6651 F1800
G01 X127.7351 Y113.5320 Z-1.5826 F1800
G01 X127.5992 Y113.3841 Z-1.4748 F1800
G01 X127.5066 Y113.2908 Z-1.4107 F1800
G01 X127.3730 Y113.1669 Z-1.3313 F1800
G01 X127.2791 Y113.0870 Z-1.2844 F1800
G01 X127.1458 Y112.9833 Z-1.2301 F1800
G01 X127.0498 Y112.9156 Z-1.1996 F1800
G01 X126.9152 Y112.8276 Z-1.1663 F1800
G01 X126.8183 Y112.7663 Z-1.1464 F1800
G01 X126.6844 Y112.6840 Z-1.1241 F1800
G01 X126.5872 Y112.6263 Z-1.1118 F1800
G01 X126.4524 Y112.5496 Z-1.1008 F1800
G01 X126.3542 Y112.4957 Z-1.0967 F1800
G01 X126.2173 Y112.4240 Z-1.0971 F1800
G01 X126.1176 Y112.3737 Z-1.1013 F1800
G01 X125.9793 Y112.3070 Z-1.1128 F1800
G01 X125.8443 Y112.2430 Z-1.1305 F1800
G01 X125.7041 Y112.1780 Z-1.1545 F1800
G01 X125.5573 Y112.1114 Z-1.1841 F1800
G01 X125.3701 Y112.0257 Z-1.2250 F1800
G01 X125.2850 Y111.9846 Z-1.2430 F1800
G01 X125.2147 Y111.9480 Z-1.2563 F1800
G01 X125.1313 Y111.9026 Z-1.2710 F1800
G01 X125.0597 Y111.8641 Z-1.2845 F1800
G01 X124.9748 Y111.8191 Z-1.3014 F1800
G01 X124.9016 Y111.7806 Z-1.3168 F1800
G01 X124.7420 Y111.6980 Z-1.3525 F1800
G01 X124.5825 Y111.6165 Z-1.3909 F1800
G01 X124.5357 Y111.5266 Z-1.3519 F1800
G01 X124.5088 Y111.4371 Z-1.3009 F1800
G01 X124.4785 Y111.3324 Z-1.2410 F1800
G01 X124.4542 Y111.2455 Z-1.1911 F1800
G00 Z30.0000 F480
G00 X130.6770 Y115.6877 F2100
G01 Z-0.6313 F1800
G01 X130.6194 Y115.8646 Z-0.6055 F1800
G01 X130.5805 Y115.9774 Z-0.5895 F1800
G01 X130.5178 Y116.1499 Z-0.5660 F1800
G01 X130.4762 Y116.2589 Z-0.5518 F1800
G01 X130.4086 Y116.4276 Z-0.5308 F1800
G01 X130.3643 Y116.5330 Z-0.5182 F1800
G01 X130.2915 Y116.6985 Z-0.4994 F1800
G01 X130.2445 Y116.8005 Z-0.4882 F1800
G01 X130.2055 Y116.8819 Z-0.4799 F1800
G01 X130.1659 Y116.9630 Z-0.4710 F1800
G01 X130.1157 Y117.0617 Z-0.4606 F1800
G01 X130.0732 Y117.1417 Z-0.4524 F1800
G01 X130.0300 Y117.2214 Z-0.4434 F1800
G01 X129.9754 Y117.3163 Z-0.4322 F1800
G01 X129.9288 Y117.3948 Z-0.4234 F1800
G01 X129.8812 Y117.4729 Z-0.4136 F1800
G01 X129.8237 Y117.5646 Z-0.4028 F1800
G01 X129.7225 Y117.7192 Z-0.3844 F1800
G01 X129.6619 Y117.8080 Z-0.3738 F1800
G01 X129.5543 Y117.9613 Z-0.3562 F1800
G01 X129.4915 Y118.0480 Z-0.3465 F1800
G01 X129.3777 Y118.2006 Z-0.3300 F1800
G01 X129.3127 Y118.2856 Z-0.3213 F1800
G01 X129.1925 Y118.4381 Z-0.3057 F1800
G01 X129.1251 Y118.5217 Z-0.2975 F1800
G01 X128.9988 Y118.6745 Z-0.2831 F1800
G01 X128.9287 Y118.7570 Z-0.2753 F1800
G01 X128.7957 Y118.9104 Z-0.2616 F1800
G01 X128.7231 Y118.9923 Z-0.2544 F1800
G01 X128.5832 Y119.1465 Z-0.2408 F1800
G01 X128.5077 Y119.2279 Z-0.2337 F1800
G01 X128.3604 Y119.3830 Z-0.2199 F1800
G01 X128.2816 Y119.4639 Z-0.2123 F1800
G01 X128.1260 Y119.6196 Z-0.1970 F1800
G01 X128.0432 Y119.6997 Z-0.1882 F1800
G01 X127.9609 Y119.7776 Z-0.1792 F1800
G01 X127.8775 Y119.8544 Z-0.1687 F1800
G01 X127.8021 Y119.9197 Z-0.1590 F1800
G01 X127.7564 Y119.9573 Z-0.1537 F1800
G01 X127.7142 Y119.9906 Z-0.1468 F1800
G01 X127.6764 Y120.0206 Z-0.1397 F1800
G01 X127.6418 Y120.0462 Z-0.1309 F1800
G01 X127.6104 Y120.0676 Z-0.1204 F1800
G01 X127.5813 Y120.0844 Z-0.1073 F1800
G01 X127.5552 Y120.0975 Z-0.0930 F1800
G01 X127.5338 Y120.1083 Z-0.0796 F1800
G01 X127.5090 Y120.1205 Z-0.0612 F1800
G01 X127.5411 Y120.1044 Z-0.0844 F1800
G01 X127.5635 Y120.0932 Z-0.0978 F1800
G01 X127.5901 Y120.0798 Z-0.1119 F1800
G01 X127.6115 Y120.0669 Z-0.1208 F1800
G01 X127.6530 Y120.0377 Z-0.1339 F1800
G01 X127.7222 Y119.9843 Z-0.1482 F1800
G01 X127.8129 Y119.9109 Z-0.1601 F1800
G01 X127.8894 Y119.8435 Z-0.1702 F1800
G01 X127.9484 Y119.7891 Z-0.1777 F1800
G01 X128.0061 Y119.7350 Z-0.1843 F1800
G01 X128.0712 Y119.6730 Z-0.1911 F1800
G01 X128.1349 Y119.6107 Z-0.1979 F1800
G01 X128.2735 Y119.4721 Z-0.2116 F1800
G01 X128.3473 Y119.3966 Z-0.2185 F1800
G01 X128.4965 Y119.2398 Z-0.2327 F1800
G01 X128.5717 Y119.1591 Z-0.2397 F1800
G01 X128.7271 Y118.9878 Z-0.2547 F1800
