;Project front-back-3mm
;Created by Estlcam version 11 build 11,244
;Machining time about 00:05:55 hours

G90
M03 S24000
G00 Z30.0000 F480


;No. 1: Ausschnitt 8
G00 X29.0905 Y20.5432 F2100
G00 Z0.5000 F480
G01 Z0.0000 F100 S24000
G01 Z-1.0000 F100
G02 X29.4564 Y21.3280 I0.4095 J0.2868 F1800
G02 X29.9531 Y20.6187 I0.0436 J-0.4980 F1800
G02 X29.0905 Y20.5432 I-0.4531 J0.2113 F1800
G01 Z-2.0000 F100
G02 X29.4564 Y21.3280 I0.4095 J0.2868 F1800
G02 X29.9531 Y20.6187 I0.0436 J-0.4980 F1800
G02 X29.0905 Y20.5432 I-0.4531 J0.2113 F1800
G01 Z-3.0000 F100
G02 X29.4564 Y21.3280 I0.4095 J0.2868 F1800
G02 X29.9531 Y20.6187 I0.0436 J-0.4980 F1800
G02 X29.0905 Y20.5432 I-0.4531 J0.2113 F1800
G01 Z-4.0000 F100
G02 X29.4564 Y21.3280 I0.4095 J0.2868 F1800
G02 X29.9531 Y20.6187 I0.0436 J-0.4980 F1800
G02 X29.0905 Y20.5432 I-0.4531 J0.2113 F1800
G01 Z-5.0000 F100
G02 X29.4564 Y21.3280 I0.4095 J0.2868 F1800
G02 X29.9531 Y20.6187 I0.0436 J-0.4980 F1800
G02 X29.0905 Y20.5432 I-0.4531 J0.2113 F1800
G01 Z-6.0000 F100
G02 X29.4564 Y21.3280 I0.4095 J0.2868 F1800
G02 X29.9531 Y20.6187 I0.0436 J-0.4980 F1800
G02 X29.0905 Y20.5432 I-0.4531 J0.2113 F1800
G00 Z30.0000 F480


;No. 2: Ausschnitt 9
G00 X41.5000 Y21.8300 Z30.0000 F2100
G00 Z0.5000 F480
G01 Z0.0000 F100
G01 Z-1.0000 F100
G01 Y63.8300 F1800
G01 X98.5000 F1800
G01 Y21.8300 F1800
G01 X41.5000 F1800
G01 Z-2.0000 F100
G01 Y63.8300 F1800
G01 X98.5000 F1800
G01 Y21.8300 F1800
G01 X41.5000 F1800
G01 Z-3.0000 F100
G01 Y63.8300 F1800
G01 X98.5000 F1800
G01 Y21.8300 F1800
G01 X41.5000 F1800
G01 Z-4.0000 F100
G01 Y63.8300 F1800
G01 X98.5000 F1800
G01 Y21.8300 F1800
G01 X41.5000 F1800
G01 Z-5.0000 F100
G01 Y63.8300 F1800
G01 X98.5000 F1800
G01 Y21.8300 F1800
G01 X41.5000 F1800
G01 Z-6.0000 F100
G01 Y63.8300 F1800
G01 X98.5000 F1800
G01 Y21.8300 F1800
G01 X41.5000 F1800
G01 Z-7.0000 F100
G01 Y63.8300 F1800
G01 X98.5000 F1800
G01 Y21.8300 F1800
G01 X41.5000 F1800
G01 Z-8.0000 F100
G01 Y63.8300 F1800
G01 X98.5000 F1800
G01 Y21.8300 F1800
G01 X41.5000 F1800
G01 Z-9.0000 F100
G01 Y63.8300 F1800
G01 X98.5000 F1800
G01 Y21.8300 F1800
G01 X41.5000 F1800
G01 Z-10.0000 F100
G01 Y63.8300 F1800
G01 X98.5000 F1800
G01 Y21.8300 F1800
G01 X41.5000 F1800
G00 Z30.0000 F480


;No. 3: Ausschnitt 3
G00 X29.2967 Y64.3733 Z30.0000 F2100
G00 Z0.5000 F480
G01 Z0.0000 F100
G01 Z-1.0000 F100
G02 X29.2061 Y65.2345 I0.2033 J0.4567 F1800
G02 X29.9972 Y64.8823 I0.2939 J-0.4045 F1800
G02 X29.2967 Y64.3733 I-0.4972 J-0.0523 F1800
G01 Z-2.0000 F100
G02 X29.2061 Y65.2345 I0.2033 J0.4567 F1800
G02 X29.9972 Y64.8823 I0.2939 J-0.4045 F1800
G02 X29.2967 Y64.3733 I-0.4972 J-0.0523 F1800
G01 Z-3.0000 F100
G02 X29.2061 Y65.2345 I0.2033 J0.4567 F1800
G02 X29.9972 Y64.8823 I0.2939 J-0.4045 F1800
G02 X29.2967 Y64.3733 I-0.4972 J-0.0523 F1800
G01 Z-4.0000 F100
G02 X29.2061 Y65.2345 I0.2033 J0.4567 F1800
G02 X29.9972 Y64.8823 I0.2939 J-0.4045 F1800
G02 X29.2967 Y64.3733 I-0.4972 J-0.0523 F1800
G01 Z-5.0000 F100
G02 X29.2061 Y65.2345 I0.2033 J0.4567 F1800
G02 X29.9972 Y64.8823 I0.2939 J-0.4045 F1800
G02 X29.2967 Y64.3733 I-0.4972 J-0.0523 F1800
G01 Z-6.0000 F100
G02 X29.2061 Y65.2345 I0.2033 J0.4567 F1800
G02 X29.9972 Y64.8823 I0.2939 J-0.4045 F1800
G02 X29.2967 Y64.3733 I-0.4972 J-0.0523 F1800
G00 Z30.0000 F480


;No. 4: Ausschnitt 2
G00 X29.8208 Y78.0203 Z30.0000 F2100
G00 Z0.5000 F480
G01 Z0.0000 F100
G01 Z-1.0000 F100
G02 X29.6854 Y78.8755 I0.1792 J0.4667 F1800
G02 X30.4938 Y78.5652 I0.3146 J-0.3885 F1800
G02 X29.8208 Y78.0203 I-0.4938 J-0.0782 F1800
G01 Z-2.0000 F100
G02 X29.6854 Y78.8755 I0.1792 J0.4667 F1800
G02 X30.4938 Y78.5652 I0.3146 J-0.3885 F1800
G02 X29.8208 Y78.0203 I-0.4938 J-0.0782 F1800
G01 Z-3.0000 F100
G02 X29.6854 Y78.8755 I0.1792 J0.4667 F1800
G02 X30.4938 Y78.5652 I0.3146 J-0.3885 F1800
G02 X29.8208 Y78.0203 I-0.4938 J-0.0782 F1800
G01 Z-4.0000 F100
G02 X29.6854 Y78.8755 I0.1792 J0.4667 F1800
G02 X30.4938 Y78.5652 I0.3146 J-0.3885 F1800
G02 X29.8208 Y78.0203 I-0.4938 J-0.0782 F1800
G01 Z-5.0000 F100
G02 X29.6854 Y78.8755 I0.1792 J0.4667 F1800
G02 X30.4938 Y78.5652 I0.3146 J-0.3885 F1800
G02 X29.8208 Y78.0203 I-0.4938 J-0.0782 F1800
G01 Z-6.0000 F100
G02 X29.6854 Y78.8755 I0.1792 J0.4667 F1800
G02 X30.4938 Y78.5652 I0.3146 J-0.3885 F1800
G02 X29.8208 Y78.0203 I-0.4938 J-0.0782 F1800
G00 Z30.0000 F480


;No. 5: Ausschnitt 1
G00 X29.8791 Y118.0019 Z30.0000 F2100
G00 Z0.5000 F480
G01 Z0.0000 F100
G01 Z-1.0000 F100
G02 X29.6404 Y118.8343 I0.1209 J0.4851 F1800
G02 X30.4806 Y118.6248 I0.3596 J-0.3473 F1800
G02 X29.8791 Y118.0019 I-0.4806 J-0.1378 F1800
G01 Z-2.0000 F100
G02 X29.6404 Y118.8343 I0.1209 J0.4851 F1800
G02 X30.4806 Y118.6248 I0.3596 J-0.3473 F1800
G02 X29.8791 Y118.0019 I-0.4806 J-0.1378 F1800
G01 Z-3.0000 F100
G02 X29.6404 Y118.8343 I0.1209 J0.4851 F1800
G02 X30.4806 Y118.6248 I0.3596 J-0.3473 F1800
G02 X29.8791 Y118.0019 I-0.4806 J-0.1378 F1800
G01 Z-4.0000 F100
G02 X29.6404 Y118.8343 I0.1209 J0.4851 F1800
G02 X30.4806 Y118.6248 I0.3596 J-0.3473 F1800
G02 X29.8791 Y118.0019 I-0.4806 J-0.1378 F1800
G01 Z-5.0000 F100
G02 X29.6404 Y118.8343 I0.1209 J0.4851 F1800
G02 X30.4806 Y118.6248 I0.3596 J-0.3473 F1800
G02 X29.8791 Y118.0019 I-0.4806 J-0.1378 F1800
G01 Z-6.0000 F100
G02 X29.6404 Y118.8343 I0.1209 J0.4851 F1800
G02 X30.4806 Y118.6248 I0.3596 J-0.3473 F1800
G02 X29.8791 Y118.0019 I-0.4806 J-0.1378 F1800
G00 Z30.0000 F480


;No. 6: Ausschnitt 4
G00 X105.0760 Y64.5651 Z30.0000 F2100
G00 Z0.5000 F480
G01 Z0.0000 F100
G01 Z-1.0000 F100
G02 X105.4826 Y65.3296 I0.4240 J0.2649 F1800
G02 X105.9414 Y64.5953 I0.0174 J-0.4996 F1800
G02 X105.0760 Y64.5651 I-0.4414 J0.2347 F1800
G01 Z-2.0000 F100
G02 X105.4826 Y65.3296 I0.4240 J0.2649 F1800
G02 X105.9414 Y64.5953 I0.0174 J-0.4996 F1800
G02 X105.0760 Y64.5651 I-0.4414 J0.2347 F1800
G01 Z-3.0000 F100
G02 X105.4826 Y65.3296 I0.4240 J0.2649 F1800
G02 X105.9414 Y64.5953 I0.0174 J-0.4996 F1800
G02 X105.0760 Y64.5651 I-0.4414 J0.2347 F1800
G01 Z-4.0000 F100
G02 X105.4826 Y65.3296 I0.4240 J0.2649 F1800
G02 X105.9414 Y64.5953 I0.0174 J-0.4996 F1800
G02 X105.0760 Y64.5651 I-0.4414 J0.2347 F1800
G01 Z-5.0000 F100
G02 X105.4826 Y65.3296 I0.4240 J0.2649 F1800
G02 X105.9414 Y64.5953 I0.0174 J-0.4996 F1800
G02 X105.0760 Y64.5651 I-0.4414 J0.2347 F1800
G01 Z-6.0000 F100
G02 X105.4826 Y65.3296 I0.4240 J0.2649 F1800
G02 X105.9414 Y64.5953 I0.0174 J-0.4996 F1800
G02 X105.0760 Y64.5651 I-0.4414 J0.2347 F1800
G00 Z30.0000 F480


;No. 7: Ausschnitt 7
G00 X105.0077 Y20.7432 Z30.0000 F2100
G00 Z0.5000 F480
G01 Z0.0000 F100
G01 Z-1.0000 F100
G02 X105.6710 Y21.2998 I0.4923 J0.0868 F1800
G02 X105.8214 Y20.4470 I-0.1710 J-0.4698 F1800
G02 X105.0077 Y20.7432 I-0.3214 J0.3830 F1800
G01 Z-2.0000 F100
G02 X105.6710 Y21.2998 I0.4923 J0.0868 F1800
G02 X105.8214 Y20.4470 I-0.1710 J-0.4698 F1800
G02 X105.0077 Y20.7432 I-0.3214 J0.3830 F1800
G01 Z-3.0000 F100
G02 X105.6710 Y21.2998 I0.4923 J0.0868 F1800
G02 X105.8214 Y20.4470 I-0.1710 J-0.4698 F1800
G02 X105.0077 Y20.7432 I-0.3214 J0.3830 F1800
G01 Z-4.0000 F100
G02 X105.6710 Y21.2998 I0.4923 J0.0868 F1800
G02 X105.8214 Y20.4470 I-0.1710 J-0.4698 F1800
G02 X105.0077 Y20.7432 I-0.3214 J0.3830 F1800
G01 Z-5.0000 F100
G02 X105.6710 Y21.2998 I0.4923 J0.0868 F1800
G02 X105.8214 Y20.4470 I-0.1710 J-0.4698 F1800
G02 X105.0077 Y20.7432 I-0.3214 J0.3830 F1800
G01 Z-6.0000 F100
G02 X105.6710 Y21.2998 I0.4923 J0.0868 F1800
G02 X105.8214 Y20.4470 I-0.1710 J-0.4698 F1800
G02 X105.0077 Y20.7432 I-0.3214 J0.3830 F1800
G00 Z30.0000 F480


;No. 8: Ausschnitt 6
G00 X199.5333 Y78.3078 Z30.0000 F2100
G00 Z0.5000 F480
G01 Z0.0000 F100
G01 Z-1.0000 F100
G02 X200.0782 Y78.9808 I0.4667 J0.1792 F1800
G02 X200.3885 Y78.1724 I-0.0782 J-0.4938 F1800
G02 X199.5333 Y78.3078 I-0.3885 J0.3146 F1800
G01 Z-2.0000 F100
G02 X200.0782 Y78.9808 I0.4667 J0.1792 F1800
G02 X200.3885 Y78.1724 I-0.0782 J-0.4938 F1800
G02 X199.5333 Y78.3078 I-0.3885 J0.3146 F1800
G01 Z-3.0000 F100
G02 X200.0782 Y78.9808 I0.4667 J0.1792 F1800
G02 X200.3885 Y78.1724 I-0.0782 J-0.4938 F1800
G02 X199.5333 Y78.3078 I-0.3885 J0.3146 F1800
G01 Z-4.0000 F100
G02 X200.0782 Y78.9808 I0.4667 J0.1792 F1800
G02 X200.3885 Y78.1724 I-0.0782 J-0.4938 F1800
G02 X199.5333 Y78.3078 I-0.3885 J0.3146 F1800
G01 Z-5.0000 F100
G02 X200.0782 Y78.9808 I0.4667 J0.1792 F1800
G02 X200.3885 Y78.1724 I-0.0782 J-0.4938 F1800
G02 X199.5333 Y78.3078 I-0.3885 J0.3146 F1800
G01 Z-6.0000 F100
G02 X200.0782 Y78.9808 I0.4667 J0.1792 F1800
G02 X200.3885 Y78.1724 I-0.0782 J-0.4938 F1800
G02 X199.5333 Y78.3078 I-0.3885 J0.3146 F1800
G00 Z30.0000 F480


;No. 9: Ausschnitt 5
G00 X199.5715 Y118.2295 Z30.0000 F2100
G00 Z0.5000 F480
G01 Z0.0000 F100
G01 Z-1.0000 F100
G02 X199.9913 Y118.9869 I0.4285 J0.2575 F1800
G02 X200.4373 Y118.2446 I0.0087 J-0.4999 F1800
G02 X199.5715 Y118.2295 I-0.4373 J0.2424 F1800
G01 Z-2.0000 F100
G02 X199.9913 Y118.9869 I0.4285 J0.2575 F1800
G02 X200.4373 Y118.2446 I0.0087 J-0.4999 F1800
G02 X199.5715 Y118.2295 I-0.4373 J0.2424 F1800
G01 Z-3.0000 F100
G02 X199.9913 Y118.9869 I0.4285 J0.2575 F1800
G02 X200.4373 Y118.2446 I0.0087 J-0.4999 F1800
G02 X199.5715 Y118.2295 I-0.4373 J0.2424 F1800
G01 Z-4.0000 F100
G02 X199.9913 Y118.9869 I0.4285 J0.2575 F1800
G02 X200.4373 Y118.2446 I0.0087 J-0.4999 F1800
G02 X199.5715 Y118.2295 I-0.4373 J0.2424 F1800
G01 Z-5.0000 F100
G02 X199.9913 Y118.9869 I0.4285 J0.2575 F1800
G02 X200.4373 Y118.2446 I0.0087 J-0.4999 F1800
G02 X199.5715 Y118.2295 I-0.4373 J0.2424 F1800
G01 Z-6.0000 F100
G02 X199.9913 Y118.9869 I0.4285 J0.2575 F1800
G02 X200.4373 Y118.2446 I0.0087 J-0.4999 F1800
G02 X199.5715 Y118.2295 I-0.4373 J0.2424 F1800
G00 Z30.0000 F480
G00 X0.0000 Y0.0000 F2100

M05
