;Project front-part
;Created by Estlcam version 11 build 11,244
;Machining time about 00:48:58 hours

G90
M03 S30000
G00 Z30.0000 F480


;No. 1: Ausschnitt 39
G00 X53.8596 Y38.1587 F2100
G00 Z0.5000 F480
G01 Z0.0000 F100 S30000
G01 Z-2.0000 F100
G01 X116.6596 F900
G01 Y42.6587 F900
G01 X53.8596 F900
G01 Y47.1587 F900
G01 X116.6596 F900
G01 Y51.6587 F900
G01 X53.8596 F900
G01 Y56.1587 F900
G01 X116.6596 F900
G01 Y60.6587 F900
G01 X53.8596 F900
G01 Y65.1587 F900
G01 X116.6596 F900
G01 Y69.6587 F900
G01 X53.8596 F900
G01 Y74.1587 F900
G01 X116.6596 F900
G01 Y78.6587 F900
G01 X53.8596 F900
G01 X53.2596 Y78.5631 F900
G01 Y80.4087 F900
G01 X52.3809 Y81.2874 F900
G01 X53.2596 Y80.4087 F900
G01 X117.2596 F900
G01 X118.1382 Y81.2874 F900
G01 X117.2596 Y80.4087 F900
G01 Y36.4087 F900
G01 X118.1382 Y35.5300 F900
G01 X117.2596 Y36.4087 F900
G01 X53.2596 F900
G01 X52.3809 Y35.5300 F900
G01 X53.2596 Y36.4087 F900
G01 Y78.5631 F900
G01 X53.8596 Y78.6587 F900
G01 Z-4.0000 F100
G01 X116.6596 F900
G01 Y74.1587 F900
G01 X53.8596 F900
G01 Y69.6587 F900
G01 X116.6596 F900
G01 Y65.1587 F900
G01 X53.8596 F900
G01 Y60.6587 F900
G01 X116.6596 F900
G01 Y56.1587 F900
G01 X53.8596 F900
G01 Y51.6587 F900
G01 X116.6596 F900
G01 Y47.1587 F900
G01 X53.8596 F900
G01 Y42.6587 F900
G01 X116.6596 F900
G01 Y38.1587 F900
G01 X53.8596 F900
G01 X53.2596 Y38.2543 F900
G01 Y80.4087 F900
G01 X52.3809 Y81.2874 F900
G01 X53.2596 Y80.4087 F900
G01 X117.2596 F900
G01 X118.1382 Y81.2874 F900
G01 X117.2596 Y80.4087 F900
G01 Y36.4087 F900
G01 X118.1382 Y35.5300 F900
G01 X117.2596 Y36.4087 F900
G01 X53.2596 F900
G01 X52.3809 Y35.5300 F900
G01 X53.2596 Y36.4087 F900
G01 Y38.2543 F900
G01 X53.8596 Y38.1587 F900
G01 Z-5.0000 F100
G01 X116.6596 F900
G01 Y42.6587 F900
G01 X53.8596 F900
G01 Y47.1587 F900
G01 X116.6596 F900
G01 Y51.6587 F900
G01 X53.8596 F900
G01 Y56.1587 F900
G01 X116.6596 F900
G01 Y60.6587 F900
G01 X53.8596 F900
G01 Y65.1587 F900
G01 X116.6596 F900
G01 Y69.6587 F900
G01 X53.8596 F900
G01 Y74.1587 F900
G01 X116.6596 F900
G01 Y78.6587 F900
G01 X53.8596 F900
G01 X53.2596 Y78.5631 F900
G01 Y80.4087 F900
G01 X52.3809 Y81.2874 F900
G01 X53.2596 Y80.4087 F900
G01 X117.2596 F900
G01 X118.1382 Y81.2874 F900
G01 X117.2596 Y80.4087 F900
G01 Y36.4087 F900
G01 X118.1382 Y35.5300 F900
G01 X117.2596 Y36.4087 F900
G01 X53.2596 F900
G01 X52.3809 Y35.5300 F900
G01 X53.2596 Y36.4087 F900
G01 Y78.5631 F900
G01 X53.8596 Y78.6587 F900
G00 Z30.0000 F480


;No. 2: Ausschnitt 34
G00 X61.3596 Y74.1587 Z30.0000 F2100
G00 Z0.5000 F480
G01 Z0.0000 F100
G01 Z-2.0000 F100
G01 X114.1596 F900
G01 Y69.6587 F900
G01 X61.3596 F900
G01 Y65.1587 F900
G01 X114.1596 F900
G01 Y60.6587 F900
G01 X61.3596 F900
G01 Y56.1587 F900
G01 X114.1596 F900
G01 Y51.6587 F900
G01 X61.3596 F900
G01 Y47.1587 F900
G01 X114.1596 F900
G01 Y42.6587 F900
G01 X61.3596 F900
G01 X60.7596 Y42.7013 F900
G01 Y77.9087 F900
G01 X114.7596 F900
G01 Y38.9087 F900
G01 X60.7596 F900
G01 Y42.7013 F900
G01 X61.3596 Y42.6587 F900
G01 Z-4.0000 F100
G01 X114.1596 F900
G01 Y47.1587 F900
G01 X61.3596 F900
G01 Y51.6587 F900
G01 X114.1596 F900
G01 Y56.1587 F900
G01 X61.3596 F900
G01 Y60.6587 F900
G01 X114.1596 F900
G01 Y65.1587 F900
G01 X61.3596 F900
G01 Y69.6587 F900
G01 X114.1596 F900
G01 Y74.1587 F900
G01 X61.3596 F900
G01 X60.7596 Y74.1161 F900
G01 Y77.9087 F900
G01 X114.7596 F900
G01 Y38.9087 F900
G01 X60.7596 F900
G01 Y74.1161 F900
G01 X61.3596 Y74.1587 F900
G01 Z-6.0000 F100
G01 X114.1596 F900
G01 Y69.6587 F900
G01 X61.3596 F900
G01 Y65.1587 F900
G01 X114.1596 F900
G01 Y60.6587 F900
G01 X61.3596 F900
G01 Y56.1587 F900
G01 X114.1596 F900
G01 Y51.6587 F900
G01 X61.3596 F900
G01 Y47.1587 F900
G01 X114.1596 F900
G01 Y42.6587 F900
G01 X61.3596 F900
G01 X60.7596 Y42.7013 F900
G01 Y77.9087 F900
G01 X114.7596 F900
G01 Y38.9087 F900
G01 X60.7596 F900
G01 Y42.7013 F900
G01 X61.3596 Y42.6587 F900
G01 Z-8.0000 F100
G01 X114.1596 F900
G01 Y47.1587 F900
G01 X61.3596 F900
G01 Y51.6587 F900
G01 X114.1596 F900
G01 Y56.1587 F900
G01 X61.3596 F900
G01 Y60.6587 F900
G01 X114.1596 F900
G01 Y65.1587 F900
G01 X61.3596 F900
G01 Y69.6587 F900
G01 X114.1596 F900
G01 Y74.1587 F900
G01 X61.3596 F900
G01 X60.7596 Y74.1161 F900
G01 Y77.9087 F900
G01 X114.7596 F900
G01 Y38.9087 F900
G01 X60.7596 F900
G01 Y74.1161 F900
G01 X61.3596 Y74.1587 F900
G01 Z-10.0000 F100
G01 X114.1596 F900
G01 Y69.6587 F900
G01 X61.3596 F900
G01 Y65.1587 F900
G01 X114.1596 F900
G01 Y60.6587 F900
G01 X61.3596 F900
G01 Y56.1587 F900
G01 X114.1596 F900
G01 Y51.6587 F900
G01 X61.3596 F900
G01 Y47.1587 F900
G01 X114.1596 F900
G01 Y42.6587 F900
G01 X61.3596 F900
G01 X60.7596 Y42.7013 F900
G01 Y77.9087 F900
G01 X114.7596 F900
G01 Y38.9087 F900
G01 X60.7596 F900
G01 Y42.7013 F900
G01 X61.3596 Y42.6587 F900
G00 Z30.0000 F480


;No. 3: Ausschnitt 17
G00 X60.3846 Y90.3182 Z30.0000 F2100
G00 Z0.5000 F480
G01 Z0.0000 F100
G01 Z-2.0000 F100
G02 Y96.8132 I1.8749 J3.2475 F900
G02 X66.0094 Y93.5657 I1.8749 J-3.2475 F900
G02 X60.3846 Y90.3182 I-3.7499 J0.0000 F900
G01 Z-4.0000 F100
G02 Y96.8132 I1.8749 J3.2475 F900
G02 X66.0094 Y93.5657 I1.8749 J-3.2475 F900
G02 X60.3846 Y90.3182 I-3.7499 J0.0000 F900
G01 Z-5.0000 F100
G02 Y96.8132 I1.8749 J3.2475 F900
G02 X66.0094 Y93.5657 I1.8749 J-3.2475 F900
G02 X60.3846 Y90.3182 I-3.7499 J0.0000 F900
G00 Z30.0000 F480


;No. 4: Ausschnitt 33
G00 X59.6097 Y93.5657 Z30.0000 F2100
G00 Z0.5000 F480
G01 Z0.0000 F100
G01 Z-2.0000 F100
G01 X64.9094 F900
G01 X65.5092 Y93.5940 F900
G02 X59.0102 Y93.5090 I-3.2497 J-0.0284 F900
G02 X65.5092 Y93.5940 I3.2493 J0.0568 F900
G01 X64.9094 Y93.5657 F900
G01 Z-4.0000 F100
G01 X59.6097 F900
G01 X59.0099 Y93.5374 F900
G02 X65.5089 Y93.6224 I3.2497 J0.0284 F900
G02 X59.0099 Y93.5374 I-3.2493 J-0.0568 F900
G01 X59.6097 Y93.5657 F900
G01 Z-6.0000 F100
G01 X64.9094 F900
G01 X65.5092 Y93.5940 F900
G02 X59.0102 Y93.5090 I-3.2497 J-0.0284 F900
G02 X65.5092 Y93.5940 I3.2493 J0.0568 F900
G01 X64.9094 Y93.5657 F900
G01 Z-8.0000 F100
G01 X59.6097 F900
G01 X59.0099 Y93.5374 F900
G02 X65.5089 Y93.6224 I3.2497 J0.0284 F900
G02 X59.0099 Y93.5374 I-3.2493 J-0.0568 F900
G01 X59.6097 Y93.5657 F900
G01 Z-10.0000 F100
G01 X64.9094 F900
G01 X65.5092 Y93.5940 F900
G02 X59.0102 Y93.5090 I-3.2497 J-0.0284 F900
G02 X65.5092 Y93.5940 I3.2493 J0.0568 F900
G01 X64.9094 Y93.5657 F900
G00 Z30.0000 F480


;No. 5: Ausschnitt 2
G00 X70.4416 Y110.2860 Z30.0000 F2100
G00 Z0.5000 F480
G01 Z0.0000 F100
G01 Z-2.0000 F100
G02 X70.3282 Y116.7800 I1.8180 J3.2797 F900
G02 X76.0089 Y113.6312 I1.9313 J-3.2143 F900
G02 X70.4416 Y110.2860 I-3.7493 J-0.0654 F900
G01 Z-4.0000 F100
G02 X70.3282 Y116.7800 I1.8180 J3.2797 F900
G02 X76.0089 Y113.6312 I1.9313 J-3.2143 F900
G02 X70.4416 Y110.2860 I-3.7493 J-0.0654 F900
G01 Z-5.0000 F100
G02 X70.3282 Y116.7800 I1.8180 J3.2797 F900
G02 X76.0089 Y113.6312 I1.9313 J-3.2143 F900
G02 X70.4416 Y110.2860 I-3.7493 J-0.0654 F900
G00 Z30.0000 F480


;No. 6: Ausschnitt 18
G00 X69.6097 Y113.5657 Z30.0000 F2100
G00 Z0.5000 F480
G01 Z0.0000 F100
G01 Z-2.0000 F100
G01 X74.9094 F900
G01 X75.5092 Y113.5374 F900
G02 X69.0097 Y113.5657 I-3.2497 J0.0282 F900
G02 X75.5092 Y113.5374 I3.2498 J0.0001 F900
G01 X74.9094 Y113.5657 F900
G01 Z-4.0000 F100
G01 X69.6097 F900
G01 X69.0099 Y113.5374 F900
G02 X75.5089 Y113.6224 I3.2497 J0.0284 F900
G02 X69.0099 Y113.5374 I-3.2493 J-0.0568 F900
G01 X69.6097 Y113.5657 F900
G01 Z-6.0000 F100
G01 X74.9094 F900
G01 X75.5092 Y113.5374 F900
G02 X69.0097 Y113.5657 I-3.2497 J0.0282 F900
G02 X75.5092 Y113.5374 I3.2498 J0.0001 F900
G01 X74.9094 Y113.5657 F900
G01 Z-8.0000 F100
G01 X69.6097 F900
G01 X69.0099 Y113.5374 F900
G02 X75.5089 Y113.6224 I3.2497 J0.0284 F900
G02 X69.0099 Y113.5374 I-3.2493 J-0.0568 F900
G01 X69.6097 Y113.5657 F900
G01 Z-10.0000 F100
G01 X74.9094 F900
G01 X75.5092 Y113.5374 F900
G02 X69.0097 Y113.5657 I-3.2497 J0.0282 F900
G02 X75.5092 Y113.5374 I3.2498 J0.0001 F900
G01 X74.9094 Y113.5657 F900
G00 Z30.0000 F480


;No. 7: Ausschnitt 16
G00 X79.8492 Y90.6931 Z30.0000 F2100
G00 Z0.5000 F480
G01 Z0.0000 F100
G01 Z-2.0000 F100
G02 X80.9770 Y97.0894 I2.4104 J2.8726 F900
G02 X85.9525 Y92.9145 I1.2825 J-3.5237 F900
G02 X79.8492 Y90.6931 I-3.6929 J0.6512 F900
G01 Z-4.0000 F100
G02 X80.9770 Y97.0894 I2.4104 J2.8726 F900
G02 X85.9525 Y92.9145 I1.2825 J-3.5237 F900
G02 X79.8492 Y90.6931 I-3.6929 J0.6512 F900
G01 Z-5.0000 F100
G02 X80.9770 Y97.0894 I2.4104 J2.8726 F900
G02 X85.9525 Y92.9145 I1.2825 J-3.5237 F900
G02 X79.8492 Y90.6931 I-3.6929 J0.6512 F900
G00 Z30.0000 F480


;No. 8: Ausschnitt 32
G00 X79.6097 Y93.5657 Z30.0000 F2100
G00 Z0.5000 F480
G01 Z0.0000 F100
G01 Z-2.0000 F100
G01 X84.9094 F900
G01 X85.5092 Y93.5374 F900
G02 X79.0097 Y93.5657 I-3.2497 J0.0282 F900
G02 X85.5092 Y93.5374 I3.2498 J0.0001 F900
G01 X84.9094 Y93.5657 F900
G01 Z-4.0000 F100
G01 X79.6097 F900
G01 X79.0099 Y93.5374 F900
G02 X85.5089 Y93.6224 I3.2497 J0.0284 F900
G02 X79.0099 Y93.5374 I-3.2493 J-0.0568 F900
G01 X79.6097 Y93.5657 F900
G01 Z-6.0000 F100
G01 X84.9094 F900
G01 X85.5092 Y93.5374 F900
G02 X79.0097 Y93.5657 I-3.2497 J0.0282 F900
G02 X85.5092 Y93.5374 I3.2498 J0.0001 F900
G01 X84.9094 Y93.5657 F900
G01 Z-8.0000 F100
G01 X79.6097 F900
G01 X79.0099 Y93.5374 F900
G02 X85.5089 Y93.6224 I3.2497 J0.0284 F900
G02 X79.0099 Y93.5374 I-3.2493 J-0.0568 F900
G01 X79.6097 Y93.5657 F900
G01 Z-10.0000 F100
G01 X84.9094 F900
G01 X85.5092 Y93.5374 F900
G02 X79.0097 Y93.5657 I-3.2497 J0.0282 F900
G02 X85.5092 Y93.5374 I3.2498 J0.0001 F900
G01 X84.9094 Y93.5657 F900
G00 Z30.0000 F480


;No. 9: Ausschnitt 3
G00 X90.0028 Y110.5709 Z30.0000 F2100
G00 Z0.5000 F480
G01 Z0.0000 F100
G01 Z-2.0000 F100
G02 X90.7944 Y117.0175 I2.2567 J2.9948 F900
G02 X95.9815 Y113.1087 I1.4652 J-3.4518 F900
G02 X90.0028 Y110.5709 I-3.7219 J0.4570 F900
G01 Z-4.0000 F100
G02 X90.7944 Y117.0175 I2.2567 J2.9948 F900
G02 X95.9815 Y113.1087 I1.4652 J-3.4518 F900
G02 X90.0028 Y110.5709 I-3.7219 J0.4570 F900
G01 Z-5.0000 F100
G02 X90.7944 Y117.0175 I2.2567 J2.9948 F900
G02 X95.9815 Y113.1087 I1.4652 J-3.4518 F900
G02 X90.0028 Y110.5709 I-3.7219 J0.4570 F900
G00 Z30.0000 F480


;No. 10: Ausschnitt 19
G00 X89.6097 Y113.5657 Z30.0000 F2100
G00 Z0.5000 F480
G01 Z0.0000 F100
G01 Z-2.0000 F100
G01 X94.9094 F900
G01 X95.5092 Y113.5374 F900
G02 X89.0097 Y113.5657 I-3.2497 J0.0282 F900
G02 X95.5092 Y113.5374 I3.2498 J0.0001 F900
G01 X94.9094 Y113.5657 F900
G01 Z-4.0000 F100
G01 X89.6097 F900
G01 X89.0099 Y113.5374 F900
G02 X95.5089 Y113.6224 I3.2497 J0.0284 F900
G02 X89.0099 Y113.5374 I-3.2493 J-0.0568 F900
G01 X89.6097 Y113.5657 F900
G01 Z-6.0000 F100
G01 X94.9094 F900
G01 X95.5092 Y113.5374 F900
G02 X89.0097 Y113.5657 I-3.2497 J0.0282 F900
G02 X95.5092 Y113.5374 I3.2498 J0.0001 F900
G01 X94.9094 Y113.5657 F900
G01 Z-8.0000 F100
G01 X89.6097 F900
G01 X89.0099 Y113.5374 F900
G02 X95.5089 Y113.6224 I3.2497 J0.0284 F900
G02 X89.0099 Y113.5374 I-3.2493 J-0.0568 F900
G01 X89.6097 Y113.5657 F900
G01 Z-10.0000 F100
G01 X94.9094 F900
G01 X95.5092 Y113.5374 F900
G02 X89.0097 Y113.5657 I-3.2497 J0.0282 F900
G02 X95.5092 Y113.5374 I3.2498 J0.0001 F900
G01 X94.9094 Y113.5657 F900
G00 Z30.0000 F480


;No. 11: Ausschnitt 15
G00 X99.5171 Y91.0083 Z30.0000 F2100
G00 Z0.5000 F480
G01 Z0.0000 F100
G01 Z-2.0000 F100
G02 X101.4160 Y97.2195 I2.7425 J2.5574 F900
G02 X105.8456 Y92.4693 I0.8435 J-3.6538 F900
G02 X99.5171 Y91.0083 I-3.5860 J1.0964 F900
G01 Z-4.0000 F100
G02 X101.4160 Y97.2195 I2.7425 J2.5574 F900
G02 X105.8456 Y92.4693 I0.8435 J-3.6538 F900
G02 X99.5171 Y91.0083 I-3.5860 J1.0964 F900
G01 Z-5.0000 F100
G02 X101.4160 Y97.2195 I2.7425 J2.5574 F900
G02 X105.8456 Y92.4693 I0.8435 J-3.6538 F900
G02 X99.5171 Y91.0083 I-3.5860 J1.0964 F900
G00 Z30.0000 F480


;No. 12: Ausschnitt 31
G00 X99.6097 Y93.5657 Z30.0000 F2100
G00 Z0.5000 F480
G01 Z0.0000 F100
G01 Z-2.0000 F100
G01 X104.9094 F900
G01 X105.5092 Y93.5374 F900
G02 X99.0097 Y93.5657 I-3.2497 J0.0282 F900
G02 X105.5092 Y93.5374 I3.2498 J0.0001 F900
G01 X104.9094 Y93.5657 F900
G01 Z-4.0000 F100
G01 X99.6097 F900
G01 X99.0099 Y93.5374 F900
G02 X105.5089 Y93.6224 I3.2497 J0.0284 F900
G02 X99.0099 Y93.5374 I-3.2493 J-0.0568 F900
G01 X99.6097 Y93.5657 F900
G01 Z-6.0000 F100
G01 X104.9094 F900
G01 X105.5092 Y93.5374 F900
G02 X99.0097 Y93.5657 I-3.2497 J0.0282 F900
G02 X105.5092 Y93.5374 I3.2498 J0.0001 F900
G01 X104.9094 Y93.5657 F900
G01 Z-8.0000 F100
G01 X99.6097 F900
G01 X99.0099 Y93.5374 F900
G02 X105.5089 Y93.6224 I3.2497 J0.0284 F900
G02 X99.0099 Y93.5374 I-3.2493 J-0.0568 F900
G01 X99.6097 Y93.5657 F900
G01 Z-10.0000 F100
G01 X104.9094 F900
G01 X105.5092 Y93.5374 F900
G02 X99.0097 Y93.5657 I-3.2497 J0.0282 F900
G02 X105.5092 Y93.5374 I3.2498 J0.0001 F900
G01 X104.9094 Y93.5657 F900
G00 Z30.0000 F480


;No. 13: Ausschnitt 4
G00 X109.6547 Y110.8683 Z30.0000 F2100
G00 Z0.5000 F480
G01 Z0.0000 F100
G01 Z-2.0000 F100
G02 X111.2259 Y117.1703 I2.6049 J2.6974 F900
G02 X115.8980 Y112.6585 I1.0336 J-3.6046 F900
G02 X109.6547 Y110.8683 I-3.6385 J0.9072 F900
G01 Z-4.0000 F100
G02 X111.2259 Y117.1703 I2.6049 J2.6974 F900
G02 X115.8980 Y112.6585 I1.0336 J-3.6046 F900
G02 X109.6547 Y110.8683 I-3.6385 J0.9072 F900
G01 Z-5.0000 F100
G02 X111.2259 Y117.1703 I2.6049 J2.6974 F900
G02 X115.8980 Y112.6585 I1.0336 J-3.6046 F900
G02 X109.6547 Y110.8683 I-3.6385 J0.9072 F900
G00 Z30.0000 F480


;No. 14: Ausschnitt 20
G00 X109.6097 Y113.5657 Z30.0000 F2100
G00 Z0.5000 F480
G01 Z0.0000 F100
G01 Z-2.0000 F100
G01 X114.9094 F900
G01 X115.5092 Y113.5940 F900
G02 X109.0102 Y113.5090 I-3.2497 J-0.0284 F900
G02 X115.5092 Y113.5940 I3.2493 J0.0568 F900
G01 X114.9094 Y113.5657 F900
G01 Z-4.0000 F100
G01 X109.6097 F900
G01 X109.0099 Y113.5940 F900
G02 X115.5094 Y113.5657 I3.2497 J-0.0282 F900
G02 X109.0099 Y113.5940 I-3.2498 J-0.0001 F900
G01 X109.6097 Y113.5657 F900
G01 Z-6.0000 F100
G01 X114.9094 F900
G01 X115.5092 Y113.5940 F900
G02 X109.0102 Y113.5090 I-3.2497 J-0.0284 F900
G02 X115.5092 Y113.5940 I3.2493 J0.0568 F900
G01 X114.9094 Y113.5657 F900
G01 Z-8.0000 F100
G01 X109.6097 F900
G01 X109.0099 Y113.5940 F900
G02 X115.5094 Y113.5657 I3.2497 J-0.0282 F900
G02 X109.0099 Y113.5940 I-3.2498 J-0.0001 F900
G01 X109.6097 Y113.5657 F900
G01 Z-10.0000 F100
G01 X114.9094 F900
G01 X115.5092 Y113.5940 F900
G02 X109.0102 Y113.5090 I-3.2497 J-0.0284 F900
G02 X115.5092 Y113.5940 I3.2493 J0.0568 F900
G01 X114.9094 Y113.5657 F900
G00 Z30.0000 F480


;No. 15: Ausschnitt 14
G00 X119.2648 Y91.3090 Z30.0000 F2100
G00 Z0.5000 F480
G01 Z0.0000 F100
G01 Z-2.0000 F100
G02 X121.8026 Y97.2876 I2.9948 J2.2567 F900
G02 X125.7113 Y92.1005 I0.4570 J-3.7219 F900
G02 X119.2648 Y91.3090 I-3.4518 J1.4652 F900
G01 Z-4.0000 F100
G02 X121.8026 Y97.2876 I2.9948 J2.2567 F900
G02 X125.7113 Y92.1005 I0.4570 J-3.7219 F900
G02 X119.2648 Y91.3090 I-3.4518 J1.4652 F900
G01 Z-5.0000 F100
G02 X121.8026 Y97.2876 I2.9948 J2.2567 F900
G02 X125.7113 Y92.1005 I0.4570 J-3.7219 F900
G02 X119.2648 Y91.3090 I-3.4518 J1.4652 F900
G00 Z30.0000 F480


;No. 16: Ausschnitt 30
G00 X119.6097 Y93.5657 Z30.0000 F2100
G00 Z0.5000 F480
G01 Z0.0000 F100
G01 Z-2.0000 F100
G01 X124.9094 F900
G01 X125.5092 Y93.5940 F900
G02 X119.0102 Y93.5090 I-3.2497 J-0.0284 F900
G02 X125.5092 Y93.5940 I3.2493 J0.0568 F900
G01 X124.9094 Y93.5657 F900
G01 Z-4.0000 F100
G01 X119.6097 F900
G01 X119.0099 Y93.5940 F900
G02 X125.5094 Y93.5657 I3.2497 J-0.0282 F900
G02 X119.0099 Y93.5940 I-3.2498 J-0.0001 F900
G01 X119.6097 Y93.5657 F900
G01 Z-6.0000 F100
G01 X124.9094 F900
G01 X125.5092 Y93.5940 F900
G02 X119.0102 Y93.5090 I-3.2497 J-0.0284 F900
G02 X125.5092 Y93.5940 I3.2493 J0.0568 F900
G01 X124.9094 Y93.5657 F900
G01 Z-8.0000 F100
G01 X119.6097 F900
G01 X119.0099 Y93.5940 F900
G02 X125.5094 Y93.5657 I3.2497 J-0.0282 F900
G02 X119.0099 Y93.5940 I-3.2498 J-0.0001 F900
G01 X119.6097 Y93.5657 F900
G01 Z-10.0000 F100
G01 X124.9094 F900
G01 X125.5092 Y93.5940 F900
G02 X119.0102 Y93.5090 I-3.2497 J-0.0284 F900
G02 X125.5092 Y93.5940 I3.2493 J0.0568 F900
G01 X124.9094 Y93.5657 F900
G00 Z30.0000 F480


;No. 17: Ausschnitt 5
G00 X129.4295 Y111.1056 Z30.0000 F2100
G00 Z0.5000 F480
G01 Z0.0000 F100
G01 Z-2.0000 F100
G02 X131.5440 Y117.2467 I2.8301 J2.4601 F900
G02 X135.8051 Y112.3449 I0.7155 J-3.6810 F900
G02 X129.4295 Y111.1056 I-3.5456 J1.2208 F900
G01 Z-4.0000 F100
G02 X131.5440 Y117.2467 I2.8301 J2.4601 F900
G02 X135.8051 Y112.3449 I0.7155 J-3.6810 F900
G02 X129.4295 Y111.1056 I-3.5456 J1.2208 F900
G01 Z-5.0000 F100
G02 X131.5440 Y117.2467 I2.8301 J2.4601 F900
G02 X135.8051 Y112.3449 I0.7155 J-3.6810 F900
G02 X129.4295 Y111.1056 I-3.5456 J1.2208 F900
G00 Z30.0000 F480


;No. 18: Ausschnitt 21
G00 X129.6097 Y113.5657 Z30.0000 F2100
G00 Z0.5000 F480
G01 Z0.0000 F100
G01 Z-2.0000 F100
G01 X134.9094 F900
G01 X135.5092 Y113.5940 F900
G02 X129.0102 Y113.5090 I-3.2497 J-0.0284 F900
G02 X135.5092 Y113.5940 I3.2493 J0.0568 F900
G01 X134.9094 Y113.5657 F900
G01 Z-4.0000 F100
G01 X129.6097 F900
G01 X129.0099 Y113.5374 F900
G02 X135.5089 Y113.6224 I3.2497 J0.0284 F900
G02 X129.0099 Y113.5374 I-3.2493 J-0.0568 F900
G01 X129.6097 Y113.5657 F900
G01 Z-6.0000 F100
G01 X134.9094 F900
G01 X135.5092 Y113.5940 F900
G02 X129.0102 Y113.5090 I-3.2497 J-0.0284 F900
G02 X135.5092 Y113.5940 I3.2493 J0.0568 F900
G01 X134.9094 Y113.5657 F900
G01 Z-8.0000 F100
G01 X129.6097 F900
G01 X129.0099 Y113.5374 F900
G02 X135.5089 Y113.6224 I3.2497 J0.0284 F900
G02 X129.0099 Y113.5374 I-3.2493 J-0.0568 F900
G01 X129.6097 Y113.5657 F900
G01 Z-10.0000 F100
G01 X134.9094 F900
G01 X135.5092 Y113.5940 F900
G02 X129.0102 Y113.5090 I-3.2497 J-0.0284 F900
G02 X135.5092 Y113.5940 I3.2493 J0.0568 F900
G01 X134.9094 Y113.5657 F900
G00 Z30.0000 F480


;No. 19: Ausschnitt 13
G00 X139.0795 Y91.5786 Z30.0000 F2100
G00 Z0.5000 F480
G01 Z0.0000 F100
G01 Z-2.0000 F100
G02 X142.1287 Y97.3133 I3.1801 J1.9871 F900
G02 X145.5705 Y91.8052 I0.1309 J-3.7476 F900
G02 X139.0795 Y91.5786 I-3.3110 J1.7605 F900
G01 Z-4.0000 F100
G02 X142.1287 Y97.3133 I3.1801 J1.9871 F900
G02 X145.5705 Y91.8052 I0.1309 J-3.7476 F900
G02 X139.0795 Y91.5786 I-3.3110 J1.7605 F900
G01 Z-5.0000 F100
G02 X142.1287 Y97.3133 I3.1801 J1.9871 F900
G02 X145.5705 Y91.8052 I0.1309 J-3.7476 F900
G02 X139.0795 Y91.5786 I-3.3110 J1.7605 F900
G00 Z30.0000 F480


;No. 20: Ausschnitt 29
G00 X139.6097 Y93.5657 Z30.0000 F2100
G00 Z0.5000 F480
G01 Z0.0000 F100
G01 Z-2.0000 F100
G01 X144.9094 F900
G01 X145.5092 Y93.5940 F900
G02 X139.0102 Y93.5090 I-3.2497 J-0.0284 F900
G02 X145.5092 Y93.5940 I3.2493 J0.0568 F900
G01 X144.9094 Y93.5657 F900
G01 Z-4.0000 F100
G01 X139.6097 F900
G01 X139.0099 Y93.5940 F900
G02 X145.5094 Y93.5657 I3.2497 J-0.0282 F900
G02 X139.0099 Y93.5940 I-3.2498 J-0.0001 F900
G01 X139.6097 Y93.5657 F900
G01 Z-6.0000 F100
G01 X144.9094 F900
G01 X145.5092 Y93.5940 F900
G02 X139.0102 Y93.5090 I-3.2497 J-0.0284 F900
G02 X145.5092 Y93.5940 I3.2493 J0.0568 F900
G01 X144.9094 Y93.5657 F900
G01 Z-8.0000 F100
G01 X139.6097 F900
G01 X139.0099 Y93.5940 F900
G02 X145.5094 Y93.5657 I3.2497 J-0.0282 F900
G02 X139.0099 Y93.5940 I-3.2498 J-0.0001 F900
G01 X139.6097 Y93.5657 F900
G01 Z-10.0000 F100
G01 X144.9094 F900
G01 X145.5092 Y93.5940 F900
G02 X139.0102 Y93.5090 I-3.2497 J-0.0284 F900
G02 X145.5092 Y93.5940 I3.2493 J0.0568 F900
G01 X144.9094 Y93.5657 F900
G00 Z30.0000 F480


;No. 21: Ausschnitt 6
G00 X149.2258 Y111.3616 Z30.0000 F2100
G00 Z0.5000 F480
G01 Z0.0000 F100
G01 Z-2.0000 F100
G02 X151.8676 Y117.2950 I3.0337 J2.2041 F900
G02 X155.6852 Y112.0405 I0.3920 J-3.7293 F900
G02 X149.2258 Y111.3616 I-3.4257 J1.5252 F900
G01 Z-4.0000 F100
G02 X151.8676 Y117.2950 I3.0337 J2.2041 F900
G02 X155.6852 Y112.0405 I0.3920 J-3.7293 F900
G02 X149.2258 Y111.3616 I-3.4257 J1.5252 F900
G01 Z-5.0000 F100
G02 X151.8676 Y117.2950 I3.0337 J2.2041 F900
G02 X155.6852 Y112.0405 I0.3920 J-3.7293 F900
G02 X149.2258 Y111.3616 I-3.4257 J1.5252 F900
G00 Z30.0000 F480


;No. 22: Ausschnitt 22
G00 X149.6097 Y113.5657 Z30.0000 F2100
G00 Z0.5000 F480
G01 Z0.0000 F100
G01 Z-2.0000 F100
G01 X154.9094 F900
G01 X155.5092 Y113.5374 F900
G02 X149.0097 Y113.5657 I-3.2497 J0.0282 F900
G02 X155.5092 Y113.5374 I3.2498 J0.0001 F900
G01 X154.9094 Y113.5657 F900
G01 Z-4.0000 F100
G01 X149.6097 F900
G01 X149.0099 Y113.5940 F900
G02 X155.5094 Y113.5657 I3.2497 J-0.0282 F900
G02 X149.0099 Y113.5940 I-3.2498 J-0.0001 F900
G01 X149.6097 Y113.5657 F900
G01 Z-6.0000 F100
G01 X154.9094 F900
G01 X155.5092 Y113.5374 F900
G02 X149.0097 Y113.5657 I-3.2497 J0.0282 F900
G02 X155.5092 Y113.5374 I3.2498 J0.0001 F900
G01 X154.9094 Y113.5657 F900
G01 Z-8.0000 F100
G01 X149.6097 F900
G01 X149.0099 Y113.5940 F900
G02 X155.5094 Y113.5657 I3.2497 J-0.0282 F900
G02 X149.0099 Y113.5940 I-3.2498 J-0.0001 F900
G01 X149.6097 Y113.5657 F900
G01 Z-10.0000 F100
G01 X154.9094 F900
G01 X155.5092 Y113.5374 F900
G02 X149.0097 Y113.5657 I-3.2497 J0.0282 F900
G02 X155.5092 Y113.5374 I3.2498 J0.0001 F900
G01 X154.9094 Y113.5657 F900
G00 Z30.0000 F480


;No. 23: Ausschnitt 12
G00 X158.9486 Y91.8052 Z30.0000 F2100
G00 Z0.5000 F480
G01 Z0.0000 F100
G01 Z-2.0000 F100
G02 X162.3904 Y97.3133 I3.3110 J1.7605 F900
G02 X165.4396 Y91.5786 I-0.1309 J-3.7476 F900
G02 X158.9486 Y91.8052 I-3.1801 J1.9871 F900
G01 Z-4.0000 F100
G02 X162.3904 Y97.3133 I3.3110 J1.7605 F900
G02 X165.4396 Y91.5786 I-0.1309 J-3.7476 F900
G02 X158.9486 Y91.8052 I-3.1801 J1.9871 F900
G01 Z-5.0000 F100
G02 X162.3904 Y97.3133 I3.3110 J1.7605 F900
G02 X165.4396 Y91.5786 I-0.1309 J-3.7476 F900
G02 X158.9486 Y91.8052 I-3.1801 J1.9871 F900
G00 Z30.0000 F480


;No. 24: Ausschnitt 28
G00 X159.6097 Y93.5657 Z30.0000 F2100
G00 Z0.5000 F480
G01 Z0.0000 F100
G01 Z-2.0000 F100
G01 X164.9094 F900
G01 X165.5092 Y93.5374 F900
G02 X159.0097 Y93.5657 I-3.2497 J0.0282 F900
G02 X165.5092 Y93.5374 I3.2498 J0.0001 F900
G01 X164.9094 Y93.5657 F900
G01 Z-4.0000 F100
G01 X159.6097 F900
G01 X159.0099 Y93.5940 F900
G02 X165.5094 Y93.5657 I3.2497 J-0.0282 F900
G02 X159.0099 Y93.5940 I-3.2498 J-0.0001 F900
G01 X159.6097 Y93.5657 F900
G01 Z-6.0000 F100
G01 X164.9094 F900
G01 X165.5092 Y93.5374 F900
G02 X159.0097 Y93.5657 I-3.2497 J0.0282 F900
G02 X165.5092 Y93.5374 I3.2498 J0.0001 F900
G01 X164.9094 Y93.5657 F900
G01 Z-8.0000 F100
G01 X159.6097 F900
G01 X159.0099 Y93.5940 F900
G02 X165.5094 Y93.5657 I3.2497 J-0.0282 F900
G02 X159.0099 Y93.5940 I-3.2498 J-0.0001 F900
G01 X159.6097 Y93.5657 F900
G01 Z-10.0000 F100
G01 X164.9094 F900
G01 X165.5092 Y93.5374 F900
G02 X159.0097 Y93.5657 I-3.2497 J0.0282 F900
G02 X165.5092 Y93.5374 I3.2498 J0.0001 F900
G01 X164.9094 Y93.5657 F900
G00 Z30.0000 F480


;No. 25: Ausschnitt 7
G00 X169.0795 Y111.5786 Z30.0000 F2100
G00 Z0.5000 F480
G01 Z0.0000 F100
G01 Z-2.0000 F100
G02 X172.1287 Y117.3133 I3.1801 J1.9871 F900
G02 X175.5705 Y111.8052 I0.1309 J-3.7476 F900
G02 X169.0795 Y111.5786 I-3.3110 J1.7605 F900
G01 Z-4.0000 F100
G02 X172.1287 Y117.3133 I3.1801 J1.9871 F900
G02 X175.5705 Y111.8052 I0.1309 J-3.7476 F900
G02 X169.0795 Y111.5786 I-3.3110 J1.7605 F900
G01 Z-5.0000 F100
G02 X172.1287 Y117.3133 I3.1801 J1.9871 F900
G02 X175.5705 Y111.8052 I0.1309 J-3.7476 F900
G02 X169.0795 Y111.5786 I-3.3110 J1.7605 F900
G00 Z30.0000 F480


;No. 26: Ausschnitt 23
G00 X169.6097 Y113.5657 Z30.0000 F2100
G00 Z0.5000 F480
G01 Z0.0000 F100
G01 Z-2.0000 F100
G01 X174.9094 F900
G01 X175.5092 Y113.5940 F900
G02 X169.0102 Y113.5090 I-3.2497 J-0.0284 F900
G02 X175.5092 Y113.5940 I3.2493 J0.0568 F900
G01 X174.9094 Y113.5657 F900
G01 Z-4.0000 F100
G01 X169.6097 F900
G01 X169.0099 Y113.5940 F900
G02 X175.5094 Y113.5657 I3.2497 J-0.0282 F900
G02 X169.0099 Y113.5940 I-3.2498 J-0.0001 F900
G01 X169.6097 Y113.5657 F900
G01 Z-6.0000 F100
G01 X174.9094 F900
G01 X175.5092 Y113.5940 F900
G02 X169.0102 Y113.5090 I-3.2497 J-0.0284 F900
G02 X175.5092 Y113.5940 I3.2493 J0.0568 F900
G01 X174.9094 Y113.5657 F900
G01 Z-8.0000 F100
G01 X169.6097 F900
G01 X169.0099 Y113.5940 F900
G02 X175.5094 Y113.5657 I3.2497 J-0.0282 F900
G02 X169.0099 Y113.5940 I-3.2498 J-0.0001 F900
G01 X169.6097 Y113.5657 F900
G01 Z-10.0000 F100
G01 X174.9094 F900
G01 X175.5092 Y113.5940 F900
G02 X169.0102 Y113.5090 I-3.2497 J-0.0284 F900
G02 X175.5092 Y113.5940 I3.2493 J0.0568 F900
G01 X174.9094 Y113.5657 F900
G00 Z30.0000 F480


;No. 27: Ausschnitt 11
G00 X178.8610 Y91.9809 Z30.0000 F2100
G00 Z0.5000 F480
G01 Z0.0000 F100
G01 Z-2.0000 F100
G02 X182.5864 Y97.3013 I3.3986 J1.5848 F900
G02 X185.3313 Y91.4149 I-0.3268 J-3.7356 F900
G02 X178.8610 Y91.9809 I-3.0717 J2.1508 F900
G01 Z-4.0000 F100
G02 X182.5864 Y97.3013 I3.3986 J1.5848 F900
G02 X185.3313 Y91.4149 I-0.3268 J-3.7356 F900
G02 X178.8610 Y91.9809 I-3.0717 J2.1508 F900
G01 Z-5.0000 F100
G02 X182.5864 Y97.3013 I3.3986 J1.5848 F900
G02 X185.3313 Y91.4149 I-0.3268 J-3.7356 F900
G02 X178.8610 Y91.9809 I-3.0717 J2.1508 F900
G00 Z30.0000 F480


;No. 28: Ausschnitt 27
G00 X179.6097 Y93.5657 Z30.0000 F2100
G00 Z0.5000 F480
G01 Z0.0000 F100
G01 Z-2.0000 F100
G01 X184.9094 F900
G01 X185.5092 Y93.5374 F900
G02 X179.0097 Y93.5657 I-3.2497 J0.0282 F900
G02 X185.5092 Y93.5374 I3.2498 J0.0001 F900
G01 X184.9094 Y93.5657 F900
G01 Z-4.0000 F100
G01 X179.6097 F900
G01 X179.0099 Y93.5374 F900
G02 X185.5089 Y93.6224 I3.2497 J0.0284 F900
G02 X179.0099 Y93.5374 I-3.2493 J-0.0568 F900
G01 X179.6097 Y93.5657 F900
G01 Z-6.0000 F100
G01 X184.9094 F900
G01 X185.5092 Y93.5374 F900
G02 X179.0097 Y93.5657 I-3.2497 J0.0282 F900
G02 X185.5092 Y93.5374 I3.2498 J0.0001 F900
G01 X184.9094 Y93.5657 F900
G01 Z-8.0000 F100
G01 X179.6097 F900
G01 X179.0099 Y93.5374 F900
G02 X185.5089 Y93.6224 I3.2497 J0.0284 F900
G02 X179.0099 Y93.5374 I-3.2493 J-0.0568 F900
G01 X179.6097 Y93.5657 F900
G01 Z-10.0000 F100
G01 X184.9094 F900
G01 X185.5092 Y93.5374 F900
G02 X179.0097 Y93.5657 I-3.2497 J0.0282 F900
G02 X185.5092 Y93.5374 I3.2498 J0.0001 F900
G01 X184.9094 Y93.5657 F900
G00 Z30.0000 F480


;No. 29: Ausschnitt 8
G00 X188.9798 Y111.7477 Z30.0000 F2100
G00 Z0.5000 F480
G01 Z0.0000 F100
G01 Z-2.0000 F100
G02 X192.3250 Y117.3150 I3.2797 J1.8180 F900
G02 X195.4738 Y111.6344 I-0.0654 J-3.7493 F900
G02 X188.9798 Y111.7477 I-3.2143 J1.9313 F900
G01 Z-4.0000 F100
G02 X192.3250 Y117.3150 I3.2797 J1.8180 F900
G02 X195.4738 Y111.6344 I-0.0654 J-3.7493 F900
G02 X188.9798 Y111.7477 I-3.2143 J1.9313 F900
G01 Z-5.0000 F100
G02 X192.3250 Y117.3150 I3.2797 J1.8180 F900
G02 X195.4738 Y111.6344 I-0.0654 J-3.7493 F900
G02 X188.9798 Y111.7477 I-3.2143 J1.9313 F900
G00 Z30.0000 F480


;No. 30: Ausschnitt 24
G00 X189.6097 Y113.5657 Z30.0000 F2100
G00 Z0.5000 F480
G01 Z0.0000 F100
G01 Z-2.0000 F100
G01 X194.9094 F900
G01 X195.5092 Y113.5940 F900
G02 X189.0102 Y113.5090 I-3.2497 J-0.0284 F900
G02 X195.5092 Y113.5940 I3.2493 J0.0568 F900
G01 X194.9094 Y113.5657 F900
G01 Z-4.0000 F100
G01 X189.6097 F900
G01 X189.0099 Y113.5940 F900
G02 X195.5094 Y113.5657 I3.2497 J-0.0282 F900
G02 X189.0099 Y113.5940 I-3.2498 J-0.0001 F900
G01 X189.6097 Y113.5657 F900
G01 Z-6.0000 F100
G01 X194.9094 F900
G01 X195.5092 Y113.5940 F900
G02 X189.0102 Y113.5090 I-3.2497 J-0.0284 F900
G02 X195.5092 Y113.5940 I3.2493 J0.0568 F900
G01 X194.9094 Y113.5657 F900
G01 Z-8.0000 F100
G01 X189.6097 F900
G01 X189.0099 Y113.5940 F900
G02 X195.5094 Y113.5657 I3.2497 J-0.0282 F900
G02 X189.0099 Y113.5940 I-3.2498 J-0.0001 F900
G01 X189.6097 Y113.5657 F900
G01 Z-10.0000 F100
G01 X194.9094 F900
G01 X195.5092 Y113.5940 F900
G02 X189.0102 Y113.5090 I-3.2497 J-0.0284 F900
G02 X195.5092 Y113.5940 I3.2493 J0.0568 F900
G01 X194.9094 Y113.5657 F900
G00 Z30.0000 F480


;No. 31: Ausschnitt 10
G00 X198.8078 Y92.1005 Z30.0000 F2100
G00 Z0.5000 F480
G01 Z0.0000 F100
G01 Z-2.0000 F100
G02 X202.7165 Y97.2876 I3.4518 J1.4652 F900
G02 X205.2543 Y91.3090 I-0.4570 J-3.7219 F900
G02 X198.8078 Y92.1005 I-2.9948 J2.2567 F900
G01 Z-4.0000 F100
G02 X202.7165 Y97.2876 I3.4518 J1.4652 F900
G02 X205.2543 Y91.3090 I-0.4570 J-3.7219 F900
G02 X198.8078 Y92.1005 I-2.9948 J2.2567 F900
G01 Z-5.0000 F100
G02 X202.7165 Y97.2876 I3.4518 J1.4652 F900
G02 X205.2543 Y91.3090 I-0.4570 J-3.7219 F900
G02 X198.8078 Y92.1005 I-2.9948 J2.2567 F900
G00 Z30.0000 F480


;No. 32: Ausschnitt 26
G00 X199.6097 Y93.5657 Z30.0000 F2100
G00 Z0.5000 F480
G01 Z0.0000 F100
G01 Z-2.0000 F100
G01 X204.9094 F900
G01 X205.5092 Y93.5374 F900
G02 X199.0097 Y93.5657 I-3.2497 J0.0282 F900
G02 X205.5092 Y93.5374 I3.2498 J0.0001 F900
G01 X204.9094 Y93.5657 F900
G01 Z-4.0000 F100
G01 X199.6097 F900
G01 X199.0099 Y93.5374 F900
G02 X205.5089 Y93.6224 I3.2497 J0.0284 F900
G02 X199.0099 Y93.5374 I-3.2493 J-0.0568 F900
G01 X199.6097 Y93.5657 F900
G01 Z-6.0000 F100
G01 X204.9094 F900
G01 X205.5092 Y93.5374 F900
G02 X199.0097 Y93.5657 I-3.2497 J0.0282 F900
G02 X205.5092 Y93.5374 I3.2498 J0.0001 F900
G01 X204.9094 Y93.5657 F900
G01 Z-8.0000 F100
G01 X199.6097 F900
G01 X199.0099 Y93.5374 F900
G02 X205.5089 Y93.6224 I3.2497 J0.0284 F900
G02 X199.0099 Y93.5374 I-3.2493 J-0.0568 F900
G01 X199.6097 Y93.5657 F900
G01 Z-10.0000 F100
G01 X204.9094 F900
G01 X205.5092 Y93.5374 F900
G02 X199.0097 Y93.5657 I-3.2497 J0.0282 F900
G02 X205.5092 Y93.5374 I3.2498 J0.0001 F900
G01 X204.9094 Y93.5657 F900
G00 Z30.0000 F480


;No. 33: Ausschnitt 9
G00 X208.9184 Y111.8633 Z30.0000 F2100
G00 Z0.5000 F480
G01 Z0.0000 F100
G01 Z-2.0000 F100
G02 X212.4558 Y117.3105 I3.3412 J1.7024 F900
G02 X215.4045 Y111.5234 I-0.1963 J-3.7447 F900
G02 X208.9184 Y111.8633 I-3.1449 J2.0423 F900
G01 Z-4.0000 F100
G02 X212.4558 Y117.3105 I3.3412 J1.7024 F900
G02 X215.4045 Y111.5234 I-0.1963 J-3.7447 F900
G02 X208.9184 Y111.8633 I-3.1449 J2.0423 F900
G01 Z-5.0000 F100
G02 X212.4558 Y117.3105 I3.3412 J1.7024 F900
G02 X215.4045 Y111.5234 I-0.1963 J-3.7447 F900
G02 X208.9184 Y111.8633 I-3.1449 J2.0423 F900
G00 Z30.0000 F480


;No. 34: Ausschnitt 25
G00 X209.6097 Y113.5657 Z30.0000 F2100
G00 Z0.5000 F480
G01 Z0.0000 F100
G01 Z-2.0000 F100
G01 X214.9094 F900
G01 X215.5092 Y113.5940 F900
G02 X209.0102 Y113.5090 I-3.2497 J-0.0284 F900
G02 X215.5092 Y113.5940 I3.2493 J0.0568 F900
G01 X214.9094 Y113.5657 F900
G01 Z-4.0000 F100
G01 X209.6097 F900
G01 X209.0099 Y113.5940 F900
G02 X215.5094 Y113.5657 I3.2497 J-0.0282 F900
G02 X209.0099 Y113.5940 I-3.2498 J-0.0001 F900
G01 X209.6097 Y113.5657 F900
G01 Z-6.0000 F100
G01 X214.9094 F900
G01 X215.5092 Y113.5940 F900
G02 X209.0102 Y113.5090 I-3.2497 J-0.0284 F900
G02 X215.5092 Y113.5940 I3.2493 J0.0568 F900
G01 X214.9094 Y113.5657 F900
G01 Z-8.0000 F100
G01 X209.6097 F900
G01 X209.0099 Y113.5940 F900
G02 X215.5094 Y113.5657 I3.2497 J-0.0282 F900
G02 X209.0099 Y113.5940 I-3.2498 J-0.0001 F900
G01 X209.6097 Y113.5657 F900
G01 Z-10.0000 F100
G01 X214.9094 F900
G01 X215.5092 Y113.5940 F900
G02 X209.0102 Y113.5090 I-3.2497 J-0.0284 F900
G02 X215.5092 Y113.5940 I3.2493 J0.0568 F900
G01 X214.9094 Y113.5657 F900
G00 Z30.0000 F480


;No. 35: Ausschnitt 35
G00 X253.0225 Y60.3157 Z30.0000 F2100
G00 Z0.5000 F480
G01 Z0.0000 F100
G01 Z-2.0000 F100
G01 X269.4966 F900
G01 X271.6688 Y55.8157 F900
G01 X250.8503 F900
G01 Y51.3157 F900
G01 X271.6688 F900
G01 X269.4966 Y46.8157 F900
G01 X253.0225 F900
G01 X252.5787 Y46.4108 F900
G02 X269.8775 Y60.7970 I8.6809 J7.1552 F900
G02 X252.5787 Y46.4108 I-8.6176 J-7.2313 F900
G01 X253.0225 Y46.8157 F900
G01 Z-4.0000 F100
G01 X269.4966 F900
G01 X271.6688 Y51.3157 F900
G01 X250.8503 F900
G01 Y55.8157 F900
G01 X271.6688 F900
G01 X269.4966 Y60.3157 F900
G01 X253.0225 F900
G01 X252.5787 Y60.7206 F900
G02 X270.0024 Y46.4859 I8.6812 J-7.1549 F900
G02 X252.5787 Y60.7206 I-8.7428 J7.0795 F900
G01 X253.0225 Y60.3157 F900
G01 Z-6.0000 F100
G01 X269.4966 F900
G01 X271.6688 Y55.8157 F900
G01 X250.8503 F900
G01 Y51.3157 F900
G01 X271.6688 F900
G01 X269.4966 Y46.8157 F900
G01 X253.0225 F900
G01 X252.5787 Y46.4108 F900
G02 X269.8775 Y60.7970 I8.6809 J7.1552 F900
G02 X252.5787 Y46.4108 I-8.6176 J-7.2313 F900
G01 X253.0225 Y46.8157 F900
G01 Z-8.0000 F100
G01 X269.4966 F900
G01 X271.6688 Y51.3157 F900
G01 X250.8503 F900
G01 Y55.8157 F900
G01 X271.6688 F900
G01 X269.4966 Y60.3157 F900
G01 X253.0225 F900
G01 X252.5787 Y60.7206 F900
G02 X270.0024 Y46.4859 I8.6812 J-7.1549 F900
G02 X252.5787 Y60.7206 I-8.7428 J7.0795 F900
G01 X253.0225 Y60.3157 F900
G01 Z-10.0000 F100
G01 X269.4966 F900
G01 X271.6688 Y55.8157 F900
G01 X250.8503 F900
G01 Y51.3157 F900
G01 X271.6688 F900
G01 X269.4966 Y46.8157 F900
G01 X253.0225 F900
G01 X252.5787 Y46.4108 F900
G02 X269.8775 Y60.7970 I8.6809 J7.1552 F900
G02 X252.5787 Y46.4108 I-8.6176 J-7.2313 F900
G01 X253.0225 Y46.8157 F900
G00 Z30.0000 F480


;No. 36: Ausschnitt 36
G00 X300.8503 Y51.3157 Z30.0000 F2100
G00 Z0.5000 F480
G01 Z0.0000 F100
G01 Z-2.0000 F100
G01 X321.6688 F900
G01 Y55.8157 F900
G01 X300.8503 F900
G01 X303.0225 Y60.3157 F900
G01 X319.4966 F900
G01 Y46.8157 F900
G01 X303.0225 F900
G01 X302.5787 Y46.4108 F900
G02 X319.8775 Y60.7970 I8.6809 J7.1552 F900
G02 X302.5787 Y46.4108 I-8.6176 J-7.2313 F900
G01 X303.0225 Y46.8157 F900
G01 Z-4.0000 F100
G01 X319.4966 F900
G01 X321.6688 Y51.3157 F900
G01 X300.8503 F900
G01 Y55.8157 F900
G01 X321.6688 F900
G01 X319.4966 Y60.3157 F900
G01 X303.0225 F900
G01 X302.5787 Y60.7206 F900
G02 X320.0024 Y46.4859 I8.6812 J-7.1549 F900
G02 X302.5787 Y60.7206 I-8.7428 J7.0795 F900
G01 X303.0225 Y60.3157 F900
G01 Z-6.0000 F100
G01 X319.4966 F900
G01 X321.6688 Y55.8157 F900
G01 X300.8503 F900
G01 Y51.3157 F900
G01 X321.6688 F900
G01 X319.4966 Y46.8157 F900
G01 X303.0225 F900
G01 X302.5787 Y46.4108 F900
G02 X319.8775 Y60.7970 I8.6809 J7.1552 F900
G02 X302.5787 Y46.4108 I-8.6176 J-7.2313 F900
G01 X303.0225 Y46.8157 F900
G01 Z-8.0000 F100
G01 X319.4966 F900
G01 X321.6688 Y51.3157 F900
G01 X300.8503 F900
G01 Y55.8157 F900
G01 X321.6688 F900
G01 X319.4966 Y60.3157 F900
G01 X303.0225 F900
G01 X302.5787 Y60.7206 F900
G02 X320.0024 Y46.4859 I8.6812 J-7.1549 F900
G02 X302.5787 Y60.7206 I-8.7428 J7.0795 F900
G01 X303.0225 Y60.3157 F900
G01 Z-10.0000 F100
G01 X319.4966 F900
G01 X321.6688 Y55.8157 F900
G01 X300.8503 F900
G01 Y51.3157 F900
G01 X321.6688 F900
G01 X319.4966 Y46.8157 F900
G01 X303.0225 F900
G01 X302.5787 Y46.4108 F900
G02 X319.8775 Y60.7970 I8.6809 J7.1552 F900
G02 X302.5787 Y46.4108 I-8.6176 J-7.2313 F900
G01 X303.0225 Y46.8157 F900
G00 Z30.0000 F480


;No. 37: Ausschnitt 37
G00 X350.8503 Y51.3157 Z30.0000 F2100
G00 Z0.5000 F480
G01 Z0.0000 F100
G01 Z-2.0000 F100
G01 X371.6688 F900
G01 Y55.8157 F900
G01 X350.8503 F900
G01 X353.0225 Y60.3157 F900
G01 X369.4966 F900
G01 Y46.8157 F900
G01 X353.0225 F900
G01 X352.5787 Y46.4108 F900
G02 X369.8775 Y60.7970 I8.6809 J7.1552 F900
G02 X352.5787 Y46.4108 I-8.6176 J-7.2313 F900
G01 X353.0225 Y46.8157 F900
G01 Z-4.0000 F100
G01 X369.4966 F900
G01 X371.6688 Y51.3157 F900
G01 X350.8503 F900
G01 Y55.8157 F900
G01 X371.6688 F900
G01 X369.4966 Y60.3157 F900
G01 X353.0225 F900
G01 X352.5787 Y60.7206 F900
G02 X370.0024 Y46.4859 I8.6812 J-7.1549 F900
G02 X352.5787 Y60.7206 I-8.7428 J7.0795 F900
G01 X353.0225 Y60.3157 F900
G01 Z-6.0000 F100
G01 X369.4966 F900
G01 X371.6688 Y55.8157 F900
G01 X350.8503 F900
G01 Y51.3157 F900
G01 X371.6688 F900
G01 X369.4966 Y46.8157 F900
G01 X353.0225 F900
G01 X352.5787 Y46.4108 F900
G02 X369.8775 Y60.7970 I8.6809 J7.1552 F900
G02 X352.5787 Y46.4108 I-8.6176 J-7.2313 F900
G01 X353.0225 Y46.8157 F900
G01 Z-8.0000 F100
G01 X369.4966 F900
G01 X371.6688 Y51.3157 F900
G01 X350.8503 F900
G01 Y55.8157 F900
G01 X371.6688 F900
G01 X369.4966 Y60.3157 F900
G01 X353.0225 F900
G01 X352.5787 Y60.7206 F900
G02 X370.0024 Y46.4859 I8.6812 J-7.1549 F900
G02 X352.5787 Y60.7206 I-8.7428 J7.0795 F900
G01 X353.0225 Y60.3157 F900
G01 Z-10.0000 F100
G01 X369.4966 F900
G01 X371.6688 Y55.8157 F900
G01 X350.8503 F900
G01 Y51.3157 F900
G01 X371.6688 F900
G01 X369.4966 Y46.8157 F900
G01 X353.0225 F900
G01 X352.5787 Y46.4108 F900
G02 X369.8775 Y60.7970 I8.6809 J7.1552 F900
G02 X352.5787 Y46.4108 I-8.6176 J-7.2313 F900
G01 X353.0225 Y46.8157 F900
G00 Z30.0000 F480


;No. 38: Teil 1
G00 X228.2596 Y12.5787 Z30.0000 F2100
G00 Z0.5000 F480
G01 Z0.0000 F100
G01 Z-2.0000 F100
G01 X429.7596 F900
G03 X432.7596 Y15.5787 I0.0000 J3.0000 F900
G01 Y80.0722 F900
G01 Y89.0722 F900
G01 Y153.5657 F900
G03 X429.7596 Y156.5657 I-3.0000 J0.0000 F900
G01 X228.2596 F900
G01 X219.2596 F900
G01 X17.7596 F900
G03 X14.7596 Y153.5657 I0.0000 J-3.0000 F900
G01 Y89.0722 F900
G01 Y80.0722 F900
G01 Y15.5787 F900
G03 X17.7596 Y12.5787 I3.0000 J0.0000 F900
G01 X219.2596 F900
G01 X228.2596 F900
G01 Z-4.0000 F100
G01 X429.7596 F900
G03 X432.7596 Y15.5787 I0.0000 J3.0000 F900
G01 Y80.0722 F900
G01 Y89.0722 F900
G01 Y153.5657 F900
G03 X429.7596 Y156.5657 I-3.0000 J0.0000 F900
G01 X228.2596 F900
G01 X219.2596 F900
G01 X17.7596 F900
G03 X14.7596 Y153.5657 I0.0000 J-3.0000 F900
G01 Y89.0722 F900
G01 Y80.0722 F900
G01 Y15.5787 F900
G03 X17.7596 Y12.5787 I3.0000 J0.0000 F900
G01 X219.2596 F900
G01 X228.2596 F900
G01 Z-6.0000 F100
G01 X429.7596 F900
G03 X432.7596 Y15.5787 I0.0000 J3.0000 F900
G01 Y80.0722 F900
G01 Y89.0722 F900
G01 Y153.5657 F900
G03 X429.7596 Y156.5657 I-3.0000 J0.0000 F900
G01 X228.2596 F900
G01 X219.2596 F900
G01 X17.7596 F900
G03 X14.7596 Y153.5657 I0.0000 J-3.0000 F900
G01 Y89.0722 F900
G01 Y80.0722 F900
G01 Y15.5787 F900
G03 X17.7596 Y12.5787 I3.0000 J0.0000 F900
G01 X219.2596 F900
G01 X228.2596 F900
G01 Z-8.0000 F100
G01 X429.7596 F900
G03 X432.7596 Y15.5787 I0.0000 J3.0000 F900
G01 Y80.0722 F900
G00 Z-6.0000 F480
G01 Y89.0722 F900
G01 Z-8.0000 F100
G01 Y153.5657 F900
G03 X429.7596 Y156.5657 I-3.0000 J0.0000 F900
G01 X228.2596 F900
G00 Z-6.0000 F480
G01 X219.2596 F900
G01 Z-8.0000 F100
G01 X17.7596 F900
G03 X14.7596 Y153.5657 I0.0000 J-3.0000 F900
G01 Y89.0722 F900
G00 Z-6.0000 F480
G01 Y80.0722 F900
G01 Z-8.0000 F100
G01 Y15.5787 F900
G03 X17.7596 Y12.5787 I3.0000 J0.0000 F900
G01 X219.2596 F900
G00 Z-6.0000 F480
G01 X228.2596 F900
G00 Z-7.5000 F480
G01 Z-8.0000 F100
G01 Z-10.0000 F100
G01 X429.7596 F900
G03 X432.7596 Y15.5787 I0.0000 J3.0000 F900
G01 Y80.0722 F900
G00 Z-6.0000 F480
G01 Y89.0722 F900
G00 Z-7.5000 F480
G01 Z-8.0000 F100
G01 Z-10.0000 F100
G01 Y153.5657 F900
G03 X429.7596 Y156.5657 I-3.0000 J0.0000 F900
G01 X228.2596 F900
G00 Z-6.0000 F480
G01 X219.2596 F900
G00 Z-7.5000 F480
G01 Z-8.0000 F100
G01 Z-10.0000 F100
G01 X17.7596 F900
G03 X14.7596 Y153.5657 I0.0000 J-3.0000 F900
G01 Y89.0722 F900
G00 Z-6.0000 F480
G01 Y80.0722 F900
G00 Z-7.5000 F480
G01 Z-8.0000 F100
G01 Z-10.0000 F100
G01 Y15.5787 F900
G03 X17.7596 Y12.5787 I3.0000 J0.0000 F900
G01 X219.2596 F900
G00 Z-6.0000 F480
G01 X228.2596 F900
G00 Z30.0000 F480
G00 X0.0000 Y0.0000 F2100

M05
