;Project front-nach
;Created by Estlcam version 11 build 11,245
;Machining time about 00:05:22 hours

G90
M03 S30000
G00 Z15.0000 F480


;No. 1: Ausschnitt 19
G00 X42.4121 Y74.3723 F2100
G00 Z0.5000 F480
G01 Z0.0000 F100 S30000
G01 Z-2.0000 F100
G02 X42.4120 Y81.6034 I2.0874 J3.6156 F900
G02 X48.6743 Y77.9879 I2.0875 J-3.6155 F900
G02 X42.4121 Y74.3723 I-4.1749 J0.0000 F900
G01 Z-4.0000 F100
G02 X42.4120 Y81.6034 I2.0874 J3.6156 F900
G02 X48.6743 Y77.9879 I2.0875 J-3.6155 F900
G02 X42.4121 Y74.3723 I-4.1749 J0.0000 F900
G01 Z-6.0000 F100
G02 X42.4120 Y81.6034 I2.0874 J3.6156 F900
G02 X48.6743 Y77.9879 I2.0875 J-3.6155 F900
G02 X42.4121 Y74.3723 I-4.1749 J0.0000 F900
G01 Z-7.0000 F100
G02 X42.4120 Y81.6034 I2.0874 J3.6156 F900
G02 X48.6743 Y77.9879 I2.0875 J-3.6155 F900
G02 X42.4121 Y74.3723 I-4.1749 J0.0000 F900
G00 Z15.0000 F480


;No. 2: Ausschnitt 16
G00 X61.8159 Y74.7897 Z15.0000 F2100
G00 Z0.5000 F480
G01 Z0.0000 F100
G01 Z-2.0000 F100
G02 X63.0715 Y81.9110 I2.6835 J3.1982 F900
G02 X68.6109 Y77.2630 I1.4279 J-3.9231 F900
G02 X61.8159 Y74.7897 I-4.1114 J0.7249 F900
G01 Z-4.0000 F100
G02 X63.0715 Y81.9110 I2.6835 J3.1982 F900
G02 X68.6109 Y77.2630 I1.4279 J-3.9231 F900
G02 X61.8159 Y74.7897 I-4.1114 J0.7249 F900
G01 Z-6.0000 F100
G02 X63.0715 Y81.9110 I2.6835 J3.1982 F900
G02 X68.6109 Y77.2630 I1.4279 J-3.9231 F900
G02 X61.8159 Y74.7897 I-4.1114 J0.7249 F900
G01 Z-7.0000 F100
G02 X63.0715 Y81.9110 I2.6835 J3.1982 F900
G02 X68.6109 Y77.2630 I1.4279 J-3.9231 F900
G02 X61.8159 Y74.7897 I-4.1114 J0.7249 F900
G00 Z15.0000 F480


;No. 3: Ausschnitt 15
G00 X81.4462 Y75.1406 Z15.0000 F2100
G00 Z0.5000 F480
G01 Z0.0000 F100
G01 Z-2.0000 F100
G02 X83.5603 Y82.0557 I3.0533 J2.8473 F900
G02 X88.4919 Y76.7673 I0.9392 J-4.0679 F900
G02 X81.4462 Y75.1406 I-3.9925 J1.2206 F900
G01 Z-4.0000 F100
G02 X83.5603 Y82.0557 I3.0533 J2.8473 F900
G02 X88.4919 Y76.7673 I0.9392 J-4.0679 F900
G02 X81.4462 Y75.1406 I-3.9925 J1.2206 F900
G01 Z-6.0000 F100
G02 X83.5603 Y82.0557 I3.0533 J2.8473 F900
G02 X88.4919 Y76.7673 I0.9392 J-4.0679 F900
G02 X81.4462 Y75.1406 I-3.9925 J1.2206 F900
G01 Z-7.0000 F100
G02 X83.5603 Y82.0557 I3.0533 J2.8473 F900
G02 X88.4919 Y76.7673 I0.9392 J-4.0679 F900
G02 X81.4462 Y75.1406 I-3.9925 J1.2206 F900
G00 Z15.0000 F480


;No. 4: Ausschnitt 14
G00 X101.1658 Y75.4750 Z15.0000 F2100
G00 Z0.5000 F480
G01 Z0.0000 F100
G01 Z-2.0000 F100
G02 X103.9911 Y82.1313 I3.3342 J2.5125 F900
G02 X108.3430 Y76.3563 I0.5088 J-4.1437 F900
G02 X101.1658 Y75.4750 I-3.8430 J1.6312 F900
G01 Z-4.0000 F100
G02 X103.9911 Y82.1313 I3.3342 J2.5125 F900
G02 X108.3430 Y76.3563 I0.5088 J-4.1437 F900
G02 X101.1658 Y75.4750 I-3.8430 J1.6312 F900
G01 Z-6.0000 F100
G02 X103.9911 Y82.1313 I3.3342 J2.5125 F900
G02 X108.3430 Y76.3563 I0.5088 J-4.1437 F900
G02 X101.1658 Y75.4750 I-3.8430 J1.6312 F900
G01 Z-7.0000 F100
G02 X103.9911 Y82.1313 I3.3342 J2.5125 F900
G02 X108.3430 Y76.3563 I0.5088 J-4.1437 F900
G02 X101.1658 Y75.4750 I-3.8430 J1.6312 F900
G00 Z15.0000 F480


;No. 5: Ausschnitt 11
G00 X120.9595 Y75.7752 Z15.0000 F2100
G00 Z0.5000 F480
G01 Z0.0000 F100
G01 Z-2.0000 F100
G02 X124.3542 Y82.1599 I3.5405 J2.2124 F900
G02 X128.1862 Y76.0276 I0.1457 J-4.1723 F900
G02 X120.9595 Y75.7752 I-3.6862 J1.9599 F900
G01 Z-4.0000 F100
G02 X124.3542 Y82.1599 I3.5405 J2.2124 F900
G02 X128.1862 Y76.0276 I0.1457 J-4.1723 F900
G02 X120.9595 Y75.7752 I-3.6862 J1.9599 F900
G01 Z-6.0000 F100
G02 X124.3542 Y82.1599 I3.5405 J2.2124 F900
G02 X128.1862 Y76.0276 I0.1457 J-4.1723 F900
G02 X120.9595 Y75.7752 I-3.6862 J1.9599 F900
G01 Z-7.0000 F100
G02 X124.3542 Y82.1599 I3.5405 J2.2124 F900
G02 X128.1862 Y76.0276 I0.1457 J-4.1723 F900
G02 X120.9595 Y75.7752 I-3.6862 J1.9599 F900
G00 Z15.0000 F480


;No. 6: Ausschnitt 10
G00 X140.8138 Y76.0275 Z15.0000 F2100
G00 Z0.5000 F480
G01 Z0.0000 F100
G01 Z-2.0000 F100
G02 X144.6456 Y82.1599 I3.6862 J1.9600 F900
G02 X148.0405 Y75.7752 I-0.1457 J-4.1723 F900
G02 X140.8138 Y76.0275 I-3.5405 J2.2123 F900
G01 Z-4.0000 F100
G02 X144.6456 Y82.1599 I3.6862 J1.9600 F900
G02 X148.0405 Y75.7752 I-0.1457 J-4.1723 F900
G02 X140.8138 Y76.0275 I-3.5405 J2.2123 F900
G01 Z-6.0000 F100
G02 X144.6456 Y82.1599 I3.6862 J1.9600 F900
G02 X148.0405 Y75.7752 I-0.1457 J-4.1723 F900
G02 X140.8138 Y76.0275 I-3.5405 J2.2123 F900
G01 Z-7.0000 F100
G02 X144.6456 Y82.1599 I3.6862 J1.9600 F900
G02 X148.0405 Y75.7752 I-0.1457 J-4.1723 F900
G02 X140.8138 Y76.0275 I-3.5405 J2.2123 F900
G00 Z15.0000 F480


;No. 7: Ausschnitt 7
G00 X160.7158 Y76.2235 Z15.0000 F2100
G00 Z0.5000 F480
G01 Z0.0000 F100
G01 Z-2.0000 F100
G02 X164.8633 Y82.1469 I3.7837 J1.7644 F900
G02 X167.9193 Y75.5933 I-0.3638 J-4.1590 F900
G02 X160.7158 Y76.2235 I-3.4199 J2.3946 F900
G01 Z-4.0000 F100
G02 X164.8633 Y82.1469 I3.7837 J1.7644 F900
G02 X167.9193 Y75.5933 I-0.3638 J-4.1590 F900
G02 X160.7158 Y76.2235 I-3.4199 J2.3946 F900
G01 Z-6.0000 F100
G02 X164.8633 Y82.1469 I3.7837 J1.7644 F900
G02 X167.9193 Y75.5933 I-0.3638 J-4.1590 F900
G02 X160.7158 Y76.2235 I-3.4199 J2.3946 F900
G01 Z-7.0000 F100
G02 X164.8633 Y82.1469 I3.7837 J1.7644 F900
G02 X167.9193 Y75.5933 I-0.3638 J-4.1590 F900
G02 X160.7158 Y76.2235 I-3.4199 J2.3946 F900
G00 Z15.0000 F480


;No. 8: Ausschnitt 4
G00 X180.6570 Y76.3563 Z15.0000 F2100
G00 Z0.5000 F480
G01 Z0.0000 F100
G01 Z-2.0000 F100
G02 X185.0087 Y82.1313 I3.8430 J1.6313 F900
G02 X187.8342 Y75.4751 I-0.5088 J-4.1438 F900
G02 X180.6570 Y76.3563 I-3.3342 J2.5125 F900
G01 Z-4.0000 F100
G02 X185.0087 Y82.1313 I3.8430 J1.6313 F900
G02 X187.8342 Y75.4751 I-0.5088 J-4.1438 F900
G02 X180.6570 Y76.3563 I-3.3342 J2.5125 F900
G01 Z-6.0000 F100
G02 X185.0087 Y82.1313 I3.8430 J1.6313 F900
G02 X187.8342 Y75.4751 I-0.5088 J-4.1438 F900
G02 X180.6570 Y76.3563 I-3.3342 J2.5125 F900
G01 Z-7.0000 F100
G02 X185.0087 Y82.1313 I3.8430 J1.6313 F900
G02 X187.8342 Y75.4751 I-0.5088 J-4.1438 F900
G02 X180.6570 Y76.3563 I-3.3342 J2.5125 F900
G00 Z15.0000 F480


;No. 9: Ausschnitt 6
G00 X170.8481 Y95.9638 Z15.0000 F2100
G00 Z0.5000 F480
G01 Z0.0000 F100
G01 Z-2.0000 F100
G02 X174.5723 Y102.1621 I3.6514 J2.0241 F900
G02 X178.0781 Y95.8377 I-0.0728 J-4.1742 F900
G02 X170.8481 Y95.9638 I-3.5786 J2.1502 F900
G01 Z-4.0000 F100
G02 X174.5723 Y102.1621 I3.6514 J2.0241 F900
G02 X178.0781 Y95.8377 I-0.0728 J-4.1742 F900
G02 X170.8481 Y95.9638 I-3.5786 J2.1502 F900
G01 Z-6.0000 F100
G02 X174.5723 Y102.1621 I3.6514 J2.0241 F900
G02 X178.0781 Y95.8377 I-0.0728 J-4.1742 F900
G02 X170.8481 Y95.9638 I-3.5786 J2.1502 F900
G01 Z-7.0000 F100
G02 X174.5723 Y102.1621 I3.6514 J2.0241 F900
G02 X178.0781 Y95.8377 I-0.0728 J-4.1742 F900
G02 X170.8481 Y95.9638 I-3.5786 J2.1502 F900
G00 Z15.0000 F480


;No. 10: Ausschnitt 8
G00 X150.9590 Y95.7755 Z15.0000 F2100
G00 Z0.5000 F480
G01 Z0.0000 F100
G01 Z-2.0000 F100
G02 X154.3537 Y102.1602 I3.5405 J2.2124 F900
G02 X158.1857 Y96.0279 I0.1457 J-4.1723 F900
G02 X150.9590 Y95.7755 I-3.6862 J1.9599 F900
G01 Z-4.0000 F100
G02 X154.3537 Y102.1602 I3.5405 J2.2124 F900
G02 X158.1857 Y96.0279 I0.1457 J-4.1723 F900
G02 X150.9590 Y95.7755 I-3.6862 J1.9599 F900
G01 Z-6.0000 F100
G02 X154.3537 Y102.1602 I3.5405 J2.2124 F900
G02 X158.1857 Y96.0279 I0.1457 J-4.1723 F900
G02 X150.9590 Y95.7755 I-3.6862 J1.9599 F900
G01 Z-7.0000 F100
G02 X154.3537 Y102.1602 I3.5405 J2.2124 F900
G02 X158.1857 Y96.0279 I0.1457 J-4.1723 F900
G02 X150.9590 Y95.7755 I-3.6862 J1.9599 F900
G00 Z15.0000 F480


;No. 11: Ausschnitt 9
G00 X131.1220 Y95.5339 Z15.0000 F2100
G00 Z0.5000 F480
G01 Z0.0000 F100
G01 Z-2.0000 F100
G02 X134.0630 Y102.1399 I3.3775 J2.4540 F900
G02 X138.3134 Y96.2899 I0.4364 J-4.1520 F900
G02 X131.1220 Y95.5339 I-3.8139 J1.6980 F900
G01 Z-4.0000 F100
G02 X134.0630 Y102.1399 I3.3775 J2.4540 F900
G02 X138.3134 Y96.2899 I0.4364 J-4.1520 F900
G02 X131.1220 Y95.5339 I-3.8139 J1.6980 F900
G01 Z-6.0000 F100
G02 X134.0630 Y102.1399 I3.3775 J2.4540 F900
G02 X138.3134 Y96.2899 I0.4364 J-4.1520 F900
G02 X131.1220 Y95.5339 I-3.8139 J1.6980 F900
G01 Z-7.0000 F100
G02 X134.0630 Y102.1399 I3.3775 J2.4540 F900
G02 X138.3134 Y96.2899 I0.4364 J-4.1520 F900
G02 X131.1220 Y95.5339 I-3.8139 J1.6980 F900
G00 Z15.0000 F480


;No. 12: Ausschnitt 12
G00 X111.3487 Y95.2489 Z15.0000 F2100
G00 Z0.5000 F480
G01 Z0.0000 F100
G01 Z-2.0000 F100
G02 X113.7028 Y102.0860 I3.1508 J2.7390 F900
G02 X118.4469 Y96.6287 I0.7966 J-4.0982 F900
G02 X111.3487 Y95.2489 I-3.9474 J1.3592 F900
G01 Z-4.0000 F100
G02 X113.7028 Y102.0860 I3.1508 J2.7390 F900
G02 X118.4469 Y96.6287 I0.7966 J-4.0982 F900
G02 X111.3487 Y95.2489 I-3.9474 J1.3592 F900
G01 Z-6.0000 F100
G02 X113.7028 Y102.0860 I3.1508 J2.7390 F900
G02 X118.4469 Y96.6287 I0.7966 J-4.0982 F900
G02 X111.3487 Y95.2489 I-3.9474 J1.3592 F900
G01 Z-7.0000 F100
G02 X113.7028 Y102.0860 I3.1508 J2.7390 F900
G02 X118.4469 Y96.6287 I0.7966 J-4.0982 F900
G02 X111.3487 Y95.2489 I-3.9474 J1.3592 F900
G00 Z15.0000 F480


;No. 13: Ausschnitt 13
G00 X91.5994 Y94.9847 Z15.0000 F2100
G00 Z0.5000 F480
G01 Z0.0000 F100
G01 Z-2.0000 F100
G02 X93.3487 Y102.0010 I2.9001 J3.0032 F900
G02 X98.5503 Y96.9779 I1.1508 J-4.0131 F900
G02 X91.5994 Y94.9847 I-4.0509 J1.0099 F900
G01 Z-4.0000 F100
G02 X93.3487 Y102.0010 I2.9001 J3.0032 F900
G02 X98.5503 Y96.9779 I1.1508 J-4.0131 F900
G02 X91.5994 Y94.9847 I-4.0509 J1.0099 F900
G01 Z-6.0000 F100
G02 X93.3487 Y102.0010 I2.9001 J3.0032 F900
G02 X98.5503 Y96.9779 I1.1508 J-4.0131 F900
G02 X91.5994 Y94.9847 I-4.0509 J1.0099 F900
G01 Z-7.0000 F100
G02 X93.3487 Y102.0010 I2.9001 J3.0032 F900
G02 X98.5503 Y96.9779 I1.1508 J-4.0131 F900
G02 X91.5994 Y94.9847 I-4.0509 J1.0099 F900
G00 Z15.0000 F480


;No. 14: Ausschnitt 17
G00 X71.9870 Y94.6537 Z15.0000 F2100
G00 Z0.5000 F480
G01 Z0.0000 F100
G01 Z-2.0000 F100
G02 X72.8682 Y101.8308 I2.5125 J3.3342 F900
G02 X78.6432 Y97.4791 I1.6313 J-3.8430 F900
G02 X71.9870 Y94.6537 I-4.1438 J0.5087 F900
G01 Z-4.0000 F100
G02 X72.8682 Y101.8308 I2.5125 J3.3342 F900
G02 X78.6432 Y97.4791 I1.6313 J-3.8430 F900
G02 X71.9870 Y94.6537 I-4.1438 J0.5087 F900
G01 Z-6.0000 F100
G02 X72.8682 Y101.8308 I2.5125 J3.3342 F900
G02 X78.6432 Y97.4791 I1.6313 J-3.8430 F900
G02 X71.9870 Y94.6537 I-4.1438 J0.5087 F900
G01 Z-7.0000 F100
G02 X72.8682 Y101.8308 I2.5125 J3.3342 F900
G02 X78.6432 Y97.4791 I1.6313 J-3.8430 F900
G02 X71.9870 Y94.6537 I-4.1438 J0.5087 F900
G00 Z15.0000 F480


;No. 15: Ausschnitt 18
G00 X52.4755 Y94.3364 Z15.0000 F2100
G00 Z0.5000 F480
G01 Z0.0000 F100
G01 Z-2.0000 F100
G02 X52.3492 Y101.5664 I2.0240 J3.6514 F900
G02 X58.6737 Y98.0608 I2.1502 J-3.5785 F900
G02 X52.4755 Y94.3364 I-4.1742 J-0.0729 F900
G01 Z-4.0000 F100
G02 X52.3492 Y101.5664 I2.0240 J3.6514 F900
G02 X58.6737 Y98.0608 I2.1502 J-3.5785 F900
G02 X52.4755 Y94.3364 I-4.1742 J-0.0729 F900
G01 Z-6.0000 F100
G02 X52.3492 Y101.5664 I2.0240 J3.6514 F900
G02 X58.6737 Y98.0608 I2.1502 J-3.5785 F900
G02 X52.4755 Y94.3364 I-4.1742 J-0.0729 F900
G01 Z-7.0000 F100
G02 X52.3492 Y101.5664 I2.0240 J3.6514 F900
G02 X58.6737 Y98.0608 I2.1502 J-3.5785 F900
G02 X52.4755 Y94.3364 I-4.1742 J-0.0729 F900
G00 Z15.0000 F480


;No. 16: Ausschnitt 5
G00 X190.7797 Y96.0925 Z15.0000 F2100
G00 Z0.5000 F480
G01 Z0.0000 F100
G01 Z-2.0000 F100
G02 X194.7179 Y102.1570 I3.7198 J1.8954 F900
G02 X198.0008 Y95.7141 I-0.2185 J-4.1691 F900
G02 X190.7797 Y96.0925 I-3.5014 J2.2738 F900
G01 Z-4.0000 F100
G02 X194.7179 Y102.1570 I3.7198 J1.8954 F900
G02 X198.0008 Y95.7141 I-0.2185 J-4.1691 F900
G02 X190.7797 Y96.0925 I-3.5014 J2.2738 F900
G01 Z-6.0000 F100
G02 X194.7179 Y102.1570 I3.7198 J1.8954 F900
G02 X198.0008 Y95.7141 I-0.2185 J-4.1691 F900
G02 X190.7797 Y96.0925 I-3.5014 J2.2738 F900
G01 Z-7.0000 F100
G02 X194.7179 Y102.1570 I3.7198 J1.8954 F900
G02 X198.0008 Y95.7141 I-0.2185 J-4.1691 F900
G02 X190.7797 Y96.0925 I-3.5014 J2.2738 F900
G00 Z15.0000 F480


;No. 17: Ausschnitt 1
G00 X232.0676 Y36.1763 Z15.0000 F2100
G00 Z0.5000 F480
G01 Z0.0000 F100
G01 Z-2.0000 F100
G02 X247.6481 Y48.7931 I11.4324 J1.8107 F900
G02 X250.7843 Y28.9916 I-4.1481 J-10.8061 F900
G02 X232.0676 Y36.1763 I-7.2843 J8.9954 F900
G01 Z-4.0000 F100
G02 X247.6481 Y48.7931 I11.4324 J1.8107 F900
G02 X250.7843 Y28.9916 I-4.1481 J-10.8061 F900
G02 X232.0676 Y36.1763 I-7.2843 J8.9954 F900
G01 Z-6.0000 F100
G02 X247.6481 Y48.7931 I11.4324 J1.8107 F900
G02 X250.7843 Y28.9916 I-4.1481 J-10.8061 F900
G02 X232.0676 Y36.1763 I-7.2843 J8.9954 F900
G01 Z-8.0000 F100
G02 X247.6481 Y48.7931 I11.4324 J1.8107 F900
G02 X250.7843 Y28.9916 I-4.1481 J-10.8061 F900
G02 X232.0676 Y36.1763 I-7.2843 J8.9954 F900
G01 Z-10.0000 F100
G02 X247.6481 Y48.7931 I11.4324 J1.8107 F900
G02 X250.7843 Y28.9916 I-4.1481 J-10.8061 F900
G02 X232.0676 Y36.1763 I-7.2843 J8.9954 F900
G00 Z15.0000 F480


;No. 18: Ausschnitt 2
G00 X282.0114 Y36.5756 Z15.0000 F2100
G00 Z0.5000 F480
G01 Z0.0000 F100
G01 Z-2.0000 F100
G02 X298.0227 Y48.6409 I11.4886 J1.4106 F900
G02 X300.4659 Y28.7421 I-4.5227 J-10.6547 F900
G02 X282.0114 Y36.5756 I-6.9659 J9.2441 F900
G01 Z-4.0000 F100
G02 X298.0227 Y48.6409 I11.4886 J1.4106 F900
G02 X300.4659 Y28.7421 I-4.5227 J-10.6547 F900
G02 X282.0114 Y36.5756 I-6.9659 J9.2441 F900
G01 Z-6.0000 F100
G02 X298.0227 Y48.6409 I11.4886 J1.4106 F900
G02 X300.4659 Y28.7421 I-4.5227 J-10.6547 F900
G02 X282.0114 Y36.5756 I-6.9659 J9.2441 F900
G01 Z-8.0000 F100
G02 X298.0227 Y48.6409 I11.4886 J1.4106 F900
G02 X300.4659 Y28.7421 I-4.5227 J-10.6547 F900
G02 X282.0114 Y36.5756 I-6.9659 J9.2441 F900
G01 Z-10.0000 F100
G02 X298.0227 Y48.6409 I11.4886 J1.4106 F900
G02 X300.4659 Y28.7421 I-4.5227 J-10.6547 F900
G02 X282.0114 Y36.5756 I-6.9659 J9.2441 F900
G00 Z15.0000 F480


;No. 19: Ausschnitt 3
G00 X331.9885 Y36.7769 Z15.0000 F2100
G00 Z0.5000 F480
G01 Z0.0000 F100
G01 Z-2.0000 F100
G02 X348.2079 Y48.5610 I11.5115 J1.2099 F900
G02 X350.3035 Y28.6225 I-4.7079 J-10.5742 F900
G02 X331.9885 Y36.7769 I-6.8035 J9.3643 F900
G01 Z-4.0000 F100
G02 X348.2079 Y48.5610 I11.5115 J1.2099 F900
G02 X350.3035 Y28.6225 I-4.7079 J-10.5742 F900
G02 X331.9885 Y36.7769 I-6.8035 J9.3643 F900
G01 Z-6.0000 F100
G02 X348.2079 Y48.5610 I11.5115 J1.2099 F900
G02 X350.3035 Y28.6225 I-4.7079 J-10.5742 F900
G02 X331.9885 Y36.7769 I-6.8035 J9.3643 F900
G01 Z-8.0000 F100
G02 X348.2079 Y48.5610 I11.5115 J1.2099 F900
G02 X350.3035 Y28.6225 I-4.7079 J-10.5742 F900
G02 X331.9885 Y36.7769 I-6.8035 J9.3643 F900
G01 Z-10.0000 F100
G02 X348.2079 Y48.5610 I11.5115 J1.2099 F900
G02 X350.3035 Y28.6225 I-4.7079 J-10.5742 F900
G02 X331.9885 Y36.7769 I-6.8035 J9.3643 F900
G00 Z15.0000 F480
G00 X0.0000 Y0.0000 F2100

M05
