;Project left
;Created by Estlcam version 11 build 11,244
;Machining time about 00:43:13 hours

G90
M03 S30000
G00 Z30.0000 F480


;No. 1: Ausschnitt 4
G00 X456.9359 Y63.1410 F2100
G00 Z0.5000 F480
G01 Z0.0000 F100 S30000
G01 Z-2.0000 F100
G01 X459.2359 F900
G01 Y67.6410 F900
G01 X456.9359 F900
G01 Y72.1410 F900
G01 X459.2359 F900
G01 Y76.6410 F900
G01 X456.9359 F900
G01 Y81.1410 F900
G01 X459.2359 F900
G01 Y85.6410 F900
G01 X456.9359 F900
G01 Y90.1410 F900
G01 X459.2359 F900
G01 Y94.6410 F900
G01 X456.9359 F900
G01 Y99.1410 F900
G01 X459.2359 F900
G01 Y103.6410 F900
G01 X456.9359 F900
G01 Y108.1410 F900
G01 X459.2359 F900
G01 Y112.6410 F900
G01 X456.9359 F900
G01 Y117.1410 F900
G01 X459.2359 F900
G01 Y121.6410 F900
G01 X456.9359 F900
G01 Y126.1410 F900
G01 X459.2359 F900
G01 Y130.6410 F900
G01 X456.9359 F900
G01 Y135.1410 F900
G01 X459.2359 F900
G01 Y139.6410 F900
G01 X456.9359 F900
G01 Y144.1410 F900
G01 X459.2359 F900
G01 Y148.6410 F900
G01 X456.9359 F900
G01 Y153.1410 F900
G01 X459.2359 F900
G01 X459.3796 Y157.6410 F900
G01 X456.7921 F900
G01 Y162.1410 F900
G01 X459.3796 F900
G01 X459.2359 Y166.6410 F900
G01 X456.3359 F900
G01 Y170.1410 F900
G01 X455.4572 Y171.0197 F900
G01 X456.3359 Y170.1410 F900
G01 X459.8359 F900
G01 X460.7146 Y171.0197 F900
G01 X459.8359 Y170.1410 F900
G01 Y163.1410 F900
G03 X462.8359 Y160.1410 I3.0000 J0.0000 F900
G01 X499.8359 F900
G01 X500.7146 Y161.0197 F900
G01 X499.8359 Y160.1410 F900
G01 Y159.6410 F900
G01 X500.7146 Y158.7624 F900
G01 X499.8359 Y159.6410 F900
G01 X462.8359 F900
G03 X459.8359 Y156.6410 I0.0000 J-3.0000 F900
G01 Y59.6410 F900
G01 X460.7146 Y58.7624 F900
G01 X459.8359 Y59.6410 F900
G01 X456.3359 F900
G01 X455.4572 Y58.7624 F900
G01 X456.3359 Y59.6410 F900
G01 Y156.6410 F900
G03 X453.3359 Y159.6410 I-3.0000 J0.0000 F900
G01 X129.4758 F900
G01 X127.6897 Y158.3755 F900
G01 X129.4758 Y159.6410 F900
G01 X129.6515 Y160.1410 F900
G01 X129.2603 Y160.6932 F900
G01 X129.6515 Y160.1410 F900
G01 X453.3359 F900
G03 X456.3359 Y163.1410 I0.0000 J3.0000 F900
G01 Y166.6410 F900
G01 X456.9359 F900
G01 Z-4.0000 F100
G01 X459.2359 F900
G01 X459.3796 Y162.1410 F900
G01 X456.7921 F900
G01 Y157.6410 F900
G01 X459.3796 F900
G01 X459.2359 Y153.1410 F900
G01 X456.9359 F900
G01 Y148.6410 F900
G01 X459.2359 F900
G01 Y144.1410 F900
G01 X456.9359 F900
G01 Y139.6410 F900
G01 X459.2359 F900
G01 Y135.1410 F900
G01 X456.9359 F900
G01 Y130.6410 F900
G01 X459.2359 F900
G01 Y126.1410 F900
G01 X456.9359 F900
G01 Y121.6410 F900
G01 X459.2359 F900
G01 Y117.1410 F900
G01 X456.9359 F900
G01 Y112.6410 F900
G01 X459.2359 F900
G01 Y108.1410 F900
G01 X456.9359 F900
G01 Y103.6410 F900
G01 X459.2359 F900
G01 Y99.1410 F900
G01 X456.9359 F900
G01 Y94.6410 F900
G01 X459.2359 F900
G01 Y90.1410 F900
G01 X456.9359 F900
G01 Y85.6410 F900
G01 X459.2359 F900
G01 Y81.1410 F900
G01 X456.9359 F900
G01 Y76.6410 F900
G01 X459.2359 F900
G01 Y72.1410 F900
G01 X456.9359 F900
G01 Y67.6410 F900
G01 X459.2359 F900
G01 Y63.1410 F900
G01 X456.9359 F900
G01 X456.3359 Y63.1902 F900
G01 Y156.6410 F900
G03 X453.3359 Y159.6410 I-3.0000 J0.0000 F900
G01 X129.4758 F900
G01 X127.6897 Y158.3755 F900
G01 X129.4758 Y159.6410 F900
G01 X129.6515 Y160.1410 F900
G01 X129.2603 Y160.6932 F900
G01 X129.6515 Y160.1410 F900
G01 X453.3359 F900
G03 X456.3359 Y163.1410 I0.0000 J3.0000 F900
G01 Y170.1410 F900
G01 X455.4572 Y171.0197 F900
G01 X456.3359 Y170.1410 F900
G01 X459.8359 F900
G01 X460.7146 Y171.0197 F900
G01 X459.8359 Y170.1410 F900
G01 Y163.1410 F900
G03 X462.8359 Y160.1410 I3.0000 J0.0000 F900
G01 X499.8359 F900
G01 X500.7146 Y161.0197 F900
G01 X499.8359 Y160.1410 F900
G01 Y159.6410 F900
G01 X500.7146 Y158.7624 F900
G01 X499.8359 Y159.6410 F900
G01 X462.8359 F900
G03 X459.8359 Y156.6410 I0.0000 J-3.0000 F900
G01 Y59.6410 F900
G01 X460.7146 Y58.7624 F900
G01 X459.8359 Y59.6410 F900
G01 X456.3359 F900
G01 X455.4572 Y58.7624 F900
G01 X456.3359 Y59.6410 F900
G01 Y63.1902 F900
G01 X456.9359 Y63.1410 F900
G01 Z-5.0000 F100
G01 X459.2359 F900
G01 Y67.6410 F900
G01 X456.9359 F900
G01 Y72.1410 F900
G01 X459.2359 F900
G01 Y76.6410 F900
G01 X456.9359 F900
G01 Y81.1410 F900
G01 X459.2359 F900
G01 Y85.6410 F900
G01 X456.9359 F900
G01 Y90.1410 F900
G01 X459.2359 F900
G01 Y94.6410 F900
G01 X456.9359 F900
G01 Y99.1410 F900
G01 X459.2359 F900
G01 Y103.6410 F900
G01 X456.9359 F900
G01 Y108.1410 F900
G01 X459.2359 F900
G01 Y112.6410 F900
G01 X456.9359 F900
G01 Y117.1410 F900
G01 X459.2359 F900
G01 Y121.6410 F900
G01 X456.9359 F900
G01 Y126.1410 F900
G01 X459.2359 F900
G01 Y130.6410 F900
G01 X456.9359 F900
G01 Y135.1410 F900
G01 X459.2359 F900
G01 Y139.6410 F900
G01 X456.9359 F900
G01 Y144.1410 F900
G01 X459.2359 F900
G01 Y148.6410 F900
G01 X456.9359 F900
G01 Y153.1410 F900
G01 X459.2359 F900
G01 X459.3796 Y157.6410 F900
G01 X456.7921 F900
G01 Y162.1410 F900
G01 X459.3796 F900
G01 X459.2359 Y166.6410 F900
G01 X456.3359 F900
G01 Y170.1410 F900
G01 X455.4572 Y171.0197 F900
G01 X456.3359 Y170.1410 F900
G01 X459.8359 F900
G01 X460.7146 Y171.0197 F900
G01 X459.8359 Y170.1410 F900
G01 Y163.1410 F900
G03 X462.8359 Y160.1410 I3.0000 J0.0000 F900
G01 X499.8359 F900
G01 X500.7146 Y161.0197 F900
G01 X499.8359 Y160.1410 F900
G01 Y159.6410 F900
G01 X500.7146 Y158.7624 F900
G01 X499.8359 Y159.6410 F900
G01 X462.8359 F900
G03 X459.8359 Y156.6410 I0.0000 J-3.0000 F900
G01 Y59.6410 F900
G01 X460.7146 Y58.7624 F900
G01 X459.8359 Y59.6410 F900
G01 X456.3359 F900
G01 X455.4572 Y58.7624 F900
G01 X456.3359 Y59.6410 F900
G01 Y156.6410 F900
G03 X453.3359 Y159.6410 I-3.0000 J0.0000 F900
G01 X129.4758 F900
G01 X127.6897 Y158.3755 F900
G01 X129.4758 Y159.6410 F900
G01 X129.6515 Y160.1410 F900
G01 X129.2603 Y160.6932 F900
G01 X129.6515 Y160.1410 F900
G01 X453.3359 F900
G03 X456.3359 Y163.1410 I0.0000 J3.0000 F900
G01 Y166.6410 F900
G01 X456.9359 F900
G00 Z30.0000 F480


;No. 2: Ausschnitt 3
G00 X499.2359 Y52.1349 Z30.0000 F2100
G00 Z0.5000 F480
G01 Z0.0000 F100
G01 Z-2.0000 F100
G01 X58.0929 F900
G01 X55.4948 Y47.6349 F900
G01 X499.2359 F900
G00 Z30.0000 F480
G00 X63.9081 Y52.1349 F2100
G00 Z0.5000 F480
G01 Z-2.0000 F100
G01 Y56.6349 F900
G01 X60.6910 F900
G01 X63.2891 Y61.1349 F900
G01 X65.9107 F900
G01 X65.8871 Y65.6349 F900
G01 X68.4520 F900
G01 X68.4852 Y70.1349 F900
G01 X70.9933 F900
G01 X71.0833 Y74.6349 F900
G01 X73.5346 F900
G01 X73.6814 Y79.1349 F900
G01 X76.0759 F900
G01 X76.2794 Y83.6349 F900
G01 X78.6172 F900
G01 X78.8775 Y88.1349 F900
G01 X81.1585 F900
G01 X81.4756 Y92.6349 F900
G01 X83.6998 F900
G01 X84.0737 Y97.1349 F900
G01 X86.2411 F900
G01 X86.6717 Y101.6349 F900
G01 X88.7825 F900
G01 X89.2698 Y106.1349 F900
G01 X91.3238 F900
G01 X91.8679 Y110.6349 F900
G01 X93.8651 F900
G01 X94.4659 Y115.1349 F900
G01 X96.4064 F900
G01 X97.0640 Y119.6349 F900
G01 X98.9477 F900
G01 X99.6621 Y124.1349 F900
G01 X101.4890 F900
G01 X102.2602 Y128.6349 F900
G01 X104.0303 F900
G01 X104.8582 Y133.1349 F900
G01 X106.5716 F900
G01 X107.4563 Y137.6349 F900
G01 X109.1129 F900
G01 X110.0544 Y142.1349 F900
G01 X111.6542 F900
G01 X112.6525 Y146.6349 F900
G01 X114.1955 F900
G01 X114.7156 Y146.3356 F900
G01 X64.8950 Y58.1163 F900
G03 X67.5073 Y53.6410 I2.6122 J-1.4752 F900
G01 X499.8359 F900
G01 X500.7146 Y54.5197 F900
G01 X499.8359 Y53.6410 F900
G01 Y46.6410 F900
G01 X500.7146 Y45.7624 F900
G01 X499.8359 Y46.6410 F900
G01 X54.2282 F900
G01 X51.6302 Y45.1410 F900
G01 X54.2282 Y46.6410 F900
G01 X125.5309 Y170.1410 F900
G01 X125.2989 Y170.5430 F900
G01 X125.5309 Y170.1410 F900
G01 X128.1593 F900
G01 X130.7080 Y171.6287 F900
G01 X128.1593 Y170.1410 F900
G01 X114.7156 Y146.3356 F900
G01 X114.1955 Y146.6349 F900
G01 Z-4.0000 F100
G01 X112.6525 F900
G01 X110.0544 Y142.1349 F900
G01 X111.6542 F900
G01 X107.4563 Y137.6349 F900
G01 X109.1129 F900
G01 X104.8582 Y133.1349 F900
G01 X106.5716 F900
G01 X102.2602 Y128.6349 F900
G01 X104.0303 F900
G01 X99.6621 Y124.1349 F900
G01 X101.4890 F900
G01 X97.0640 Y119.6349 F900
G01 X98.9477 F900
G01 X94.4659 Y115.1349 F900
G01 X96.4064 F900
G01 X91.8679 Y110.6349 F900
G01 X93.8651 F900
G01 X89.2698 Y106.1349 F900
G01 X91.3238 F900
G01 X86.6717 Y101.6349 F900
G01 X88.7825 F900
G01 X84.0737 Y97.1349 F900
G01 X86.2411 F900
G01 X81.4756 Y92.6349 F900
G01 X83.6998 F900
G01 X78.8775 Y88.1349 F900
G01 X81.1585 F900
G01 X76.2794 Y83.6349 F900
G01 X78.6172 F900
G01 X73.6814 Y79.1349 F900
G01 X76.0759 F900
G01 X71.0833 Y74.6349 F900
G01 X73.5346 F900
G01 X68.4852 Y70.1349 F900
G01 X70.9933 F900
G01 X65.8871 Y65.6349 F900
G01 X68.4520 F900
G01 X65.9107 Y61.1349 F900
G01 X63.2891 F900
G01 X63.9081 Y56.6349 F900
G01 X60.6910 F900
G01 X58.0929 Y52.1349 F900
G01 X499.2359 F900
G01 Y47.6349 F900
G01 X55.4948 F900
G01 X55.0325 Y48.0342 F900
G01 X125.5309 Y170.1410 F900
G01 X125.2989 Y170.5430 F900
G01 X125.5309 Y170.1410 F900
G01 X128.1593 F900
G01 X130.7080 Y171.6287 F900
G01 X128.1593 Y170.1410 F900
G01 X64.8950 Y58.1163 F900
G03 X67.5073 Y53.6410 I2.6122 J-1.4752 F900
G01 X499.8359 F900
G01 X500.7146 Y54.5197 F900
G01 X499.8359 Y53.6410 F900
G01 Y46.6410 F900
G01 X500.7146 Y45.7624 F900
G01 X499.8359 Y46.6410 F900
G01 X54.2282 F900
G01 X51.6302 Y45.1410 F900
G01 X54.2282 Y46.6410 F900
G01 X55.0325 Y48.0342 F900
G01 X55.4948 Y47.6349 F900
G01 Z-5.0000 F100
G01 X499.2359 F900
G01 Y52.1349 F900
G01 X58.0929 F900
G01 X60.6910 Y56.6349 F900
G01 X63.9081 F900
G01 X63.2891 Y61.1349 F900
G01 X65.9107 F900
G01 X65.8871 Y65.6349 F900
G01 X68.4520 F900
G01 X68.4852 Y70.1349 F900
G01 X70.9933 F900
G01 X71.0833 Y74.6349 F900
G01 X73.5346 F900
G01 X73.6814 Y79.1349 F900
G01 X76.0759 F900
G01 X76.2794 Y83.6349 F900
G01 X78.6172 F900
G01 X78.8775 Y88.1349 F900
G01 X81.1585 F900
G01 X81.4756 Y92.6349 F900
G01 X83.6998 F900
G01 X84.0737 Y97.1349 F900
G01 X86.2411 F900
G01 X86.6717 Y101.6349 F900
G01 X88.7825 F900
G01 X89.2698 Y106.1349 F900
G01 X91.3238 F900
G01 X91.8679 Y110.6349 F900
G01 X93.8651 F900
G01 X94.4659 Y115.1349 F900
G01 X96.4064 F900
G01 X97.0640 Y119.6349 F900
G01 X98.9477 F900
G01 X99.6621 Y124.1349 F900
G01 X101.4890 F900
G01 X102.2602 Y128.6349 F900
G01 X104.0303 F900
G01 X104.8582 Y133.1349 F900
G01 X106.5716 F900
G01 X107.4563 Y137.6349 F900
G01 X109.1129 F900
G01 X110.0544 Y142.1349 F900
G01 X111.6542 F900
G01 X112.6525 Y146.6349 F900
G01 X114.1955 F900
G01 X114.7156 Y146.3356 F900
G01 X64.8950 Y58.1163 F900
G03 X67.5073 Y53.6410 I2.6122 J-1.4752 F900
G01 X499.8359 F900
G01 X500.7146 Y54.5197 F900
G01 X499.8359 Y53.6410 F900
G01 Y46.6410 F900
G01 X500.7146 Y45.7624 F900
G01 X499.8359 Y46.6410 F900
G01 X54.2282 F900
G01 X51.6302 Y45.1410 F900
G01 X54.2282 Y46.6410 F900
G01 X125.5309 Y170.1410 F900
G01 X125.2989 Y170.5430 F900
G01 X125.5309 Y170.1410 F900
G01 X128.1593 F900
G01 X130.7080 Y171.6287 F900
G01 X128.1593 Y170.1410 F900
G01 X114.7156 Y146.3356 F900
G01 X114.1955 Y146.6349 F900
G00 Z30.0000 F480


;No. 3: Teil 1
G00 X124.8156 Y176.1410 Z30.0000 F2100
G00 Z0.5000 F480
G01 Z0.0000 F100
G01 Z-2.0000 F100
G01 X107.8273 F900
G03 X100.0526 Y171.6524 I0.0126 J-8.9993 F900
G01 X26.4274 Y44.1297 F900
G03 X34.2151 Y30.6410 I7.8006 J-4.4888 F900
G01 X47.8228 F900
G02 X50.8359 Y27.6280 I0.0127 J-3.0003 F900
G03 X50.8481 Y24.1700 I50.0912 J-1.5520 F900
G03 X59.8228 Y15.6410 I8.9876 J0.4709 F900
G01 X74.3359 F900
G01 X83.3359 F900
G01 X97.8490 F900
G03 X106.8359 Y24.6280 I-0.0128 J8.9997 F900
G02 X106.8401 Y27.7980 I45.6357 J1.5242 F900
G02 X109.8490 Y30.6410 I2.9960 J-0.1571 F900
G01 X416.8228 F900
G02 X419.8359 Y27.6280 I0.0127 J-3.0003 F900
G03 X419.8481 Y24.1700 I50.0912 J-1.5520 F900
G03 X428.8228 Y15.6410 I8.9876 J0.4709 F900
G01 X443.3359 F900
G01 X452.3359 F900
G01 X466.8490 F900
G03 X475.8359 Y24.6280 I-0.0128 J8.9997 F900
G02 X475.8401 Y27.7980 I45.6357 J1.5242 F900
G02 X478.8490 Y30.6410 I2.9960 J-0.1571 F900
G01 X496.8490 F900
G03 X505.8359 Y39.6280 I-0.0128 J8.9997 F900
G01 Y45.8016 F900
G01 Y54.8016 F900
G01 Y153.9721 F900
G01 Y162.9721 F900
G03 X505.8305 Y167.4551 I-86.5633 J2.1379 F900
G03 X496.8490 Y176.1410 I-8.9944 J-0.3140 F900
G01 X463.7800 F900
G01 X454.7800 F900
G01 X133.8156 F900
G01 X124.8156 F900
G01 Z-4.0000 F100
G01 X107.8273 F900
G03 X100.0526 Y171.6524 I0.0126 J-8.9993 F900
G01 X26.4274 Y44.1297 F900
G03 X34.2151 Y30.6410 I7.8006 J-4.4888 F900
G01 X47.8228 F900
G02 X50.8359 Y27.6280 I0.0127 J-3.0003 F900
G03 X50.8481 Y24.1700 I50.0912 J-1.5520 F900
G03 X59.8228 Y15.6410 I8.9876 J0.4709 F900
G01 X74.3359 F900
G01 X83.3359 F900
G01 X97.8490 F900
G03 X106.8359 Y24.6280 I-0.0128 J8.9997 F900
G02 X106.8401 Y27.7980 I45.6357 J1.5242 F900
G02 X109.8490 Y30.6410 I2.9960 J-0.1571 F900
G01 X416.8228 F900
G02 X419.8359 Y27.6280 I0.0127 J-3.0003 F900
G03 X419.8481 Y24.1700 I50.0912 J-1.5520 F900
G03 X428.8228 Y15.6410 I8.9876 J0.4709 F900
G01 X443.3359 F900
G01 X452.3359 F900
G01 X466.8490 F900
G03 X475.8359 Y24.6280 I-0.0128 J8.9997 F900
G02 X475.8401 Y27.7980 I45.6357 J1.5242 F900
G02 X478.8490 Y30.6410 I2.9960 J-0.1571 F900
G01 X496.8490 F900
G03 X505.8359 Y39.6280 I-0.0128 J8.9997 F900
G01 Y45.8016 F900
G01 Y54.8016 F900
G01 Y153.9721 F900
G01 Y162.9721 F900
G03 X505.8305 Y167.4551 I-86.5633 J2.1379 F900
G03 X496.8490 Y176.1410 I-8.9944 J-0.3140 F900
G01 X463.7800 F900
G01 X454.7800 F900
G01 X133.8156 F900
G01 X124.8156 F900
G01 Z-6.0000 F100
G01 X107.8273 F900
G03 X100.0526 Y171.6524 I0.0126 J-8.9993 F900
G01 X26.4274 Y44.1297 F900
G03 X34.2151 Y30.6410 I7.8006 J-4.4888 F900
G01 X47.8228 F900
G02 X50.8359 Y27.6280 I0.0127 J-3.0003 F900
G03 X50.8481 Y24.1700 I50.0912 J-1.5520 F900
G03 X59.8228 Y15.6410 I8.9876 J0.4709 F900
G01 X74.3359 F900
G01 X83.3359 F900
G01 X97.8490 F900
G03 X106.8359 Y24.6280 I-0.0128 J8.9997 F900
G02 X106.8401 Y27.7980 I45.6357 J1.5242 F900
G02 X109.8490 Y30.6410 I2.9960 J-0.1571 F900
G01 X416.8228 F900
G02 X419.8359 Y27.6280 I0.0127 J-3.0003 F900
G03 X419.8481 Y24.1700 I50.0912 J-1.5520 F900
G03 X428.8228 Y15.6410 I8.9876 J0.4709 F900
G01 X443.3359 F900
G01 X452.3359 F900
G01 X466.8490 F900
G03 X475.8359 Y24.6280 I-0.0128 J8.9997 F900
G02 X475.8401 Y27.7980 I45.6357 J1.5242 F900
G02 X478.8490 Y30.6410 I2.9960 J-0.1571 F900
G01 X496.8490 F900
G03 X505.8359 Y39.6280 I-0.0128 J8.9997 F900
G01 Y45.8016 F900
G01 Y54.8016 F900
G01 Y153.9721 F900
G01 Y162.9721 F900
G03 X505.8305 Y167.4551 I-86.5633 J2.1379 F900
G03 X496.8490 Y176.1410 I-8.9944 J-0.3140 F900
G01 X463.7800 F900
G01 X454.7800 F900
G01 X133.8156 F900
G01 X124.8156 F900
G01 Z-8.0000 F100
G01 X107.8273 F900
G03 X100.0526 Y171.6524 I0.0126 J-8.9993 F900
G01 X26.4274 Y44.1297 F900
G03 X34.2151 Y30.6410 I7.8006 J-4.4888 F900
G01 X47.8228 F900
G02 X50.8359 Y27.6280 I0.0127 J-3.0003 F900
G03 X50.8481 Y24.1700 I50.0912 J-1.5520 F900
G03 X59.8228 Y15.6410 I8.9876 J0.4709 F900
G01 X74.3359 F900
G01 X83.3359 F900
G01 X97.8490 F900
G03 X106.8359 Y24.6280 I-0.0128 J8.9997 F900
G02 X106.8401 Y27.7980 I45.6357 J1.5242 F900
G02 X109.8490 Y30.6410 I2.9960 J-0.1571 F900
G01 X416.8228 F900
G02 X419.8359 Y27.6280 I0.0127 J-3.0003 F900
G03 X419.8481 Y24.1700 I50.0912 J-1.5520 F900
G03 X428.8228 Y15.6410 I8.9876 J0.4709 F900
G01 X443.3359 F900
G01 X452.3359 F900
G01 X466.8490 F900
G03 X475.8359 Y24.6280 I-0.0128 J8.9997 F900
G02 X475.8401 Y27.7980 I45.6357 J1.5242 F900
G02 X478.8490 Y30.6410 I2.9960 J-0.1571 F900
G01 X496.8490 F900
G03 X505.8359 Y39.6280 I-0.0128 J8.9997 F900
G01 Y45.8016 F900
G01 Y54.8016 F900
G01 Y153.9721 F900
G01 Y162.9721 F900
G03 X505.8305 Y167.4551 I-86.5633 J2.1379 F900
G03 X496.8490 Y176.1410 I-8.9944 J-0.3140 F900
G01 X463.7800 F900
G01 X454.7800 F900
G01 X133.8156 F900
G01 X124.8156 F900
G01 Z-10.0000 F100
G01 X107.8273 F900
G03 X100.0526 Y171.6524 I0.0126 J-8.9993 F900
G01 X26.4274 Y44.1297 F900
G03 X34.2151 Y30.6410 I7.8006 J-4.4888 F900
G01 X47.8228 F900
G02 X50.8359 Y27.6280 I0.0127 J-3.0003 F900
G03 X50.8481 Y24.1700 I50.0912 J-1.5520 F900
G03 X59.8228 Y15.6410 I8.9876 J0.4709 F900
G01 X74.3359 F900
G00 Z-9.0000 F480
G01 X83.3359 F900
G01 Z-10.0000 F100
G01 X97.8490 F900
G03 X106.8359 Y24.6280 I-0.0128 J8.9997 F900
G02 X106.8401 Y27.7980 I45.6357 J1.5242 F900
G02 X109.8490 Y30.6410 I2.9960 J-0.1571 F900
G01 X416.8228 F900
G02 X419.8359 Y27.6280 I0.0127 J-3.0003 F900
G03 X419.8481 Y24.1700 I50.0912 J-1.5520 F900
G03 X428.8228 Y15.6410 I8.9876 J0.4709 F900
G01 X443.3359 F900
G00 Z-9.0000 F480
G01 X452.3359 F900
G01 Z-10.0000 F100
G01 X466.8490 F900
G03 X475.8359 Y24.6280 I-0.0128 J8.9997 F900
G02 X475.8401 Y27.7980 I45.6357 J1.5242 F900
G02 X478.8490 Y30.6410 I2.9960 J-0.1571 F900
G01 X496.8490 F900
G03 X505.8359 Y39.6280 I-0.0128 J8.9997 F900
G01 Y45.8016 F900
G00 Z-9.0000 F480
G01 Y54.8016 F900
G01 Z-10.0000 F100
G01 Y153.9721 F900
G00 Z-9.0000 F480
G01 Y162.9721 F900
G01 Z-10.0000 F100
G03 X505.8305 Y167.4551 I-86.5633 J2.1379 F900
G03 X496.8490 Y176.1410 I-8.9944 J-0.3140 F900
G01 X463.7800 F900
G00 Z-9.0000 F480
G01 X454.7800 F900
G01 Z-10.0000 F100
G01 X133.8156 F900
G00 Z-9.0000 F480
G01 X124.8156 F900
G00 Z-9.5000 F480
G01 Z-10.0000 F100
G01 Z-12.0000 F100
G01 X107.8273 F900
G03 X100.0526 Y171.6524 I0.0126 J-8.9993 F900
G01 X26.4274 Y44.1297 F900
G03 X34.2151 Y30.6410 I7.8006 J-4.4888 F900
G01 X47.8228 F900
G02 X50.8359 Y27.6280 I0.0127 J-3.0003 F900
G03 X50.8481 Y24.1700 I50.0912 J-1.5520 F900
G03 X59.8228 Y15.6410 I8.9876 J0.4709 F900
G01 X74.3359 F900
G00 Z-9.0000 F480
G01 X83.3359 F900
G00 Z-9.5000 F480
G01 Z-10.0000 F100
G01 Z-12.0000 F100
G01 X97.8490 F900
G03 X106.8359 Y24.6280 I-0.0128 J8.9997 F900
G02 X106.8401 Y27.7980 I45.6357 J1.5242 F900
G02 X109.8490 Y30.6410 I2.9960 J-0.1571 F900
G01 X416.8228 F900
G02 X419.8359 Y27.6280 I0.0127 J-3.0003 F900
G03 X419.8481 Y24.1700 I50.0912 J-1.5520 F900
G03 X428.8228 Y15.6410 I8.9876 J0.4709 F900
G01 X443.3359 F900
G00 Z-9.0000 F480
G01 X452.3359 F900
G00 Z-9.5000 F480
G01 Z-10.0000 F100
G01 Z-12.0000 F100
G01 X466.8490 F900
G03 X475.8359 Y24.6280 I-0.0128 J8.9997 F900
G02 X475.8401 Y27.7980 I45.6357 J1.5242 F900
G02 X478.8490 Y30.6410 I2.9960 J-0.1571 F900
G01 X496.8490 F900
G03 X505.8359 Y39.6280 I-0.0128 J8.9997 F900
G01 Y45.8016 F900
G00 Z-9.0000 F480
G01 Y54.8016 F900
G00 Z-9.5000 F480
G01 Z-10.0000 F100
G01 Z-12.0000 F100
G01 Y153.9721 F900
G00 Z-9.0000 F480
G01 Y162.9721 F900
G00 Z-9.5000 F480
G01 Z-10.0000 F100
G01 Z-12.0000 F100
G03 X505.8305 Y167.4551 I-86.5633 J2.1379 F900
G03 X496.8490 Y176.1410 I-8.9944 J-0.3140 F900
G01 X463.7800 F900
G00 Z-9.0000 F480
G01 X454.7800 F900
G00 Z-9.5000 F480
G01 Z-10.0000 F100
G01 Z-12.0000 F100
G01 X133.8156 F900
G00 Z-9.0000 F480
G01 X124.8156 F900
G00 Z-11.5000 F480
G01 Z-12.0000 F100
G01 Z-13.0000 F100
G01 X107.8273 F900
G03 X100.0526 Y171.6524 I0.0126 J-8.9993 F900
G01 X26.4274 Y44.1297 F900
G03 X34.2151 Y30.6410 I7.8006 J-4.4888 F900
G01 X47.8228 F900
G02 X50.8359 Y27.6280 I0.0127 J-3.0003 F900
G03 X50.8481 Y24.1700 I50.0912 J-1.5520 F900
G03 X59.8228 Y15.6410 I8.9876 J0.4709 F900
G01 X74.3359 F900
G00 Z-9.0000 F480
G01 X83.3359 F900
G00 Z-11.5000 F480
G01 Z-12.0000 F100
G01 Z-13.0000 F100
G01 X97.8490 F900
G03 X106.8359 Y24.6280 I-0.0128 J8.9997 F900
G02 X106.8401 Y27.7980 I45.6357 J1.5242 F900
G02 X109.8490 Y30.6410 I2.9960 J-0.1571 F900
G01 X416.8228 F900
G02 X419.8359 Y27.6280 I0.0127 J-3.0003 F900
G03 X419.8481 Y24.1700 I50.0912 J-1.5520 F900
G03 X428.8228 Y15.6410 I8.9876 J0.4709 F900
G01 X443.3359 F900
G00 Z-9.0000 F480
G01 X452.3359 F900
G00 Z-11.5000 F480
G01 Z-12.0000 F100
G01 Z-13.0000 F100
G01 X466.8490 F900
G03 X475.8359 Y24.6280 I-0.0128 J8.9997 F900
G02 X475.8401 Y27.7980 I45.6357 J1.5242 F900
G02 X478.8490 Y30.6410 I2.9960 J-0.1571 F900
G01 X496.8490 F900
G03 X505.8359 Y39.6280 I-0.0128 J8.9997 F900
G01 Y45.8016 F900
G00 Z-9.0000 F480
G01 Y54.8016 F900
G00 Z-11.5000 F480
G01 Z-12.0000 F100
G01 Z-13.0000 F100
G01 Y153.9721 F900
G00 Z-9.0000 F480
G01 Y162.9721 F900
G00 Z-11.5000 F480
G01 Z-12.0000 F100
G01 Z-13.0000 F100
G03 X505.8305 Y167.4551 I-86.5633 J2.1379 F900
G03 X496.8490 Y176.1410 I-8.9944 J-0.3140 F900
G01 X463.7800 F900
G00 Z-9.0000 F480
G01 X454.7800 F900
G00 Z-11.5000 F480
G01 Z-12.0000 F100
G01 Z-13.0000 F100
G01 X133.8156 F900
G00 Z-9.0000 F480
G01 X124.8156 F900
G00 Z30.0000 F480
G00 X0.0000 Y0.0000 F2100

M05
