;Project rear
;Created by Estlcam version 11 build 11,245
;Machining time about 00:46:18 hours

G90
M03 S30000
G00 Z15.0000 F480


;No. 1: Ausschnitt 22
G00 X51.4598 Y57.0010 F2100
G00 Z0.5000 F480
G01 Z0.0000 F100 S30000
G01 Z-2.0000 F100
G02 X53.8984 Y72.3974 I5.6638 J6.9942 F900
G02 X66.0127 Y62.5874 I3.2253 J-8.4021 F900
G02 X51.4598 Y57.0010 I-8.8891 J1.4079 F900
G01 Z-4.0000 F100
G02 X53.8984 Y72.3974 I5.6638 J6.9942 F900
G02 X66.0127 Y62.5874 I3.2253 J-8.4021 F900
G02 X51.4598 Y57.0010 I-8.8891 J1.4079 F900
G01 Z-5.0000 F100
G02 X53.8984 Y72.3974 I5.6638 J6.9942 F900
G02 X66.0127 Y62.5874 I3.2253 J-8.4021 F900
G02 X51.4598 Y57.0010 I-8.8891 J1.4079 F900
G00 Z15.0000 F480


;No. 2: Ausschnitt 48
G00 X51.1232 Y61.7702 Z15.0000 F2100
G00 Z0.5000 F480
G01 Z0.0000 F100
G01 Z-2.0000 F100
G01 X63.1240 F900
G01 X63.1054 Y66.2702 F900
G01 X51.1419 F900
G01 X50.5674 Y66.4469 F900
G02 X53.5152 Y69.9933 I6.5544 J-2.4497 F900
G01 X53.4923 Y70.0848 F900
G01 X53.5152 Y69.9933 F900
G01 X53.5045 Y69.9871 F900
G01 X53.5205 Y69.9942 F900
G01 X60.7432 Y69.9842 F900
G01 X60.7666 Y70.0761 F900
G01 X60.7432 Y69.9842 F900
G02 X60.7681 Y58.0184 I-3.6180 J-5.9905 F900
G01 X60.7876 Y57.9545 F900
G01 X60.7681 Y58.0184 F900
G01 X53.4958 Y58.0084 F900
G01 X53.4773 Y57.9490 F900
G01 X53.4958 Y58.0084 F900
G02 X50.5674 Y66.4469 I3.6283 J5.9865 F900
G01 X51.1419 Y66.2702 F900
G01 Z-4.0000 F100
G01 X63.1054 F900
G01 X63.1240 Y61.7702 F900
G01 X51.1232 F900
G01 X50.5672 Y61.5441 F900
G02 X53.5152 Y69.9933 I6.5559 J2.4515 F900
G01 X53.4923 Y70.0848 F900
G01 X53.5152 Y69.9933 F900
G01 X53.5045 Y69.9871 F900
G01 X53.5205 Y69.9942 F900
G01 X60.7432 Y69.9842 F900
G01 X60.7666 Y70.0761 F900
G01 X60.7432 Y69.9842 F900
G02 X60.7681 Y58.0184 I-3.6180 J-5.9905 F900
G01 X60.7876 Y57.9545 F900
G01 X60.7681 Y58.0184 F900
G01 X53.4958 Y58.0084 F900
G01 X53.4773 Y57.9490 F900
G01 X53.4958 Y58.0084 F900
G02 X50.5672 Y61.5441 I3.6294 J5.9868 F900
G01 X51.1232 Y61.7702 F900
G01 Z-6.0000 F100
G01 X63.1240 F900
G01 X63.1054 Y66.2702 F900
G01 X51.1419 F900
G01 X50.5674 Y66.4469 F900
G02 X53.5152 Y69.9933 I6.5544 J-2.4497 F900
G01 X53.4923 Y70.0848 F900
G01 X53.5152 Y69.9933 F900
G01 X53.5045 Y69.9871 F900
G01 X53.5205 Y69.9942 F900
G01 X60.7432 Y69.9842 F900
G01 X60.7666 Y70.0761 F900
G01 X60.7432 Y69.9842 F900
G02 X60.7681 Y58.0184 I-3.6180 J-5.9905 F900
G01 X60.7876 Y57.9545 F900
G01 X60.7681 Y58.0184 F900
G01 X53.4958 Y58.0084 F900
G01 X53.4773 Y57.9490 F900
G01 X53.4958 Y58.0084 F900
G02 X50.5674 Y66.4469 I3.6283 J5.9865 F900
G01 X51.1419 Y66.2702 F900
G01 Z-8.0000 F100
G01 X63.1054 F900
G01 X63.1240 Y61.7702 F900
G01 X51.1232 F900
G01 X50.5672 Y61.5441 F900
G02 X53.5152 Y69.9933 I6.5559 J2.4515 F900
G01 X53.4923 Y70.0848 F900
G01 X53.5152 Y69.9933 F900
G01 X53.5045 Y69.9871 F900
G01 X53.5205 Y69.9942 F900
G01 X60.7432 Y69.9842 F900
G01 X60.7666 Y70.0761 F900
G01 X60.7432 Y69.9842 F900
G02 X60.7681 Y58.0184 I-3.6180 J-5.9905 F900
G01 X60.7876 Y57.9545 F900
G01 X60.7681 Y58.0184 F900
G01 X53.4958 Y58.0084 F900
G01 X53.4773 Y57.9490 F900
G01 X53.4958 Y58.0084 F900
G02 X50.5672 Y61.5441 I3.6294 J5.9868 F900
G01 X51.1232 Y61.7702 F900
G01 Z-10.0000 F100
G01 X63.1240 F900
G01 X63.1054 Y66.2702 F900
G01 X51.1419 F900
G01 X50.5674 Y66.4469 F900
G02 X53.5152 Y69.9933 I6.5544 J-2.4497 F900
G01 X53.4923 Y70.0848 F900
G01 X53.5152 Y69.9933 F900
G01 X53.5045 Y69.9871 F900
G01 X53.5205 Y69.9942 F900
G01 X60.7432 Y69.9842 F900
G01 X60.7666 Y70.0761 F900
G01 X60.7432 Y69.9842 F900
G02 X60.7681 Y58.0184 I-3.6180 J-5.9905 F900
G01 X60.7876 Y57.9545 F900
G01 X60.7681 Y58.0184 F900
G01 X53.4958 Y58.0084 F900
G01 X53.4773 Y57.9490 F900
G01 X53.4958 Y58.0084 F900
G02 X50.5674 Y66.4469 I3.6283 J5.9865 F900
G01 X51.1419 Y66.2702 F900
G00 Z15.0000 F480


;No. 3: Ausschnitt 21
G00 X79.4092 Y59.3600 Z15.0000 F2100
G00 Z0.5000 F480
G01 Z0.0000 F100
G01 Z-2.0000 F100
G02 X86.9666 Y72.9938 I7.7144 J4.6353 F900
G02 X94.9951 Y59.6320 I0.1571 J-8.9985 F900
G02 X79.4092 Y59.3600 I-7.8715 J4.3632 F900
G01 Z-4.0000 F100
G02 X86.9666 Y72.9938 I7.7144 J4.6353 F900
G02 X94.9951 Y59.6320 I0.1571 J-8.9985 F900
G02 X79.4092 Y59.3600 I-7.8715 J4.3632 F900
G01 Z-5.0000 F100
G02 X86.9666 Y72.9938 I7.7144 J4.6353 F900
G02 X94.9951 Y59.6320 I0.1571 J-8.9985 F900
G02 X79.4092 Y59.3600 I-7.8715 J4.3632 F900
G00 Z15.0000 F480


;No. 4: Ausschnitt 47
G00 X81.1307 Y61.7502 Z15.0000 F2100
G00 Z0.5000 F480
G01 Z0.0000 F100
G01 Z-2.0000 F100
G01 X93.1166 F900
G01 X93.1128 Y66.2502 F900
G01 X81.1344 F900
G01 X80.5673 Y66.4467 F900
G02 X83.1337 Y69.7465 I6.5524 J-2.4482 F900
G01 X83.5441 Y69.9843 F900
G01 X83.5169 Y70.0856 F900
G01 X83.5441 Y69.9843 F900
G01 X90.7303 Y69.9945 F900
G01 X90.7530 Y70.0853 F900
G01 X90.7303 Y69.9945 F900
G02 X90.7321 Y57.9972 I-3.6066 J-5.9992 F900
G01 X90.7496 Y57.9426 F900
G01 X90.7321 Y57.9972 F900
G01 X90.7428 Y58.0034 F900
G01 X90.7268 Y57.9963 F900
G01 X83.5041 Y58.0063 F900
G01 X83.4807 Y57.9144 F900
G01 X83.5041 Y58.0063 F900
G02 X80.5673 Y66.4467 I3.6143 J5.9887 F900
G01 X81.1344 Y66.2502 F900
G01 Z-4.0000 F100
G01 X93.1128 F900
G01 X93.1166 Y61.7502 F900
G01 X81.1307 F900
G01 X80.5740 Y61.5260 F900
G02 X83.1337 Y69.7465 I6.5487 J2.4696 F900
G01 X83.5441 Y69.9843 F900
G01 X83.5169 Y70.0856 F900
G01 X83.5441 Y69.9843 F900
G01 X90.7303 Y69.9945 F900
G01 X90.7530 Y70.0853 F900
G01 X90.7303 Y69.9945 F900
G02 X90.7321 Y57.9972 I-3.6066 J-5.9992 F900
G01 X90.7496 Y57.9426 F900
G01 X90.7321 Y57.9972 F900
G01 X90.7428 Y58.0034 F900
G01 X90.7268 Y57.9963 F900
G01 X83.5041 Y58.0063 F900
G01 X83.4807 Y57.9144 F900
G01 X83.5041 Y58.0063 F900
G02 X80.5740 Y61.5260 I3.6016 J5.9776 F900
G01 X81.1307 Y61.7502 F900
G01 Z-6.0000 F100
G01 X93.1166 F900
G01 X93.1128 Y66.2502 F900
G01 X81.1344 F900
G01 X80.5673 Y66.4467 F900
G02 X83.1337 Y69.7465 I6.5524 J-2.4482 F900
G01 X83.5441 Y69.9843 F900
G01 X83.5169 Y70.0856 F900
G01 X83.5441 Y69.9843 F900
G01 X90.7303 Y69.9945 F900
G01 X90.7530 Y70.0853 F900
G01 X90.7303 Y69.9945 F900
G02 X90.7321 Y57.9972 I-3.6066 J-5.9992 F900
G01 X90.7496 Y57.9426 F900
G01 X90.7321 Y57.9972 F900
G01 X90.7428 Y58.0034 F900
G01 X90.7268 Y57.9963 F900
G01 X83.5041 Y58.0063 F900
G01 X83.4807 Y57.9144 F900
G01 X83.5041 Y58.0063 F900
G02 X80.5673 Y66.4467 I3.6143 J5.9887 F900
G01 X81.1344 Y66.2502 F900
G01 Z-8.0000 F100
G01 X93.1128 F900
G01 X93.1166 Y61.7502 F900
G01 X81.1307 F900
G01 X80.5740 Y61.5260 F900
G02 X83.1337 Y69.7465 I6.5487 J2.4696 F900
G01 X83.5441 Y69.9843 F900
G01 X83.5169 Y70.0856 F900
G01 X83.5441 Y69.9843 F900
G01 X90.7303 Y69.9945 F900
G01 X90.7530 Y70.0853 F900
G01 X90.7303 Y69.9945 F900
G02 X90.7321 Y57.9972 I-3.6066 J-5.9992 F900
G01 X90.7496 Y57.9426 F900
G01 X90.7321 Y57.9972 F900
G01 X90.7428 Y58.0034 F900
G01 X90.7268 Y57.9963 F900
G01 X83.5041 Y58.0063 F900
G01 X83.4807 Y57.9144 F900
G01 X83.5041 Y58.0063 F900
G02 X80.5740 Y61.5260 I3.6016 J5.9776 F900
G01 X81.1307 Y61.7502 F900
G01 Z-10.0000 F100
G01 X93.1166 F900
G01 X93.1128 Y66.2502 F900
G01 X81.1344 F900
G01 X80.5673 Y66.4467 F900
G02 X83.1337 Y69.7465 I6.5524 J-2.4482 F900
G01 X83.5441 Y69.9843 F900
G01 X83.5169 Y70.0856 F900
G01 X83.5441 Y69.9843 F900
G01 X90.7303 Y69.9945 F900
G01 X90.7530 Y70.0853 F900
G01 X90.7303 Y69.9945 F900
G02 X90.7321 Y57.9972 I-3.6066 J-5.9992 F900
G01 X90.7496 Y57.9426 F900
G01 X90.7321 Y57.9972 F900
G01 X90.7428 Y58.0034 F900
G01 X90.7268 Y57.9963 F900
G01 X83.5041 Y58.0063 F900
G01 X83.4807 Y57.9144 F900
G01 X83.5041 Y58.0063 F900
G02 X80.5673 Y66.4467 I3.6143 J5.9887 F900
G01 X81.1344 Y66.2502 F900
G00 Z15.0000 F480


;No. 5: Ausschnitt 2
G00 X81.5828 Y96.9032 Z15.0000 F2100
G00 Z0.5000 F480
G01 Z0.0000 F100
G01 Z-2.0000 F100
G02 X83.7522 Y112.3398 I5.5409 J7.0920 F900
G02 X96.0359 Y102.7427 I3.3714 J-8.3445 F900
G02 X81.5828 Y96.9032 I-8.9123 J1.2525 F900
G01 Z-4.0000 F100
G02 X83.7522 Y112.3398 I5.5409 J7.0920 F900
G02 X96.0359 Y102.7427 I3.3714 J-8.3445 F900
G02 X81.5828 Y96.9032 I-8.9123 J1.2525 F900
G01 Z-5.0000 F100
G02 X83.7522 Y112.3398 I5.5409 J7.0920 F900
G02 X96.0359 Y102.7427 I3.3714 J-8.3445 F900
G02 X81.5828 Y96.9032 I-8.9123 J1.2525 F900
G00 Z15.0000 F480


;No. 6: Ausschnitt 25
G00 X81.1322 Y101.7463 Z15.0000 F2100
G00 Z0.5000 F480
G01 Z0.0000 F100
G01 Z-2.0000 F100
G01 X93.1151 F900
G01 X93.1143 Y106.2463 F900
G01 X81.1330 F900
G01 X80.5673 Y106.4467 F900
G02 X83.5184 Y109.9954 I6.5548 J-2.4496 F900
G01 X83.4957 Y110.0857 F900
G01 X83.5184 Y109.9954 F900
G01 X83.5045 Y109.9871 F900
G01 X83.5246 Y109.9952 F900
G01 X90.7288 Y109.9953 F900
G01 X90.7516 Y110.0857 F900
G01 X90.7288 Y109.9953 F900
G02 X90.7640 Y98.0173 I-3.6044 J-5.9996 F900
G01 X90.7836 Y97.9532 F900
G01 X90.7640 Y98.0173 F900
G01 X83.5164 Y97.9973 F900
G01 X83.4933 Y97.9054 F900
G01 X83.5164 Y97.9973 F900
G02 X80.5673 Y106.4467 I3.6050 J5.9976 F900
G01 X81.1330 Y106.2463 F900
G01 Z-4.0000 F100
G01 X93.1143 F900
G01 X93.1151 Y101.7463 F900
G01 X81.1322 F900
G01 X80.5740 Y101.5260 F900
G02 X83.5184 Y109.9954 I6.5492 J2.4697 F900
G01 X83.4957 Y110.0857 F900
G01 X83.5184 Y109.9954 F900
G01 X83.5045 Y109.9871 F900
G01 X83.5246 Y109.9952 F900
G01 X90.7288 Y109.9953 F900
G01 X90.7516 Y110.0857 F900
G01 X90.7288 Y109.9953 F900
G02 X90.7640 Y98.0173 I-3.6044 J-5.9996 F900
G01 X90.7836 Y97.9532 F900
G01 X90.7640 Y98.0173 F900
G01 X83.5164 Y97.9973 F900
G01 X83.4933 Y97.9054 F900
G01 X83.5164 Y97.9973 F900
G02 X80.5740 Y101.5260 I3.5993 J5.9923 F900
G01 X81.1322 Y101.7463 F900
G01 Z-6.0000 F100
G01 X93.1151 F900
G01 X93.1143 Y106.2463 F900
G01 X81.1330 F900
G01 X80.5673 Y106.4467 F900
G02 X83.5184 Y109.9954 I6.5548 J-2.4496 F900
G01 X83.4957 Y110.0857 F900
G01 X83.5184 Y109.9954 F900
G01 X83.5045 Y109.9871 F900
G01 X83.5246 Y109.9952 F900
G01 X90.7288 Y109.9953 F900
G01 X90.7516 Y110.0857 F900
G01 X90.7288 Y109.9953 F900
G02 X90.7640 Y98.0173 I-3.6044 J-5.9996 F900
G01 X90.7836 Y97.9532 F900
G01 X90.7640 Y98.0173 F900
G01 X83.5164 Y97.9973 F900
G01 X83.4933 Y97.9054 F900
G01 X83.5164 Y97.9973 F900
G02 X80.5673 Y106.4467 I3.6050 J5.9976 F900
G01 X81.1330 Y106.2463 F900
G01 Z-8.0000 F100
G01 X93.1143 F900
G01 X93.1151 Y101.7463 F900
G01 X81.1322 F900
G01 X80.5740 Y101.5260 F900
G02 X83.5184 Y109.9954 I6.5492 J2.4697 F900
G01 X83.4957 Y110.0857 F900
G01 X83.5184 Y109.9954 F900
G01 X83.5045 Y109.9871 F900
G01 X83.5246 Y109.9952 F900
G01 X90.7288 Y109.9953 F900
G01 X90.7516 Y110.0857 F900
G01 X90.7288 Y109.9953 F900
G02 X90.7640 Y98.0173 I-3.6044 J-5.9996 F900
G01 X90.7836 Y97.9532 F900
G01 X90.7640 Y98.0173 F900
G01 X83.5164 Y97.9973 F900
G01 X83.4933 Y97.9054 F900
G01 X83.5164 Y97.9973 F900
G02 X80.5740 Y101.5260 I3.5993 J5.9923 F900
G01 X81.1322 Y101.7463 F900
G01 Z-10.0000 F100
G01 X93.1151 F900
G01 X93.1143 Y106.2463 F900
G01 X81.1330 F900
G01 X80.5673 Y106.4467 F900
G02 X83.5184 Y109.9954 I6.5548 J-2.4496 F900
G01 X83.4957 Y110.0857 F900
G01 X83.5184 Y109.9954 F900
G01 X83.5045 Y109.9871 F900
G01 X83.5246 Y109.9952 F900
G01 X90.7288 Y109.9953 F900
G01 X90.7516 Y110.0857 F900
G01 X90.7288 Y109.9953 F900
G02 X90.7640 Y98.0173 I-3.6044 J-5.9996 F900
G01 X90.7836 Y97.9532 F900
G01 X90.7640 Y98.0173 F900
G01 X83.5164 Y97.9973 F900
G01 X83.4933 Y97.9054 F900
G01 X83.5164 Y97.9973 F900
G02 X80.5673 Y106.4467 I3.6050 J5.9976 F900
G01 X81.1330 Y106.2463 F900
G00 Z15.0000 F480


;No. 7: Ausschnitt 24
G00 X63.1147 Y106.2452 Z15.0000 F2100
G00 Z0.5000 F480
G01 Z0.0000 F100
G01 Z-2.0000 F100
G01 X51.1326 F900
G01 Y101.7452 F900
G01 X63.1147 F900
G01 X63.6800 Y101.5438 F900
G02 X60.7321 Y97.9972 I-6.5545 J2.4494 F900
G01 X60.7544 Y97.9113 F900
G01 X60.7321 Y97.9972 F900
G01 X60.7428 Y98.0034 F900
G01 X60.7268 Y97.9963 F900
G01 X53.5041 Y98.0063 F900
G01 X53.4807 Y97.9144 F900
G01 X53.5041 Y98.0063 F900
G02 Y109.9842 I3.6153 J5.9890 F900
G01 X53.4807 Y110.0761 F900
G01 X53.5041 Y109.9842 F900
G01 X60.7303 Y109.9945 F900
G01 X60.7524 Y110.0797 F900
G01 X60.7303 Y109.9945 F900
G02 X63.6800 Y101.5438 I-3.6062 J-5.9988 F900
G01 X63.1147 Y101.7452 F900
G01 Z-4.0000 F100
G01 X51.1326 F900
G01 Y106.2452 F900
G01 X63.1147 F900
G01 X63.6800 Y106.4467 F900
G02 X60.7321 Y97.9972 I-6.5558 J-2.4518 F900
G01 X60.7544 Y97.9113 F900
G01 X60.7321 Y97.9972 F900
G01 X60.7428 Y98.0034 F900
G01 X60.7268 Y97.9963 F900
G01 X53.5041 Y98.0063 F900
G01 X53.4807 Y97.9144 F900
G01 X53.5041 Y98.0063 F900
G02 Y109.9842 I3.6153 J5.9890 F900
G01 X53.4807 Y110.0761 F900
G01 X53.5041 Y109.9842 F900
G01 X60.7303 Y109.9945 F900
G01 X60.7524 Y110.0797 F900
G01 X60.7303 Y109.9945 F900
G02 X63.6800 Y106.4467 I-3.6052 J-5.9975 F900
G01 X63.1147 Y106.2452 F900
G01 Z-6.0000 F100
G01 X51.1326 F900
G01 Y101.7452 F900
G01 X63.1147 F900
G01 X63.6800 Y101.5438 F900
G02 X60.7321 Y97.9972 I-6.5545 J2.4494 F900
G01 X60.7544 Y97.9113 F900
G01 X60.7321 Y97.9972 F900
G01 X60.7428 Y98.0034 F900
G01 X60.7268 Y97.9963 F900
G01 X53.5041 Y98.0063 F900
G01 X53.4807 Y97.9144 F900
G01 X53.5041 Y98.0063 F900
G02 Y109.9842 I3.6153 J5.9890 F900
G01 X53.4807 Y110.0761 F900
G01 X53.5041 Y109.9842 F900
G01 X60.7303 Y109.9945 F900
G01 X60.7524 Y110.0797 F900
G01 X60.7303 Y109.9945 F900
G02 X63.6800 Y101.5438 I-3.6062 J-5.9988 F900
G01 X63.1147 Y101.7452 F900
G01 Z-8.0000 F100
G01 X51.1326 F900
G01 Y106.2452 F900
G01 X63.1147 F900
G01 X63.6800 Y106.4467 F900
G02 X60.7321 Y97.9972 I-6.5558 J-2.4518 F900
G01 X60.7544 Y97.9113 F900
G01 X60.7321 Y97.9972 F900
G01 X60.7428 Y98.0034 F900
G01 X60.7268 Y97.9963 F900
G01 X53.5041 Y98.0063 F900
G01 X53.4807 Y97.9144 F900
G01 X53.5041 Y98.0063 F900
G02 Y109.9842 I3.6153 J5.9890 F900
G01 X53.4807 Y110.0761 F900
G01 X53.5041 Y109.9842 F900
G01 X60.7303 Y109.9945 F900
G01 X60.7524 Y110.0797 F900
G01 X60.7303 Y109.9945 F900
G02 X63.6800 Y106.4467 I-3.6052 J-5.9975 F900
G01 X63.1147 Y106.2452 F900
G01 Z-10.0000 F100
G01 X51.1326 F900
G01 Y101.7452 F900
G01 X63.1147 F900
G01 X63.6800 Y101.5438 F900
G02 X60.7321 Y97.9972 I-6.5545 J2.4494 F900
G01 X60.7544 Y97.9113 F900
G01 X60.7321 Y97.9972 F900
G01 X60.7428 Y98.0034 F900
G01 X60.7268 Y97.9963 F900
G01 X53.5041 Y98.0063 F900
G01 X53.4807 Y97.9144 F900
G01 X53.5041 Y98.0063 F900
G02 Y109.9842 I3.6153 J5.9890 F900
G01 X53.4807 Y110.0761 F900
G01 X53.5041 Y109.9842 F900
G01 X60.7303 Y109.9945 F900
G01 X60.7524 Y110.0797 F900
G01 X60.7303 Y109.9945 F900
G02 X63.6800 Y101.5438 I-3.6062 J-5.9988 F900
G01 X63.1147 Y101.7452 F900
G00 Z15.0000 F480


;No. 8: Ausschnitt 1
G00 X53.8984 Y95.5931 Z15.0000 F2100
G00 Z0.5000 F480
G01 Z0.0000 F100
G01 Z-2.0000 F100
G02 X51.4598 Y110.9895 I3.2253 J8.4021 F900
G02 X66.0127 Y105.4031 I5.6638 J-6.9942 F900
G02 X53.8984 Y95.5931 I-8.8891 J-1.4079 F900
G01 Z-4.0000 F100
G02 X51.4598 Y110.9895 I3.2253 J8.4021 F900
G02 X66.0127 Y105.4031 I5.6638 J-6.9942 F900
G02 X53.8984 Y95.5931 I-8.8891 J-1.4079 F900
G01 Z-5.0000 F100
G02 X51.4598 Y110.9895 I3.2253 J8.4021 F900
G02 X66.0127 Y105.4031 I5.6638 J-6.9942 F900
G02 X53.8984 Y95.5931 I-8.8891 J-1.4079 F900
G00 Z15.0000 F480


;No. 9: Ausschnitt 3
G00 X119.9360 Y98.5790 Z15.0000 F2100
G00 Z0.5000 F480
G01 Z0.0000 F100
G01 Z-2.0000 F100
G02 X126.0268 Y112.9280 I7.1876 J5.4163 F900
G02 X135.4081 Y100.4787 I1.0968 J-8.9328 F900
G02 X119.9360 Y98.5790 I-8.2844 J3.5165 F900
G01 Z-4.0000 F100
G02 X126.0268 Y112.9280 I7.1876 J5.4163 F900
G02 X135.4081 Y100.4787 I1.0968 J-8.9328 F900
G02 X119.9360 Y98.5790 I-8.2844 J3.5165 F900
G01 Z-5.0000 F100
G02 X126.0268 Y112.9280 I7.1876 J5.4163 F900
G02 X135.4081 Y100.4787 I1.0968 J-8.9328 F900
G02 X119.9360 Y98.5790 I-8.2844 J3.5165 F900
G00 Z15.0000 F480


;No. 10: Ausschnitt 26
G00 X121.1314 Y101.7485 Z15.0000 F2100
G00 Z0.5000 F480
G01 Z0.0000 F100
G01 Z-2.0000 F100
G01 X133.1159 F900
G01 X133.1135 Y106.2485 F900
G01 X121.1338 F900
G01 X120.5673 Y106.4467 F900
G02 X123.5184 Y109.9953 I6.5548 J-2.4496 F900
G01 X123.4957 Y110.0857 F900
G01 X123.5184 Y109.9953 F900
G01 X123.5045 Y109.9871 F900
G01 X123.5246 Y109.9952 F900
G01 X130.7288 Y109.9953 F900
G01 X130.7509 Y110.0801 F900
G01 X130.7288 Y109.9953 F900
G02 Y97.9952 I-3.6052 J-6.0001 F900
G01 X130.7509 Y97.9104 F900
G01 X130.7288 Y97.9952 F900
G01 X130.7428 Y98.0034 F900
G01 X130.7226 Y97.9952 F900
G01 X123.5184 F900
G01 X123.4963 Y97.9104 F900
G01 X123.5184 Y97.9952 F900
G02 X120.5673 Y106.4467 I3.6047 J5.9997 F900
G01 X121.1338 Y106.2485 F900
G01 Z-4.0000 F100
G01 X133.1135 F900
G01 X133.1159 Y101.7485 F900
G01 X121.1314 F900
G01 X120.5673 Y101.5439 F900
G02 X123.5184 Y109.9953 I6.5558 J2.4518 F900
G01 X123.4957 Y110.0857 F900
G01 X123.5184 Y109.9953 F900
G01 X123.5045 Y109.9871 F900
G01 X123.5246 Y109.9952 F900
G01 X130.7288 Y109.9953 F900
G01 X130.7509 Y110.0801 F900
G01 X130.7288 Y109.9953 F900
G02 Y97.9952 I-3.6052 J-6.0001 F900
G01 X130.7509 Y97.9104 F900
G01 X130.7288 Y97.9952 F900
G01 X130.7428 Y98.0034 F900
G01 X130.7226 Y97.9952 F900
G01 X123.5184 F900
G01 X123.4963 Y97.9104 F900
G01 X123.5184 Y97.9952 F900
G02 X120.5673 Y101.5439 I3.6036 J5.9982 F900
G01 X121.1314 Y101.7485 F900
G01 Z-6.0000 F100
G01 X133.1159 F900
G01 X133.1135 Y106.2485 F900
G01 X121.1338 F900
G01 X120.5673 Y106.4467 F900
G02 X123.5184 Y109.9953 I6.5548 J-2.4496 F900
G01 X123.4957 Y110.0857 F900
G01 X123.5184 Y109.9953 F900
G01 X123.5045 Y109.9871 F900
G01 X123.5246 Y109.9952 F900
G01 X130.7288 Y109.9953 F900
G01 X130.7509 Y110.0801 F900
G01 X130.7288 Y109.9953 F900
G02 Y97.9952 I-3.6052 J-6.0001 F900
G01 X130.7509 Y97.9104 F900
G01 X130.7288 Y97.9952 F900
G01 X130.7428 Y98.0034 F900
G01 X130.7226 Y97.9952 F900
G01 X123.5184 F900
G01 X123.4963 Y97.9104 F900
G01 X123.5184 Y97.9952 F900
G02 X120.5673 Y106.4467 I3.6047 J5.9997 F900
G01 X121.1338 Y106.2485 F900
G01 Z-8.0000 F100
G01 X133.1135 F900
G01 X133.1159 Y101.7485 F900
G01 X121.1314 F900
G01 X120.5673 Y101.5439 F900
G02 X123.5184 Y109.9953 I6.5558 J2.4518 F900
G01 X123.4957 Y110.0857 F900
G01 X123.5184 Y109.9953 F900
G01 X123.5045 Y109.9871 F900
G01 X123.5246 Y109.9952 F900
G01 X130.7288 Y109.9953 F900
G01 X130.7509 Y110.0801 F900
G01 X130.7288 Y109.9953 F900
G02 Y97.9952 I-3.6052 J-6.0001 F900
G01 X130.7509 Y97.9104 F900
G01 X130.7288 Y97.9952 F900
G01 X130.7428 Y98.0034 F900
G01 X130.7226 Y97.9952 F900
G01 X123.5184 F900
G01 X123.4963 Y97.9104 F900
G01 X123.5184 Y97.9952 F900
G02 X120.5673 Y101.5439 I3.6036 J5.9982 F900
G01 X121.1314 Y101.7485 F900
G01 Z-10.0000 F100
G01 X133.1159 F900
G01 X133.1135 Y106.2485 F900
G01 X121.1338 F900
G01 X120.5673 Y106.4467 F900
G02 X123.5184 Y109.9953 I6.5548 J-2.4496 F900
G01 X123.4957 Y110.0857 F900
G01 X123.5184 Y109.9953 F900
G01 X123.5045 Y109.9871 F900
G01 X123.5246 Y109.9952 F900
G01 X130.7288 Y109.9953 F900
G01 X130.7509 Y110.0801 F900
G01 X130.7288 Y109.9953 F900
G02 Y97.9952 I-3.6052 J-6.0001 F900
G01 X130.7509 Y97.9104 F900
G01 X130.7288 Y97.9952 F900
G01 X130.7428 Y98.0034 F900
G01 X130.7226 Y97.9952 F900
G01 X123.5184 F900
G01 X123.4963 Y97.9104 F900
G01 X123.5184 Y97.9952 F900
G02 X120.5673 Y106.4467 I3.6047 J5.9997 F900
G01 X121.1338 Y106.2485 F900
G00 Z15.0000 F480


;No. 11: Ausschnitt 4
G00 X149.3295 Y99.4953 Z15.0000 F2100
G00 Z0.5000 F480
G01 Z0.0000 F100
G01 Z-2.0000 F100
G02 X157.1236 Y112.9951 I7.7941 J4.4999 F900
G02 X164.9178 Y99.4953 I0.0000 J-8.9999 F900
G02 X149.3295 I-7.7941 J4.4999 F900
G01 Z-4.0000 F100
G02 X157.1236 Y112.9951 I7.7941 J4.4999 F900
G02 X164.9178 Y99.4953 I0.0000 J-8.9999 F900
G02 X149.3295 I-7.7941 J4.4999 F900
G01 Z-5.0000 F100
G02 X157.1236 Y112.9951 I7.7941 J4.4999 F900
G02 X164.9178 Y99.4953 I0.0000 J-8.9999 F900
G02 X149.3295 I-7.7941 J4.4999 F900
G00 Z15.0000 F480


;No. 12: Ausschnitt 27
G00 X151.1303 Y101.7513 Z15.0000 F2100
G00 Z0.5000 F480
G01 Z0.0000 F100
G01 Z-2.0000 F100
G01 X163.1169 F900
G01 X163.1124 Y106.2513 F900
G01 X151.1348 F900
G01 X150.5673 Y106.4467 F900
G02 X153.5184 Y109.9954 I6.5548 J-2.4496 F900
G01 X153.4963 Y110.0801 F900
G01 X153.5184 Y109.9954 F900
G01 X153.5045 Y109.9871 F900
G01 X153.5246 Y109.9952 F900
G01 X160.7288 Y109.9953 F900
G01 X160.7516 Y110.0857 F900
G01 X160.7288 Y109.9953 F900
G02 X160.7474 Y98.0073 I-3.6043 J-5.9996 F900
G01 X160.7660 Y97.9478 F900
G01 X160.7474 Y98.0073 F900
G01 X153.4999 F900
G01 X153.4767 Y97.9154 F900
G01 X153.4999 Y98.0073 F900
G02 X150.5673 Y106.4467 I3.6213 J5.9876 F900
G01 X151.1348 Y106.2513 F900
G01 Z-4.0000 F100
G01 X163.1124 F900
G01 X163.1169 Y101.7513 F900
G01 X151.1303 F900
G01 X150.5740 Y101.5260 F900
G02 X153.5184 Y109.9954 I6.5492 J2.4696 F900
G01 X153.4963 Y110.0801 F900
G01 X153.5184 Y109.9954 F900
G01 X153.5045 Y109.9871 F900
G01 X153.5246 Y109.9952 F900
G01 X160.7288 Y109.9953 F900
G01 X160.7516 Y110.0857 F900
G01 X160.7288 Y109.9953 F900
G02 X160.7474 Y98.0073 I-3.6043 J-5.9996 F900
G01 X160.7660 Y97.9478 F900
G01 X160.7474 Y98.0073 F900
G01 X153.4999 F900
G01 X153.4767 Y97.9154 F900
G01 X153.4999 Y98.0073 F900
G02 X150.5740 Y101.5260 I3.6153 J5.9821 F900
G01 X151.1303 Y101.7513 F900
G01 Z-6.0000 F100
G01 X163.1169 F900
G01 X163.1124 Y106.2513 F900
G01 X151.1348 F900
G01 X150.5673 Y106.4467 F900
G02 X153.5184 Y109.9954 I6.5548 J-2.4496 F900
G01 X153.4963 Y110.0801 F900
G01 X153.5184 Y109.9954 F900
G01 X153.5045 Y109.9871 F900
G01 X153.5246 Y109.9952 F900
G01 X160.7288 Y109.9953 F900
G01 X160.7516 Y110.0857 F900
G01 X160.7288 Y109.9953 F900
G02 X160.7474 Y98.0073 I-3.6043 J-5.9996 F900
G01 X160.7660 Y97.9478 F900
G01 X160.7474 Y98.0073 F900
G01 X153.4999 F900
G01 X153.4767 Y97.9154 F900
G01 X153.4999 Y98.0073 F900
G02 X150.5673 Y106.4467 I3.6213 J5.9876 F900
G01 X151.1348 Y106.2513 F900
G01 Z-8.0000 F100
G01 X163.1124 F900
G01 X163.1169 Y101.7513 F900
G01 X151.1303 F900
G01 X150.5740 Y101.5260 F900
G02 X153.5184 Y109.9954 I6.5492 J2.4696 F900
G01 X153.4963 Y110.0801 F900
G01 X153.5184 Y109.9954 F900
G01 X153.5045 Y109.9871 F900
G01 X153.5246 Y109.9952 F900
G01 X160.7288 Y109.9953 F900
G01 X160.7516 Y110.0857 F900
G01 X160.7288 Y109.9953 F900
G02 X160.7474 Y98.0073 I-3.6043 J-5.9996 F900
G01 X160.7660 Y97.9478 F900
G01 X160.7474 Y98.0073 F900
G01 X153.4999 F900
G01 X153.4767 Y97.9154 F900
G01 X153.4999 Y98.0073 F900
G02 X150.5740 Y101.5260 I3.6153 J5.9821 F900
G01 X151.1303 Y101.7513 F900
G01 Z-10.0000 F100
G01 X163.1169 F900
G01 X163.1124 Y106.2513 F900
G01 X151.1348 F900
G01 X150.5673 Y106.4467 F900
G02 X153.5184 Y109.9954 I6.5548 J-2.4496 F900
G01 X153.4963 Y110.0801 F900
G01 X153.5184 Y109.9954 F900
G01 X153.5045 Y109.9871 F900
G01 X153.5246 Y109.9952 F900
G01 X160.7288 Y109.9953 F900
G01 X160.7516 Y110.0857 F900
G01 X160.7288 Y109.9953 F900
G02 X160.7474 Y98.0073 I-3.6043 J-5.9996 F900
G01 X160.7660 Y97.9478 F900
G01 X160.7474 Y98.0073 F900
G01 X153.4999 F900
G01 X153.4767 Y97.9154 F900
G01 X153.4999 Y98.0073 F900
G02 X150.5673 Y106.4467 I3.6213 J5.9876 F900
G01 X151.1348 Y106.2513 F900
G00 Z15.0000 F480


;No. 13: Ausschnitt 5
G00 X188.9018 Y100.3347 Z15.0000 F2100
G00 Z0.5000 F480
G01 Z0.0000 F100
G01 Z-2.0000 F100
G02 X198.0644 Y112.9458 I8.2218 J3.6606 F900
G02 X204.4047 Y98.7052 I-0.9407 J-8.9506 F900
G02 X188.9018 Y100.3347 I-7.2811 J5.2900 F900
G01 Z-4.0000 F100
G02 X198.0644 Y112.9458 I8.2218 J3.6606 F900
G02 X204.4047 Y98.7052 I-0.9407 J-8.9506 F900
G02 X188.9018 Y100.3347 I-7.2811 J5.2900 F900
G01 Z-5.0000 F100
G02 X198.0644 Y112.9458 I8.2218 J3.6606 F900
G02 X204.4047 Y98.7052 I-0.9407 J-8.9506 F900
G02 X188.9018 Y100.3347 I-7.2811 J5.2900 F900
G00 Z15.0000 F480


;No. 14: Ausschnitt 28
G00 X191.1324 Y101.7458 Z15.0000 F2100
G00 Z0.5000 F480
G01 Z0.0000 F100
G01 Z-2.0000 F100
G01 X203.1149 F900
G01 X203.1145 Y106.2458 F900
G01 X191.1328 F900
G01 X190.5673 Y106.4467 F900
G02 X193.5184 Y109.9953 I6.5548 J-2.4496 F900
G01 X193.4963 Y110.0801 F900
G01 X193.5184 Y109.9953 F900
G01 X193.5045 Y109.9871 F900
G01 X193.5246 Y109.9952 F900
G01 X200.7288 Y109.9953 F900
G01 X200.7516 Y110.0857 F900
G01 X200.7288 Y109.9953 F900
G02 X200.7432 Y98.0063 I-3.6030 J-5.9989 F900
G01 X200.7666 Y97.9144 F900
G01 X200.7432 Y98.0063 F900
G01 X193.5170 Y97.9960 F900
G01 X193.4942 Y97.9052 F900
G01 X193.5170 Y97.9960 F900
G02 X190.5673 Y106.4467 I3.6062 J5.9988 F900
G01 X191.1328 Y106.2458 F900
G01 Z-4.0000 F100
G01 X203.1145 F900
G01 X203.1149 Y101.7458 F900
G01 X191.1324 F900
G01 X190.5673 Y101.5438 F900
G02 X193.5184 Y109.9953 I6.5558 J2.4518 F900
G01 X193.4963 Y110.0801 F900
G01 X193.5184 Y109.9953 F900
G01 X193.5045 Y109.9871 F900
G01 X193.5246 Y109.9952 F900
G01 X200.7288 Y109.9953 F900
G01 X200.7516 Y110.0857 F900
G01 X200.7288 Y109.9953 F900
G02 X200.7432 Y98.0063 I-3.6030 J-5.9989 F900
G01 X200.7666 Y97.9144 F900
G01 X200.7432 Y98.0063 F900
G01 X193.5170 Y97.9960 F900
G01 X193.4942 Y97.9052 F900
G01 X193.5170 Y97.9960 F900
G02 X190.5673 Y101.5438 I3.6052 J5.9975 F900
G01 X191.1324 Y101.7458 F900
G01 Z-6.0000 F100
G01 X203.1149 F900
G01 X203.1145 Y106.2458 F900
G01 X191.1328 F900
G01 X190.5673 Y106.4467 F900
G02 X193.5184 Y109.9953 I6.5548 J-2.4496 F900
G01 X193.4963 Y110.0801 F900
G01 X193.5184 Y109.9953 F900
G01 X193.5045 Y109.9871 F900
G01 X193.5246 Y109.9952 F900
G01 X200.7288 Y109.9953 F900
G01 X200.7516 Y110.0857 F900
G01 X200.7288 Y109.9953 F900
G02 X200.7432 Y98.0063 I-3.6030 J-5.9989 F900
G01 X200.7666 Y97.9144 F900
G01 X200.7432 Y98.0063 F900
G01 X193.5170 Y97.9960 F900
G01 X193.4942 Y97.9052 F900
G01 X193.5170 Y97.9960 F900
G02 X190.5673 Y106.4467 I3.6062 J5.9988 F900
G01 X191.1328 Y106.2458 F900
G01 Z-8.0000 F100
G01 X203.1145 F900
G01 X203.1149 Y101.7458 F900
G01 X191.1324 F900
G01 X190.5673 Y101.5438 F900
G02 X193.5184 Y109.9953 I6.5558 J2.4518 F900
G01 X193.4963 Y110.0801 F900
G01 X193.5184 Y109.9953 F900
G01 X193.5045 Y109.9871 F900
G01 X193.5246 Y109.9952 F900
G01 X200.7288 Y109.9953 F900
G01 X200.7516 Y110.0857 F900
G01 X200.7288 Y109.9953 F900
G02 X200.7432 Y98.0063 I-3.6030 J-5.9989 F900
G01 X200.7666 Y97.9144 F900
G01 X200.7432 Y98.0063 F900
G01 X193.5170 Y97.9960 F900
G01 X193.4942 Y97.9052 F900
G01 X193.5170 Y97.9960 F900
G02 X190.5673 Y101.5438 I3.6052 J5.9975 F900
G01 X191.1324 Y101.7458 F900
G01 Z-10.0000 F100
G01 X203.1149 F900
G01 X203.1145 Y106.2458 F900
G01 X191.1328 F900
G01 X190.5673 Y106.4467 F900
G02 X193.5184 Y109.9953 I6.5548 J-2.4496 F900
G01 X193.4963 Y110.0801 F900
G01 X193.5184 Y109.9953 F900
G01 X193.5045 Y109.9871 F900
G01 X193.5246 Y109.9952 F900
G01 X200.7288 Y109.9953 F900
G01 X200.7516 Y110.0857 F900
G01 X200.7288 Y109.9953 F900
G02 X200.7432 Y98.0063 I-3.6030 J-5.9989 F900
G01 X200.7666 Y97.9144 F900
G01 X200.7432 Y98.0063 F900
G01 X193.5170 Y97.9960 F900
G01 X193.4942 Y97.9052 F900
G01 X193.5170 Y97.9960 F900
G02 X190.5673 Y106.4467 I3.6062 J5.9988 F900
G01 X191.1328 Y106.2458 F900
G00 Z15.0000 F480


;No. 15: Ausschnitt 6
G00 X218.7215 Y100.7700 Z15.0000 F2100
G00 Z0.5000 F480
G01 Z0.0000 F100
G01 Z-2.0000 F100
G02 X228.5315 Y112.8843 I8.4021 J3.2253 F900
G02 X234.1179 Y98.3314 I-1.4079 J-8.8891 F900
G02 X218.7215 Y100.7700 I-6.9942 J5.6638 F900
G01 Z-4.0000 F100
G02 X228.5315 Y112.8843 I8.4021 J3.2253 F900
G02 X234.1179 Y98.3314 I-1.4079 J-8.8891 F900
G02 X218.7215 Y100.7700 I-6.9942 J5.6638 F900
G01 Z-5.0000 F100
G02 X228.5315 Y112.8843 I8.4021 J3.2253 F900
G02 X234.1179 Y98.3314 I-1.4079 J-8.8891 F900
G02 X218.7215 Y100.7700 I-6.9942 J5.6638 F900
G00 Z15.0000 F480


;No. 16: Ausschnitt 29
G00 X221.1328 Y101.7447 Z15.0000 F2100
G00 Z0.5000 F480
G01 Z0.0000 F100
G01 Z-2.0000 F100
G01 X233.1145 F900
G01 X233.1149 Y106.2447 F900
G01 X221.1324 F900
G01 X220.5673 Y106.4467 F900
G02 X223.5040 Y109.9843 I6.5382 J-2.4399 F900
G01 X223.4806 Y110.0761 F900
G01 X223.5040 Y109.9843 F900
G01 X230.7303 Y109.9945 F900
G01 X230.7530 Y110.0853 F900
G01 X230.7303 Y109.9945 F900
G02 X230.7288 Y97.9952 I-3.6066 J-5.9992 F900
G01 X230.7461 Y97.9415 F900
G01 X230.7288 Y97.9952 F900
G01 X230.7428 Y98.0034 F900
G01 X230.7226 Y97.9952 F900
G01 X223.5246 F900
G01 X223.5014 Y97.9034 F900
G01 X223.5246 Y97.9952 F900
G02 X220.5673 Y106.4467 I3.5910 J5.9997 F900
G01 X221.1324 Y106.2447 F900
G01 Z-4.0000 F100
G01 X233.1149 F900
G01 X233.1145 Y101.7447 F900
G01 X221.1328 F900
G01 X220.5740 Y101.5259 F900
G02 X223.5040 Y109.9843 I6.5445 J2.4696 F900
G01 X223.4806 Y110.0761 F900
G01 X223.5040 Y109.9843 F900
G01 X230.7303 Y109.9945 F900
G01 X230.7530 Y110.0853 F900
G01 X230.7303 Y109.9945 F900
G02 X230.7288 Y97.9952 I-3.6066 J-5.9992 F900
G01 X230.7461 Y97.9415 F900
G01 X230.7288 Y97.9952 F900
G01 X230.7428 Y98.0034 F900
G01 X230.7226 Y97.9952 F900
G01 X223.5246 F900
G01 X223.5014 Y97.9034 F900
G01 X223.5246 Y97.9952 F900
G02 X220.5740 Y101.5259 I3.5723 J5.9836 F900
G01 X221.1328 Y101.7447 F900
G01 Z-6.0000 F100
G01 X233.1145 F900
G01 X233.1149 Y106.2447 F900
G01 X221.1324 F900
G01 X220.5673 Y106.4467 F900
G02 X223.5040 Y109.9843 I6.5382 J-2.4399 F900
G01 X223.4806 Y110.0761 F900
G01 X223.5040 Y109.9843 F900
G01 X230.7303 Y109.9945 F900
G01 X230.7530 Y110.0853 F900
G01 X230.7303 Y109.9945 F900
G02 X230.7288 Y97.9952 I-3.6066 J-5.9992 F900
G01 X230.7461 Y97.9415 F900
G01 X230.7288 Y97.9952 F900
G01 X230.7428 Y98.0034 F900
G01 X230.7226 Y97.9952 F900
G01 X223.5246 F900
G01 X223.5014 Y97.9034 F900
G01 X223.5246 Y97.9952 F900
G02 X220.5673 Y106.4467 I3.5910 J5.9997 F900
G01 X221.1324 Y106.2447 F900
G01 Z-8.0000 F100
G01 X233.1149 F900
G01 X233.1145 Y101.7447 F900
G01 X221.1328 F900
G01 X220.5740 Y101.5259 F900
G02 X223.5040 Y109.9843 I6.5445 J2.4696 F900
G01 X223.4806 Y110.0761 F900
G01 X223.5040 Y109.9843 F900
G01 X230.7303 Y109.9945 F900
G01 X230.7530 Y110.0853 F900
G01 X230.7303 Y109.9945 F900
G02 X230.7288 Y97.9952 I-3.6066 J-5.9992 F900
G01 X230.7461 Y97.9415 F900
G01 X230.7288 Y97.9952 F900
G01 X230.7428 Y98.0034 F900
G01 X230.7226 Y97.9952 F900
G01 X223.5246 F900
G01 X223.5014 Y97.9034 F900
G01 X223.5246 Y97.9952 F900
G02 X220.5740 Y101.5259 I3.5723 J5.9836 F900
G01 X221.1328 Y101.7447 F900
G01 Z-10.0000 F100
G01 X233.1145 F900
G01 X233.1149 Y106.2447 F900
G01 X221.1324 F900
G01 X220.5673 Y106.4467 F900
G02 X223.5040 Y109.9843 I6.5382 J-2.4399 F900
G01 X223.4806 Y110.0761 F900
G01 X223.5040 Y109.9843 F900
G01 X230.7303 Y109.9945 F900
G01 X230.7530 Y110.0853 F900
G01 X230.7303 Y109.9945 F900
G02 X230.7288 Y97.9952 I-3.6066 J-5.9992 F900
G01 X230.7461 Y97.9415 F900
G01 X230.7288 Y97.9952 F900
G01 X230.7428 Y98.0034 F900
G01 X230.7226 Y97.9952 F900
G01 X223.5246 F900
G01 X223.5014 Y97.9034 F900
G01 X223.5246 Y97.9952 F900
G02 X220.5673 Y106.4467 I3.5910 J5.9997 F900
G01 X221.1324 Y106.2447 F900
G00 Z15.0000 F480


;No. 17: Ausschnitt 7
G00 X258.5170 Y101.3639 Z15.0000 F2100
G00 Z0.5000 F480
G01 Z0.0000 F100
G01 Z-2.0000 F100
G02 X269.1482 Y112.7645 I8.6066 J2.6313 F900
G02 X273.7057 Y97.8573 I-2.0245 J-8.7692 F900
G02 X258.5170 Y101.3639 I-6.5821 J6.1379 F900
G01 Z-4.0000 F100
G02 X269.1482 Y112.7645 I8.6066 J2.6313 F900
G02 X273.7057 Y97.8573 I-2.0245 J-8.7692 F900
G02 X258.5170 Y101.3639 I-6.5821 J6.1379 F900
G01 Z-5.0000 F100
G02 X269.1482 Y112.7645 I8.6066 J2.6313 F900
G02 X273.7057 Y97.8573 I-2.0245 J-8.7692 F900
G02 X258.5170 Y101.3639 I-6.5821 J6.1379 F900
G00 Z15.0000 F480


;No. 18: Ausschnitt 30
G00 X261.1328 Y101.7447 Z15.0000 F2100
G00 Z0.5000 F480
G01 Z0.0000 F100
G01 Z-2.0000 F100
G01 X273.1145 F900
G01 X273.1149 Y106.2447 F900
G01 X261.1324 F900
G01 X260.5673 Y106.4466 F900
G02 X263.5152 Y109.9933 I6.5545 J-2.4494 F900
G01 X263.4923 Y110.0848 F900
G01 X263.5152 Y109.9933 F900
G01 X263.5045 Y109.9871 F900
G01 X263.5205 Y109.9942 F900
G01 X270.7432 Y109.9842 F900
G01 X270.7666 Y110.0761 F900
G01 X270.7432 Y109.9842 F900
G02 X270.7288 Y97.9952 I-3.6175 J-5.9902 F900
G01 X270.7509 Y97.9104 F900
G01 X270.7288 Y97.9952 F900
G01 X270.7428 Y98.0034 F900
G01 X270.7226 Y97.9952 F900
G01 X263.5184 F900
G01 X263.4957 Y97.9048 F900
G01 X263.5184 Y97.9952 F900
G02 X260.5673 Y106.4466 I3.6047 J5.9997 F900
G01 X261.1324 Y106.2447 F900
G01 Z-4.0000 F100
G01 X273.1149 F900
G01 X273.1145 Y101.7447 F900
G01 X261.1328 F900
G01 X260.5673 Y101.5438 F900
G02 X263.5152 Y109.9933 I6.5558 J2.4518 F900
G01 X263.4923 Y110.0848 F900
G01 X263.5152 Y109.9933 F900
G01 X263.5045 Y109.9871 F900
G01 X263.5205 Y109.9942 F900
G01 X270.7432 Y109.9842 F900
G01 X270.7666 Y110.0761 F900
G01 X270.7432 Y109.9842 F900
G02 X270.7288 Y97.9952 I-3.6175 J-5.9902 F900
G01 X270.7509 Y97.9104 F900
G01 X270.7288 Y97.9952 F900
G01 X270.7428 Y98.0034 F900
G01 X270.7226 Y97.9952 F900
G01 X263.5184 F900
G01 X263.4957 Y97.9048 F900
G01 X263.5184 Y97.9952 F900
G02 X260.5673 Y101.5438 I3.6036 J5.9982 F900
G01 X261.1328 Y101.7447 F900
G01 Z-6.0000 F100
G01 X273.1145 F900
G01 X273.1149 Y106.2447 F900
G01 X261.1324 F900
G01 X260.5673 Y106.4466 F900
G02 X263.5152 Y109.9933 I6.5545 J-2.4494 F900
G01 X263.4923 Y110.0848 F900
G01 X263.5152 Y109.9933 F900
G01 X263.5045 Y109.9871 F900
G01 X263.5205 Y109.9942 F900
G01 X270.7432 Y109.9842 F900
G01 X270.7666 Y110.0761 F900
G01 X270.7432 Y109.9842 F900
G02 X270.7288 Y97.9952 I-3.6175 J-5.9902 F900
G01 X270.7509 Y97.9104 F900
G01 X270.7288 Y97.9952 F900
G01 X270.7428 Y98.0034 F900
G01 X270.7226 Y97.9952 F900
G01 X263.5184 F900
G01 X263.4957 Y97.9048 F900
G01 X263.5184 Y97.9952 F900
G02 X260.5673 Y106.4466 I3.6047 J5.9997 F900
G01 X261.1324 Y106.2447 F900
G01 Z-8.0000 F100
G01 X273.1149 F900
G01 X273.1145 Y101.7447 F900
G01 X261.1328 F900
G01 X260.5673 Y101.5438 F900
G02 X263.5152 Y109.9933 I6.5558 J2.4518 F900
G01 X263.4923 Y110.0848 F900
G01 X263.5152 Y109.9933 F900
G01 X263.5045 Y109.9871 F900
G01 X263.5205 Y109.9942 F900
G01 X270.7432 Y109.9842 F900
G01 X270.7666 Y110.0761 F900
G01 X270.7432 Y109.9842 F900
G02 X270.7288 Y97.9952 I-3.6175 J-5.9902 F900
G01 X270.7509 Y97.9104 F900
G01 X270.7288 Y97.9952 F900
G01 X270.7428 Y98.0034 F900
G01 X270.7226 Y97.9952 F900
G01 X263.5184 F900
G01 X263.4957 Y97.9048 F900
G01 X263.5184 Y97.9952 F900
G02 X260.5673 Y101.5438 I3.6036 J5.9982 F900
G01 X261.1328 Y101.7447 F900
G01 Z-10.0000 F100
G01 X273.1145 F900
G01 X273.1149 Y106.2447 F900
G01 X261.1324 F900
G01 X260.5673 Y106.4466 F900
G02 X263.5152 Y109.9933 I6.5545 J-2.4494 F900
G01 X263.4923 Y110.0848 F900
G01 X263.5152 Y109.9933 F900
G01 X263.5045 Y109.9871 F900
G01 X263.5205 Y109.9942 F900
G01 X270.7432 Y109.9842 F900
G01 X270.7666 Y110.0761 F900
G01 X270.7432 Y109.9842 F900
G02 X270.7288 Y97.9952 I-3.6175 J-5.9902 F900
G01 X270.7509 Y97.9104 F900
G01 X270.7288 Y97.9952 F900
G01 X270.7428 Y98.0034 F900
G01 X270.7226 Y97.9952 F900
G01 X263.5184 F900
G01 X263.4957 Y97.9048 F900
G01 X263.5184 Y97.9952 F900
G02 X260.5673 Y106.4466 I3.6047 J5.9997 F900
G01 X261.1324 Y106.2447 F900
G00 Z15.0000 F480


;No. 19: Ausschnitt 8
G00 X288.4724 Y101.5145 Z15.0000 F2100
G00 Z0.5000 F480
G01 Z0.0000 F100
G01 Z-2.0000 F100
G02 X299.3009 Y112.7278 I8.6512 J2.4807 F900
G02 X303.5976 Y97.7434 I-2.1773 J-8.7326 F900
G02 X288.4724 Y101.5145 I-6.4740 J6.2518 F900
G01 Z-4.0000 F100
G02 X299.3009 Y112.7278 I8.6512 J2.4807 F900
G02 X303.5976 Y97.7434 I-2.1773 J-8.7326 F900
G02 X288.4724 Y101.5145 I-6.4740 J6.2518 F900
G01 Z-5.0000 F100
G02 X299.3009 Y112.7278 I8.6512 J2.4807 F900
G02 X303.5976 Y97.7434 I-2.1773 J-8.7326 F900
G02 X288.4724 Y101.5145 I-6.4740 J6.2518 F900
G00 Z15.0000 F480


;No. 20: Ausschnitt 32
G00 X291.1348 Y101.7392 Z15.0000 F2100
G00 Z0.5000 F480
G01 Z0.0000 F100
G01 Z-2.0000 F100
G01 X303.1124 F900
G01 X303.1169 Y106.2392 F900
G01 X291.1303 F900
G01 X290.5673 Y106.4466 F900
G02 X293.4999 Y109.9832 I6.5481 J-2.4456 F900
G01 X293.4767 Y110.0751 F900
G01 X293.4999 Y109.9832 F900
G01 X300.7474 F900
G01 X300.7706 Y110.0751 F900
G01 X300.7474 Y109.9832 F900
G02 X300.7288 Y97.9952 I-3.6229 J-5.9884 F900
G01 X300.7516 Y97.9048 F900
G01 X300.7288 Y97.9952 F900
G01 X300.7428 Y98.0034 F900
G01 X300.7226 Y97.9952 F900
G01 X293.5184 F900
G01 X293.5012 Y97.9415 F900
G01 X293.5184 Y97.9952 F900
G02 X290.5673 Y106.4466 I3.6047 J5.9997 F900
G01 X291.1303 Y106.2392 F900
G01 Z-4.0000 F100
G01 X303.1169 F900
G01 X303.1124 Y101.7392 F900
G01 X291.1348 F900
G01 X290.5673 Y101.5438 F900
G02 X293.4999 Y109.9832 I6.5539 J2.4518 F900
G01 X293.4767 Y110.0751 F900
G01 X293.4999 Y109.9832 F900
G01 X300.7474 F900
G01 X300.7706 Y110.0751 F900
G01 X300.7474 Y109.9832 F900
G02 X300.7288 Y97.9952 I-3.6229 J-5.9884 F900
G01 X300.7516 Y97.9048 F900
G01 X300.7288 Y97.9952 F900
G01 X300.7428 Y98.0034 F900
G01 X300.7226 Y97.9952 F900
G01 X293.5184 F900
G01 X293.5012 Y97.9415 F900
G01 X293.5184 Y97.9952 F900
G02 X290.5673 Y101.5438 I3.6036 J5.9982 F900
G01 X291.1348 Y101.7392 F900
G01 Z-6.0000 F100
G01 X303.1124 F900
G01 X303.1169 Y106.2392 F900
G01 X291.1303 F900
G01 X290.5673 Y106.4466 F900
G02 X293.4999 Y109.9832 I6.5481 J-2.4456 F900
G01 X293.4767 Y110.0751 F900
G01 X293.4999 Y109.9832 F900
G01 X300.7474 F900
G01 X300.7706 Y110.0751 F900
G01 X300.7474 Y109.9832 F900
G02 X300.7288 Y97.9952 I-3.6229 J-5.9884 F900
G01 X300.7516 Y97.9048 F900
G01 X300.7288 Y97.9952 F900
G01 X300.7428 Y98.0034 F900
G01 X300.7226 Y97.9952 F900
G01 X293.5184 F900
G01 X293.5012 Y97.9415 F900
G01 X293.5184 Y97.9952 F900
G02 X290.5673 Y106.4466 I3.6047 J5.9997 F900
G01 X291.1303 Y106.2392 F900
G01 Z-8.0000 F100
G01 X303.1169 F900
G01 X303.1124 Y101.7392 F900
G01 X291.1348 F900
G01 X290.5673 Y101.5438 F900
G02 X293.4999 Y109.9832 I6.5539 J2.4518 F900
G01 X293.4767 Y110.0751 F900
G01 X293.4999 Y109.9832 F900
G01 X300.7474 F900
G01 X300.7706 Y110.0751 F900
G01 X300.7474 Y109.9832 F900
G02 X300.7288 Y97.9952 I-3.6229 J-5.9884 F900
G01 X300.7516 Y97.9048 F900
G01 X300.7288 Y97.9952 F900
G01 X300.7428 Y98.0034 F900
G01 X300.7226 Y97.9952 F900
G01 X293.5184 F900
G01 X293.5012 Y97.9415 F900
G01 X293.5184 Y97.9952 F900
G02 X290.5673 Y101.5438 I3.6036 J5.9982 F900
G01 X291.1348 Y101.7392 F900
G01 Z-10.0000 F100
G01 X303.1124 F900
G01 X303.1169 Y106.2392 F900
G01 X291.1303 F900
G01 X290.5673 Y106.4466 F900
G02 X293.4999 Y109.9832 I6.5481 J-2.4456 F900
G01 X293.4767 Y110.0751 F900
G01 X293.4999 Y109.9832 F900
G01 X300.7474 F900
G01 X300.7706 Y110.0751 F900
G01 X300.7474 Y109.9832 F900
G02 X300.7288 Y97.9952 I-3.6229 J-5.9884 F900
G01 X300.7516 Y97.9048 F900
G01 X300.7288 Y97.9952 F900
G01 X300.7428 Y98.0034 F900
G01 X300.7226 Y97.9952 F900
G01 X293.5184 F900
G01 X293.5012 Y97.9415 F900
G01 X293.5184 Y97.9952 F900
G02 X290.5673 Y106.4466 I3.6047 J5.9997 F900
G01 X291.1303 Y106.2392 F900
G00 Z15.0000 F480


;No. 21: Ausschnitt 9
G00 X328.3911 Y101.8180 Z15.0000 F2100
G00 Z0.5000 F480
G01 Z0.0000 F100
G01 Z-2.0000 F100
G02 X339.6043 Y112.6465 I8.7326 J2.1773 F900
G02 X343.3755 Y97.5213 I-2.4807 J-8.6512 F900
G02 X328.3911 Y101.8180 I-6.2518 J6.4740 F900
G01 Z-4.0000 F100
G02 X339.6043 Y112.6465 I8.7326 J2.1773 F900
G02 X343.3755 Y97.5213 I-2.4807 J-8.6512 F900
G02 X328.3911 Y101.8180 I-6.2518 J6.4740 F900
G01 Z-5.0000 F100
G02 X339.6043 Y112.6465 I8.7326 J2.1773 F900
G02 X343.3755 Y97.5213 I-2.4807 J-8.6512 F900
G02 X328.3911 Y101.8180 I-6.2518 J6.4740 F900
G00 Z15.0000 F480


;No. 22: Ausschnitt 33
G00 X331.1326 Y101.7452 Z15.0000 F2100
G00 Z0.5000 F480
G01 Z0.0000 F100
G01 Z-2.0000 F100
G01 X343.1147 F900
G01 Y106.2452 F900
G01 X331.1326 F900
G01 X330.5673 Y106.4467 F900
G02 X333.5184 Y109.9954 I6.5548 J-2.4496 F900
G01 X333.4957 Y110.0857 F900
G01 X333.5184 Y109.9954 F900
G01 X333.5045 Y109.9871 F900
G01 X333.5246 Y109.9952 F900
G01 X340.7288 Y109.9953 F900
G01 X340.7516 Y110.0857 F900
G01 X340.7288 Y109.9953 F900
G02 Y97.9952 I-3.6052 J-6.0001 F900
G01 X340.7516 Y97.9048 F900
G01 X340.7288 Y97.9952 F900
G01 X340.7428 Y98.0034 F900
G01 X340.7226 Y97.9952 F900
G01 X333.5246 F900
G01 X333.5014 Y97.9034 F900
G01 X333.5246 Y97.9952 F900
G02 X330.5673 Y106.4467 I3.5910 J5.9997 F900
G01 X331.1326 Y106.2452 F900
G01 Z-4.0000 F100
G01 X343.1147 F900
G01 Y101.7452 F900
G01 X331.1326 F900
G01 X330.5740 Y101.5260 F900
G02 X333.5184 Y109.9954 I6.5492 J2.4697 F900
G01 X333.4957 Y110.0857 F900
G01 X333.5184 Y109.9954 F900
G01 X333.5045 Y109.9871 F900
G01 X333.5246 Y109.9952 F900
G01 X340.7288 Y109.9953 F900
G01 X340.7516 Y110.0857 F900
G01 X340.7288 Y109.9953 F900
G02 Y97.9952 I-3.6052 J-6.0001 F900
G01 X340.7516 Y97.9048 F900
G01 X340.7288 Y97.9952 F900
G01 X340.7428 Y98.0034 F900
G01 X340.7226 Y97.9952 F900
G01 X333.5246 F900
G01 X333.5014 Y97.9034 F900
G01 X333.5246 Y97.9952 F900
G02 X330.5740 Y101.5260 I3.5723 J5.9836 F900
G01 X331.1326 Y101.7452 F900
G01 Z-6.0000 F100
G01 X343.1147 F900
G01 Y106.2452 F900
G01 X331.1326 F900
G01 X330.5673 Y106.4467 F900
G02 X333.5184 Y109.9954 I6.5548 J-2.4496 F900
G01 X333.4957 Y110.0857 F900
G01 X333.5184 Y109.9954 F900
G01 X333.5045 Y109.9871 F900
G01 X333.5246 Y109.9952 F900
G01 X340.7288 Y109.9953 F900
G01 X340.7516 Y110.0857 F900
G01 X340.7288 Y109.9953 F900
G02 Y97.9952 I-3.6052 J-6.0001 F900
G01 X340.7516 Y97.9048 F900
G01 X340.7288 Y97.9952 F900
G01 X340.7428 Y98.0034 F900
G01 X340.7226 Y97.9952 F900
G01 X333.5246 F900
G01 X333.5014 Y97.9034 F900
G01 X333.5246 Y97.9952 F900
G02 X330.5673 Y106.4467 I3.5910 J5.9997 F900
G01 X331.1326 Y106.2452 F900
G01 Z-8.0000 F100
G01 X343.1147 F900
G01 Y101.7452 F900
G01 X331.1326 F900
G01 X330.5740 Y101.5260 F900
G02 X333.5184 Y109.9954 I6.5492 J2.4697 F900
G01 X333.4957 Y110.0857 F900
G01 X333.5184 Y109.9954 F900
G01 X333.5045 Y109.9871 F900
G01 X333.5246 Y109.9952 F900
G01 X340.7288 Y109.9953 F900
G01 X340.7516 Y110.0857 F900
G01 X340.7288 Y109.9953 F900
G02 Y97.9952 I-3.6052 J-6.0001 F900
G01 X340.7516 Y97.9048 F900
G01 X340.7288 Y97.9952 F900
G01 X340.7428 Y98.0034 F900
G01 X340.7226 Y97.9952 F900
G01 X333.5246 F900
G01 X333.5014 Y97.9034 F900
G01 X333.5246 Y97.9952 F900
G02 X330.5740 Y101.5260 I3.5723 J5.9836 F900
G01 X331.1326 Y101.7452 F900
G01 Z-10.0000 F100
G01 X343.1147 F900
G01 Y106.2452 F900
G01 X331.1326 F900
G01 X330.5673 Y106.4467 F900
G02 X333.5184 Y109.9954 I6.5548 J-2.4496 F900
G01 X333.4957 Y110.0857 F900
G01 X333.5184 Y109.9954 F900
G01 X333.5045 Y109.9871 F900
G01 X333.5246 Y109.9952 F900
G01 X340.7288 Y109.9953 F900
G01 X340.7516 Y110.0857 F900
G01 X340.7288 Y109.9953 F900
G02 Y97.9952 I-3.6052 J-6.0001 F900
G01 X340.7516 Y97.9048 F900
G01 X340.7288 Y97.9952 F900
G01 X340.7428 Y98.0034 F900
G01 X340.7226 Y97.9952 F900
G01 X333.5246 F900
G01 X333.5014 Y97.9034 F900
G01 X333.5246 Y97.9952 F900
G02 X330.5673 Y106.4467 I3.5910 J5.9997 F900
G01 X331.1326 Y106.2452 F900
G00 Z15.0000 F480


;No. 23: Ausschnitt 10
G00 X358.3204 Y102.1241 Z15.0000 F2100
G00 Z0.5000 F480
G01 Z0.0000 F100
G01 Z-2.0000 F100
G02 X369.9048 Y112.5546 I8.8032 J1.8712 F900
G02 X373.1457 Y97.3070 I-2.7811 J-8.5594 F900
G02 X358.3204 Y102.1241 I-6.0221 J6.6882 F900
G01 Z-4.0000 F100
G02 X369.9048 Y112.5546 I8.8032 J1.8712 F900
G02 X373.1457 Y97.3070 I-2.7811 J-8.5594 F900
G02 X358.3204 Y102.1241 I-6.0221 J6.6882 F900
G01 Z-5.0000 F100
G02 X369.9048 Y112.5546 I8.8032 J1.8712 F900
G02 X373.1457 Y97.3070 I-2.7811 J-8.5594 F900
G02 X358.3204 Y102.1241 I-6.0221 J6.6882 F900
G00 Z15.0000 F480


;No. 24: Ausschnitt 34
G00 X361.1328 Y101.7447 Z15.0000 F2100
G00 Z0.5000 F480
G01 Z0.0000 F100
G01 Z-2.0000 F100
G01 X373.1145 F900
G01 X373.1149 Y106.2447 F900
G01 X361.1324 F900
G01 X360.5673 Y106.4467 F900
G02 X363.5152 Y109.9933 I6.5545 J-2.4494 F900
G01 X363.4923 Y110.0848 F900
G01 X363.5152 Y109.9933 F900
G01 X363.5045 Y109.9871 F900
G01 X363.5206 Y109.9942 F900
G01 X370.7432 Y109.9842 F900
G01 X370.7666 Y110.0761 F900
G01 X370.7432 Y109.9842 F900
G02 X370.7288 Y97.9952 I-3.6175 J-5.9902 F900
G01 X370.7509 Y97.9104 F900
G01 X370.7288 Y97.9952 F900
G01 X370.7428 Y98.0034 F900
G01 X370.7225 Y97.9952 F900
G01 X363.5184 F900
G01 X363.4957 Y97.9048 F900
G01 X363.5184 Y97.9952 F900
G02 X360.5673 Y106.4467 I3.6047 J5.9997 F900
G01 X361.1324 Y106.2447 F900
G01 Z-4.0000 F100
G01 X373.1149 F900
G01 X373.1145 Y101.7447 F900
G01 X361.1328 F900
G01 X360.5744 Y101.5250 F900
G02 X363.5152 Y109.9933 I6.5487 J2.4707 F900
G01 X363.4923 Y110.0848 F900
G01 X363.5152 Y109.9933 F900
G01 X363.5045 Y109.9871 F900
G01 X363.5206 Y109.9942 F900
G01 X370.7432 Y109.9842 F900
G01 X370.7666 Y110.0761 F900
G01 X370.7432 Y109.9842 F900
G02 X370.7288 Y97.9952 I-3.6175 J-5.9902 F900
G01 X370.7509 Y97.9104 F900
G01 X370.7288 Y97.9952 F900
G01 X370.7428 Y98.0034 F900
G01 X370.7225 Y97.9952 F900
G01 X363.5184 F900
G01 X363.4957 Y97.9048 F900
G01 X363.5184 Y97.9952 F900
G02 X360.5744 Y101.5250 I3.6035 J5.9982 F900
G01 X361.1328 Y101.7447 F900
G01 Z-6.0000 F100
G01 X373.1145 F900
G01 X373.1149 Y106.2447 F900
G01 X361.1324 F900
G01 X360.5673 Y106.4467 F900
G02 X363.5152 Y109.9933 I6.5545 J-2.4494 F900
G01 X363.4923 Y110.0848 F900
G01 X363.5152 Y109.9933 F900
G01 X363.5045 Y109.9871 F900
G01 X363.5206 Y109.9942 F900
G01 X370.7432 Y109.9842 F900
G01 X370.7666 Y110.0761 F900
G01 X370.7432 Y109.9842 F900
G02 X370.7288 Y97.9952 I-3.6175 J-5.9902 F900
G01 X370.7509 Y97.9104 F900
G01 X370.7288 Y97.9952 F900
G01 X370.7428 Y98.0034 F900
G01 X370.7225 Y97.9952 F900
G01 X363.5184 F900
G01 X363.4957 Y97.9048 F900
G01 X363.5184 Y97.9952 F900
G02 X360.5673 Y106.4467 I3.6047 J5.9997 F900
G01 X361.1324 Y106.2447 F900
G01 Z-8.0000 F100
G01 X373.1149 F900
G01 X373.1145 Y101.7447 F900
G01 X361.1328 F900
G01 X360.5744 Y101.5250 F900
G02 X363.5152 Y109.9933 I6.5487 J2.4707 F900
G01 X363.4923 Y110.0848 F900
G01 X363.5152 Y109.9933 F900
G01 X363.5045 Y109.9871 F900
G01 X363.5206 Y109.9942 F900
G01 X370.7432 Y109.9842 F900
G01 X370.7666 Y110.0761 F900
G01 X370.7432 Y109.9842 F900
G02 X370.7288 Y97.9952 I-3.6175 J-5.9902 F900
G01 X370.7509 Y97.9104 F900
G01 X370.7288 Y97.9952 F900
G01 X370.7428 Y98.0034 F900
G01 X370.7225 Y97.9952 F900
G01 X363.5184 F900
G01 X363.4957 Y97.9048 F900
G01 X363.5184 Y97.9952 F900
G02 X360.5744 Y101.5250 I3.6035 J5.9982 F900
G01 X361.1328 Y101.7447 F900
G01 Z-10.0000 F100
G01 X373.1145 F900
G01 X373.1149 Y106.2447 F900
G01 X361.1324 F900
G01 X360.5673 Y106.4467 F900
G02 X363.5152 Y109.9933 I6.5545 J-2.4494 F900
G01 X363.4923 Y110.0848 F900
G01 X363.5152 Y109.9933 F900
G01 X363.5045 Y109.9871 F900
G01 X363.5206 Y109.9942 F900
G01 X370.7432 Y109.9842 F900
G01 X370.7666 Y110.0761 F900
G01 X370.7432 Y109.9842 F900
G02 X370.7288 Y97.9952 I-3.6175 J-5.9902 F900
G01 X370.7509 Y97.9104 F900
G01 X370.7288 Y97.9952 F900
G01 X370.7428 Y98.0034 F900
G01 X370.7225 Y97.9952 F900
G01 X363.5184 F900
G01 X363.4957 Y97.9048 F900
G01 X363.5184 Y97.9952 F900
G02 X360.5673 Y106.4467 I3.6047 J5.9997 F900
G01 X361.1324 Y106.2447 F900
G00 Z15.0000 F480


;No. 25: Ausschnitt 11
G00 X395.2236 Y103.9952 Z15.0000 F2100
G00 Z0.5000 F480
G01 Z0.0000 F100
G01 Z-2.0000 F100
G01 X420.0236 F900
G01 Y99.4952 F900
G01 X395.2236 F900
G01 Y94.9952 F900
G01 X420.0236 F900
G01 Y90.4952 F900
G01 X395.2236 F900
G01 X398.3941 Y85.9952 F900
G01 X415.7237 F900
G00 Z15.0000 F480
G00 X420.0236 Y103.9952 F2100
G00 Z0.5000 F480
G01 Z-2.0000 F100
G01 Y108.4952 F900
G01 X395.2236 F900
G01 Y112.9952 F900
G01 X420.0236 F900
G01 Y117.4952 F900
G01 X395.2236 F900
G01 Y121.9952 F900
G01 X420.0236 F900
G01 Y126.4952 F900
G01 X395.2236 F900
G01 X399.5231 Y130.9952 F900
G01 X416.8528 F900
G01 X417.0936 Y131.5456 F900
G01 X420.5857 Y129.8320 F900
G01 X420.6235 Y129.8131 F900
G01 X420.6236 Y129.8019 F900
G01 Y88.3602 F900
G01 Y88.3468 F900
G02 X409.6463 Y81.4954 I-445.7895 J702.0176 F900
G02 X406.2020 Y81.4953 I-1.7229 J247.1612 F900
G02 X394.6238 Y87.1772 I600.4589 J1238.2277 F900
G01 X394.6236 Y87.1903 F900
G01 Y128.6312 F900
G01 X394.6237 Y128.6442 F900
G02 X405.6010 Y135.4951 I447.4637 J-704.7518 F900
G01 X405.6141 Y135.4952 F900
G01 X409.0320 F900
G01 X409.0432 Y135.4959 F900
G01 X409.0585 Y135.4886 F900
G01 X417.0936 Y131.5456 F900
G01 X416.8528 Y130.9952 F900
G01 Z-3.0000 F100
G01 X399.5231 F900
G01 X395.2236 Y126.4952 F900
G01 X420.0236 F900
G01 Y121.9952 F900
G01 X395.2236 F900
G01 Y117.4952 F900
G01 X420.0236 F900
G01 Y112.9952 F900
G01 X395.2236 F900
G01 Y108.4952 F900
G01 X420.0236 F900
G01 Y103.9952 F900
G01 X395.2236 F900
G01 Y99.4952 F900
G01 X420.0236 F900
G01 Y94.9952 F900
G01 X395.2236 F900
G01 Y90.4952 F900
G01 X420.0236 F900
G01 X415.7237 Y85.9952 F900
G01 X398.3941 F900
G01 X398.1530 Y85.4452 F900
G01 X394.6337 Y87.1723 F900
G01 X394.6238 Y87.1772 F900
G01 X394.6236 Y87.1903 F900
G01 Y128.6312 F900
G01 X394.6237 Y128.6442 F900
G02 X405.6010 Y135.4951 I447.4637 J-704.7518 F900
G01 X405.6141 Y135.4952 F900
G01 X409.0320 F900
G01 X409.0432 Y135.4959 F900
G02 X420.6235 Y129.8131 I-349.2470 J-726.3285 F900
G01 X420.6236 Y129.8019 F900
G01 Y88.3602 F900
G01 Y88.3468 F900
G02 X409.6463 Y81.4954 I-445.7895 J702.0176 F900
G02 X406.2020 Y81.4953 I-1.7229 J247.1612 F900
G01 X406.1902 Y81.5010 F900
G01 X398.1530 Y85.4452 F900
G01 X398.3941 Y85.9952 F900
G00 Z15.0000 F480


;No. 26: Ausschnitt 49
G00 X396.2236 Y92.8541 Z15.0000 F2100
G00 Z0.5000 F480
G01 Z0.0000 F100
G01 Z-2.0000 F100
G01 X418.8743 F900
G01 X418.8742 Y97.3541 F900
G01 X396.2235 F900
G01 X396.2234 Y101.8541 F900
G01 X418.8741 F900
G01 Y106.3541 F900
G01 X396.2234 F900
G01 X396.2233 Y110.8541 F900
G01 X418.8740 F900
G01 X418.8739 Y115.3541 F900
G01 X396.2232 F900
G01 X396.2231 Y119.8541 F900
G01 X418.8738 F900
G01 X418.8737 Y124.3541 F900
G01 X396.2230 F900
G01 X395.6230 Y124.3026 F900
G01 Y127.4953 F900
G01 X395.1096 Y128.0924 F900
G01 X395.6230 Y127.4953 F900
G01 X419.4737 Y127.4955 F900
G01 X419.9421 Y128.0826 F900
G01 X419.4737 Y127.4955 F900
G01 X419.4744 Y89.6453 F900
G01 X420.0685 Y89.0932 F900
G01 X419.4744 Y89.6453 F900
G01 X395.6237 Y89.6450 F900
G01 X395.3002 Y89.1526 F900
G01 X395.6237 Y89.6450 F900
G01 X395.6230 Y124.3026 F900
G01 X396.2230 Y124.3541 F900
G01 Z-4.0000 F100
G01 X418.8737 F900
G01 X418.8738 Y119.8541 F900
G01 X396.2231 F900
G01 X396.2232 Y115.3541 F900
G01 X418.8739 F900
G01 X418.8740 Y110.8541 F900
G01 X396.2233 F900
G01 X396.2234 Y106.3541 F900
G01 X418.8741 F900
G01 Y101.8541 F900
G01 X396.2234 F900
G01 X396.2235 Y97.3541 F900
G01 X418.8742 F900
G01 X418.8743 Y92.8541 F900
G01 X396.2236 F900
G01 X395.6236 Y92.9045 F900
G01 X395.6230 Y127.4953 F900
G01 X395.1096 Y128.0924 F900
G01 X395.6230 Y127.4953 F900
G01 X419.4737 Y127.4955 F900
G01 X419.9421 Y128.0826 F900
G01 X419.4737 Y127.4955 F900
G01 X419.4744 Y89.6453 F900
G01 X420.0685 Y89.0932 F900
G01 X419.4744 Y89.6453 F900
G01 X395.6237 Y89.6450 F900
G01 X395.3002 Y89.1526 F900
G01 X395.6237 Y89.6450 F900
G01 X395.6236 Y92.9045 F900
G01 X396.2236 Y92.8541 F900
G01 Z-6.0000 F100
G01 X418.8743 F900
G01 X418.8742 Y97.3541 F900
G01 X396.2235 F900
G01 X396.2234 Y101.8541 F900
G01 X418.8741 F900
G01 Y106.3541 F900
G01 X396.2234 F900
G01 X396.2233 Y110.8541 F900
G01 X418.8740 F900
G01 X418.8739 Y115.3541 F900
G01 X396.2232 F900
G01 X396.2231 Y119.8541 F900
G01 X418.8738 F900
G01 X418.8737 Y124.3541 F900
G01 X396.2230 F900
G01 X395.6230 Y124.3026 F900
G01 Y127.4953 F900
G01 X395.1096 Y128.0924 F900
G01 X395.6230 Y127.4953 F900
G01 X419.4737 Y127.4955 F900
G01 X419.9421 Y128.0826 F900
G01 X419.4737 Y127.4955 F900
G01 X419.4744 Y89.6453 F900
G01 X420.0685 Y89.0932 F900
G01 X419.4744 Y89.6453 F900
G01 X395.6237 Y89.6450 F900
G01 X395.3002 Y89.1526 F900
G01 X395.6237 Y89.6450 F900
G01 X395.6230 Y124.3026 F900
G01 X396.2230 Y124.3541 F900
G01 Z-8.0000 F100
G01 X418.8737 F900
G01 X418.8738 Y119.8541 F900
G01 X396.2231 F900
G01 X396.2232 Y115.3541 F900
G01 X418.8739 F900
G01 X418.8740 Y110.8541 F900
G01 X396.2233 F900
G01 X396.2234 Y106.3541 F900
G01 X418.8741 F900
G01 Y101.8541 F900
G01 X396.2234 F900
G01 X396.2235 Y97.3541 F900
G01 X418.8742 F900
G01 X418.8743 Y92.8541 F900
G01 X396.2236 F900
G01 X395.6236 Y92.9045 F900
G01 X395.6230 Y127.4953 F900
G01 X395.1096 Y128.0924 F900
G01 X395.6230 Y127.4953 F900
G01 X419.4737 Y127.4955 F900
G01 X419.9421 Y128.0826 F900
G01 X419.4737 Y127.4955 F900
G01 X419.4744 Y89.6453 F900
G01 X420.0685 Y89.0932 F900
G01 X419.4744 Y89.6453 F900
G01 X395.6237 Y89.6450 F900
G01 X395.3002 Y89.1526 F900
G01 X395.6237 Y89.6450 F900
G01 X395.6236 Y92.9045 F900
G01 X396.2236 Y92.8541 F900
G01 Z-10.0000 F100
G01 X418.8743 F900
G01 X418.8742 Y97.3541 F900
G01 X396.2235 F900
G01 X396.2234 Y101.8541 F900
G01 X418.8741 F900
G01 Y106.3541 F900
G01 X396.2234 F900
G01 X396.2233 Y110.8541 F900
G01 X418.8740 F900
G01 X418.8739 Y115.3541 F900
G01 X396.2232 F900
G01 X396.2231 Y119.8541 F900
G01 X418.8738 F900
G01 X418.8737 Y124.3541 F900
G01 X396.2230 F900
G01 X395.6230 Y124.3026 F900
G01 Y127.4953 F900
G01 X395.1096 Y128.0924 F900
G01 X395.6230 Y127.4953 F900
G01 X419.4737 Y127.4955 F900
G01 X419.9421 Y128.0826 F900
G01 X419.4737 Y127.4955 F900
G01 X419.4744 Y89.6453 F900
G01 X420.0685 Y89.0932 F900
G01 X419.4744 Y89.6453 F900
G01 X395.6237 Y89.6450 F900
G01 X395.3002 Y89.1526 F900
G01 X395.6237 Y89.6450 F900
G01 X395.6230 Y124.3026 F900
G01 X396.2230 Y124.3541 F900
G00 Z15.0000 F480


;No. 27: Ausschnitt 12
G00 X402.1428 Y58.5595 Z15.0000 F2100
G00 Z0.5000 F480
G01 Z0.0000 F100
G01 Z-2.0000 F100
G02 X409.2367 Y63.5267 I4.9809 J0.4358 F900
G02 X409.9915 Y54.8996 I-2.1130 J-4.5314 F900
G02 X402.1428 Y58.5595 I-2.8678 J4.0957 F900
G01 Z-4.0000 F100
G02 X409.2367 Y63.5267 I4.9809 J0.4358 F900
G02 X409.9915 Y54.8996 I-2.1130 J-4.5314 F900
G02 X402.1428 Y58.5595 I-2.8678 J4.0957 F900
G01 Z-5.0000 F100
G02 X409.2367 Y63.5267 I4.9809 J0.4358 F900
G02 X409.9915 Y54.8996 I-2.1130 J-4.5314 F900
G02 X402.1428 Y58.5595 I-2.8678 J4.0957 F900
G00 Z15.0000 F480


;No. 28: Ausschnitt 38
G00 X404.1352 Y58.7338 Z15.0000 F2100
G00 Z0.5000 F480
G01 Z0.0000 F100
G01 Z-2.0000 F100
G02 X408.3914 Y61.7141 I2.9885 J0.2615 F900
G02 X408.8443 Y56.5379 I-1.2678 J-2.7188 F900
G02 X404.1352 Y58.7338 I-1.7207 J2.4574 F900
G01 Z-4.0000 F100
G02 X408.3914 Y61.7141 I2.9885 J0.2615 F900
G02 X408.8443 Y56.5379 I-1.2678 J-2.7188 F900
G02 X404.1352 Y58.7338 I-1.7207 J2.4574 F900
G01 Z-6.0000 F100
G02 X408.3914 Y61.7141 I2.9885 J0.2615 F900
G02 X408.8443 Y56.5379 I-1.2678 J-2.7188 F900
G02 X404.1352 Y58.7338 I-1.7207 J2.4574 F900
G01 Z-8.0000 F100
G02 X408.3914 Y61.7141 I2.9885 J0.2615 F900
G02 X408.8443 Y56.5379 I-1.2678 J-2.7188 F900
G02 X404.1352 Y58.7338 I-1.7207 J2.4574 F900
G01 Z-10.0000 F100
G02 X408.3914 Y61.7141 I2.9885 J0.2615 F900
G02 X408.8443 Y56.5379 I-1.2678 J-2.7188 F900
G02 X404.1352 Y58.7338 I-1.7207 J2.4574 F900
G00 Z15.0000 F480


;No. 29: Ausschnitt 39
G00 X373.1159 Y61.7485 Z15.0000 F2100
G00 Z0.5000 F480
G01 Z0.0000 F100
G01 Z-2.0000 F100
G01 X361.1314 F900
G01 X361.1338 Y66.2485 F900
G01 X373.1135 F900
G01 X373.6799 Y66.4467 F900
G02 X370.7288 Y57.9952 I-6.5558 J-2.4518 F900
G01 X370.7509 Y57.9104 F900
G01 X370.7288 Y57.9952 F900
G01 X370.7428 Y58.0034 F900
G01 X370.7225 Y57.9952 F900
G01 X363.5184 F900
G01 X363.5012 Y57.9415 F900
G01 X363.5184 Y57.9952 F900
G02 Y69.9953 I3.6052 J6.0001 F900
G01 X363.4963 Y70.0801 F900
G01 X363.5184 Y69.9953 F900
G01 X363.5045 Y69.9871 F900
G01 X363.5247 Y69.9952 F900
G01 X370.7288 Y69.9953 F900
G01 X370.7515 Y70.0857 F900
G01 X370.7288 Y69.9953 F900
G02 X373.6799 Y66.4467 I-3.6036 J-5.9982 F900
G01 X373.1135 Y66.2485 F900
G01 Z-4.0000 F100
G01 X361.1338 F900
G01 X361.1314 Y61.7485 F900
G01 X373.1159 F900
G01 X373.6800 Y61.5439 F900
G02 X370.7288 Y57.9952 I-6.5548 J2.4496 F900
G01 X370.7509 Y57.9104 F900
G01 X370.7288 Y57.9952 F900
G01 X370.7428 Y58.0034 F900
G01 X370.7225 Y57.9952 F900
G01 X363.5184 F900
G01 X363.5012 Y57.9415 F900
G01 X363.5184 Y57.9952 F900
G02 Y69.9953 I3.6052 J6.0001 F900
G01 X363.4963 Y70.0801 F900
G01 X363.5184 Y69.9953 F900
G01 X363.5045 Y69.9871 F900
G01 X363.5247 Y69.9952 F900
G01 X370.7288 Y69.9953 F900
G01 X370.7515 Y70.0857 F900
G01 X370.7288 Y69.9953 F900
G02 X373.6800 Y61.5439 I-3.6047 J-5.9997 F900
G01 X373.1159 Y61.7485 F900
G01 Z-6.0000 F100
G01 X361.1314 F900
G01 X361.1338 Y66.2485 F900
G01 X373.1135 F900
G01 X373.6799 Y66.4467 F900
G02 X370.7288 Y57.9952 I-6.5558 J-2.4518 F900
G01 X370.7509 Y57.9104 F900
G01 X370.7288 Y57.9952 F900
G01 X370.7428 Y58.0034 F900
G01 X370.7225 Y57.9952 F900
G01 X363.5184 F900
G01 X363.5012 Y57.9415 F900
G01 X363.5184 Y57.9952 F900
G02 Y69.9953 I3.6052 J6.0001 F900
G01 X363.4963 Y70.0801 F900
G01 X363.5184 Y69.9953 F900
G01 X363.5045 Y69.9871 F900
G01 X363.5247 Y69.9952 F900
G01 X370.7288 Y69.9953 F900
G01 X370.7515 Y70.0857 F900
G01 X370.7288 Y69.9953 F900
G02 X373.6799 Y66.4467 I-3.6036 J-5.9982 F900
G01 X373.1135 Y66.2485 F900
G01 Z-8.0000 F100
G01 X361.1338 F900
G01 X361.1314 Y61.7485 F900
G01 X373.1159 F900
G01 X373.6800 Y61.5439 F900
G02 X370.7288 Y57.9952 I-6.5548 J2.4496 F900
G01 X370.7509 Y57.9104 F900
G01 X370.7288 Y57.9952 F900
G01 X370.7428 Y58.0034 F900
G01 X370.7225 Y57.9952 F900
G01 X363.5184 F900
G01 X363.5012 Y57.9415 F900
G01 X363.5184 Y57.9952 F900
G02 Y69.9953 I3.6052 J6.0001 F900
G01 X363.4963 Y70.0801 F900
G01 X363.5184 Y69.9953 F900
G01 X363.5045 Y69.9871 F900
G01 X363.5247 Y69.9952 F900
G01 X370.7288 Y69.9953 F900
G01 X370.7515 Y70.0857 F900
G01 X370.7288 Y69.9953 F900
G02 X373.6800 Y61.5439 I-3.6047 J-5.9997 F900
G01 X373.1159 Y61.7485 F900
G01 Z-10.0000 F100
G01 X361.1314 F900
G01 X361.1338 Y66.2485 F900
G01 X373.1135 F900
G01 X373.6799 Y66.4467 F900
G02 X370.7288 Y57.9952 I-6.5558 J-2.4518 F900
G01 X370.7509 Y57.9104 F900
G01 X370.7288 Y57.9952 F900
G01 X370.7428 Y58.0034 F900
G01 X370.7225 Y57.9952 F900
G01 X363.5184 F900
G01 X363.5012 Y57.9415 F900
G01 X363.5184 Y57.9952 F900
G02 Y69.9953 I3.6052 J6.0001 F900
G01 X363.4963 Y70.0801 F900
G01 X363.5184 Y69.9953 F900
G01 X363.5045 Y69.9871 F900
G01 X363.5247 Y69.9952 F900
G01 X370.7288 Y69.9953 F900
G01 X370.7515 Y70.0857 F900
G01 X370.7288 Y69.9953 F900
G02 X373.6799 Y66.4467 I-3.6036 J-5.9982 F900
G01 X373.1135 Y66.2485 F900
G00 Z15.0000 F480


;No. 30: Ausschnitt 13
G00 X358.1731 Y63.0545 Z15.0000 F2100
G00 Z0.5000 F480
G01 Z0.0000 F100
G01 Z-2.0000 F100
G02 X370.7842 Y72.2171 I8.9506 J0.9407 F900
G02 X372.4136 Y56.7142 I-3.6606 J-8.2218 F900
G02 X358.1731 Y63.0545 I-5.2900 J7.2811 F900
G01 Z-4.0000 F100
G02 X370.7842 Y72.2171 I8.9506 J0.9407 F900
G02 X372.4136 Y56.7142 I-3.6606 J-8.2218 F900
G02 X358.1731 Y63.0545 I-5.2900 J7.2811 F900
G01 Z-5.0000 F100
G02 X370.7842 Y72.2171 I8.9506 J0.9407 F900
G02 X372.4136 Y56.7142 I-3.6606 J-8.2218 F900
G02 X358.1731 Y63.0545 I-5.2900 J7.2811 F900
G00 Z15.0000 F480


;No. 31: Ausschnitt 40
G00 X343.1168 Y61.7508 Z15.0000 F2100
G00 Z0.5000 F480
G01 Z0.0000 F100
G01 Z-2.0000 F100
G01 X331.1305 F900
G01 X331.1346 Y66.2508 F900
G01 X343.1126 F900
G01 X343.6799 Y66.4467 F900
G02 X340.7321 Y57.9972 I-6.5557 J-2.4519 F900
G01 X340.7496 Y57.9426 F900
G01 X340.7321 Y57.9972 F900
G01 X340.7428 Y58.0034 F900
G01 X340.7268 Y57.9963 F900
G01 X333.5041 Y58.0063 F900
G01 X333.4807 Y57.9144 F900
G01 X333.5041 Y58.0063 F900
G02 X333.5184 Y69.9954 I3.6175 J5.9902 F900
G01 X333.4957 Y70.0857 F900
G01 X333.5184 Y69.9954 F900
G01 X333.5045 Y69.9871 F900
G01 X333.5246 Y69.9952 F900
G01 X340.7288 Y69.9953 F900
G01 X340.7516 Y70.0857 F900
G01 X340.7288 Y69.9953 F900
G02 X343.6799 Y66.4467 I-3.6036 J-5.9982 F900
G01 X343.1126 Y66.2508 F900
G01 Z-4.0000 F100
G01 X331.1346 F900
G01 X331.1305 Y61.7508 F900
G01 X343.1168 F900
G01 X343.6800 Y61.5439 F900
G02 X340.7321 Y57.9972 I-6.5545 J2.4494 F900
G01 X340.7496 Y57.9426 F900
G01 X340.7321 Y57.9972 F900
G01 X340.7428 Y58.0034 F900
G01 X340.7268 Y57.9963 F900
G01 X333.5041 Y58.0063 F900
G01 X333.4807 Y57.9144 F900
G01 X333.5041 Y58.0063 F900
G02 X333.5184 Y69.9954 I3.6175 J5.9902 F900
G01 X333.4957 Y70.0857 F900
G01 X333.5184 Y69.9954 F900
G01 X333.5045 Y69.9871 F900
G01 X333.5246 Y69.9952 F900
G01 X340.7288 Y69.9953 F900
G01 X340.7516 Y70.0857 F900
G01 X340.7288 Y69.9953 F900
G02 X343.6800 Y61.5439 I-3.6047 J-5.9997 F900
G01 X343.1168 Y61.7508 F900
G01 Z-6.0000 F100
G01 X331.1305 F900
G01 X331.1346 Y66.2508 F900
G01 X343.1126 F900
G01 X343.6799 Y66.4467 F900
G02 X340.7321 Y57.9972 I-6.5557 J-2.4519 F900
G01 X340.7496 Y57.9426 F900
G01 X340.7321 Y57.9972 F900
G01 X340.7428 Y58.0034 F900
G01 X340.7268 Y57.9963 F900
G01 X333.5041 Y58.0063 F900
G01 X333.4807 Y57.9144 F900
G01 X333.5041 Y58.0063 F900
G02 X333.5184 Y69.9954 I3.6175 J5.9902 F900
G01 X333.4957 Y70.0857 F900
G01 X333.5184 Y69.9954 F900
G01 X333.5045 Y69.9871 F900
G01 X333.5246 Y69.9952 F900
G01 X340.7288 Y69.9953 F900
G01 X340.7516 Y70.0857 F900
G01 X340.7288 Y69.9953 F900
G02 X343.6799 Y66.4467 I-3.6036 J-5.9982 F900
G01 X343.1126 Y66.2508 F900
G01 Z-8.0000 F100
G01 X331.1346 F900
G01 X331.1305 Y61.7508 F900
G01 X343.1168 F900
G01 X343.6800 Y61.5439 F900
G02 X340.7321 Y57.9972 I-6.5545 J2.4494 F900
G01 X340.7496 Y57.9426 F900
G01 X340.7321 Y57.9972 F900
G01 X340.7428 Y58.0034 F900
G01 X340.7268 Y57.9963 F900
G01 X333.5041 Y58.0063 F900
G01 X333.4807 Y57.9144 F900
G01 X333.5041 Y58.0063 F900
G02 X333.5184 Y69.9954 I3.6175 J5.9902 F900
G01 X333.4957 Y70.0857 F900
G01 X333.5184 Y69.9954 F900
G01 X333.5045 Y69.9871 F900
G01 X333.5246 Y69.9952 F900
G01 X340.7288 Y69.9953 F900
G01 X340.7516 Y70.0857 F900
G01 X340.7288 Y69.9953 F900
G02 X343.6800 Y61.5439 I-3.6047 J-5.9997 F900
G01 X343.1168 Y61.7508 F900
G01 Z-10.0000 F100
G01 X331.1305 F900
G01 X331.1346 Y66.2508 F900
G01 X343.1126 F900
G01 X343.6799 Y66.4467 F900
G02 X340.7321 Y57.9972 I-6.5557 J-2.4519 F900
G01 X340.7496 Y57.9426 F900
G01 X340.7321 Y57.9972 F900
G01 X340.7428 Y58.0034 F900
G01 X340.7268 Y57.9963 F900
G01 X333.5041 Y58.0063 F900
G01 X333.4807 Y57.9144 F900
G01 X333.5041 Y58.0063 F900
G02 X333.5184 Y69.9954 I3.6175 J5.9902 F900
G01 X333.4957 Y70.0857 F900
G01 X333.5184 Y69.9954 F900
G01 X333.5045 Y69.9871 F900
G01 X333.5246 Y69.9952 F900
G01 X340.7288 Y69.9953 F900
G01 X340.7516 Y70.0857 F900
G01 X340.7288 Y69.9953 F900
G02 X343.6799 Y66.4467 I-3.6036 J-5.9982 F900
G01 X343.1126 Y66.2508 F900
G00 Z15.0000 F480


;No. 32: Ausschnitt 14
G00 X328.1731 Y63.0545 Z15.0000 F2100
G00 Z0.5000 F480
G01 Z0.0000 F100
G01 Z-2.0000 F100
G02 X340.7842 Y72.2171 I8.9506 J0.9407 F900
G02 X342.4136 Y56.7142 I-3.6606 J-8.2218 F900
G02 X328.1731 Y63.0545 I-5.2900 J7.2811 F900
G01 Z-4.0000 F100
G02 X340.7842 Y72.2171 I8.9506 J0.9407 F900
G02 X342.4136 Y56.7142 I-3.6606 J-8.2218 F900
G02 X328.1731 Y63.0545 I-5.2900 J7.2811 F900
G01 Z-5.0000 F100
G02 X340.7842 Y72.2171 I8.9506 J0.9407 F900
G02 X342.4136 Y56.7142 I-3.6606 J-8.2218 F900
G02 X328.1731 Y63.0545 I-5.2900 J7.2811 F900
G00 Z15.0000 F480


;No. 33: Ausschnitt 41
G00 X303.1147 Y61.7452 Z15.0000 F2100
G00 Z0.5000 F480
G01 Z0.0000 F100
G01 Z-2.0000 F100
G01 X291.1326 F900
G01 Y66.2452 F900
G01 X303.1147 F900
G01 X303.6800 Y66.4467 F900
G02 X300.7288 Y57.9952 I-6.5558 J-2.4518 F900
G01 X300.7461 Y57.9415 F900
G01 X300.7288 Y57.9952 F900
G01 X300.7428 Y58.0034 F900
G01 X300.7226 Y57.9952 F900
G01 X293.5246 F900
G01 X293.5014 Y57.9034 F900
G01 X293.5246 Y57.9952 F900
G02 X293.5184 Y69.9954 I3.5958 J6.0019 F900
G01 X293.4957 Y70.0857 F900
G01 X293.5184 Y69.9954 F900
G01 X293.5045 Y69.9871 F900
G01 X293.5246 Y69.9952 F900
G01 X300.7288 Y69.9953 F900
G01 X300.7516 Y70.0857 F900
G01 X300.7288 Y69.9953 F900
G02 X303.6800 Y66.4467 I-3.6036 J-5.9982 F900
G01 X303.1147 Y66.2452 F900
G01 Z-4.0000 F100
G01 X291.1326 F900
G01 Y61.7452 F900
G01 X303.1147 F900
G01 X303.6800 Y61.5438 F900
G02 X300.7288 Y57.9952 I-6.5548 J2.4496 F900
G01 X300.7461 Y57.9415 F900
G01 X300.7288 Y57.9952 F900
G01 X300.7428 Y58.0034 F900
G01 X300.7226 Y57.9952 F900
G01 X293.5246 F900
G01 X293.5014 Y57.9034 F900
G01 X293.5246 Y57.9952 F900
G02 X293.5184 Y69.9954 I3.5958 J6.0019 F900
G01 X293.4957 Y70.0857 F900
G01 X293.5184 Y69.9954 F900
G01 X293.5045 Y69.9871 F900
G01 X293.5246 Y69.9952 F900
G01 X300.7288 Y69.9953 F900
G01 X300.7516 Y70.0857 F900
G01 X300.7288 Y69.9953 F900
G02 X303.6800 Y61.5438 I-3.6047 J-5.9997 F900
G01 X303.1147 Y61.7452 F900
G01 Z-6.0000 F100
G01 X291.1326 F900
G01 Y66.2452 F900
G01 X303.1147 F900
G01 X303.6800 Y66.4467 F900
G02 X300.7288 Y57.9952 I-6.5558 J-2.4518 F900
G01 X300.7461 Y57.9415 F900
G01 X300.7288 Y57.9952 F900
G01 X300.7428 Y58.0034 F900
G01 X300.7226 Y57.9952 F900
G01 X293.5246 F900
G01 X293.5014 Y57.9034 F900
G01 X293.5246 Y57.9952 F900
G02 X293.5184 Y69.9954 I3.5958 J6.0019 F900
G01 X293.4957 Y70.0857 F900
G01 X293.5184 Y69.9954 F900
G01 X293.5045 Y69.9871 F900
G01 X293.5246 Y69.9952 F900
G01 X300.7288 Y69.9953 F900
G01 X300.7516 Y70.0857 F900
G01 X300.7288 Y69.9953 F900
G02 X303.6800 Y66.4467 I-3.6036 J-5.9982 F900
G01 X303.1147 Y66.2452 F900
G01 Z-8.0000 F100
G01 X291.1326 F900
G01 Y61.7452 F900
G01 X303.1147 F900
G01 X303.6800 Y61.5438 F900
G02 X300.7288 Y57.9952 I-6.5548 J2.4496 F900
G01 X300.7461 Y57.9415 F900
G01 X300.7288 Y57.9952 F900
G01 X300.7428 Y58.0034 F900
G01 X300.7226 Y57.9952 F900
G01 X293.5246 F900
G01 X293.5014 Y57.9034 F900
G01 X293.5246 Y57.9952 F900
G02 X293.5184 Y69.9954 I3.5958 J6.0019 F900
G01 X293.4957 Y70.0857 F900
G01 X293.5184 Y69.9954 F900
G01 X293.5045 Y69.9871 F900
G01 X293.5246 Y69.9952 F900
G01 X300.7288 Y69.9953 F900
G01 X300.7516 Y70.0857 F900
G01 X300.7288 Y69.9953 F900
G02 X303.6800 Y61.5438 I-3.6047 J-5.9997 F900
G01 X303.1147 Y61.7452 F900
G01 Z-10.0000 F100
G01 X291.1326 F900
G01 Y66.2452 F900
G01 X303.1147 F900
G01 X303.6800 Y66.4467 F900
G02 X300.7288 Y57.9952 I-6.5558 J-2.4518 F900
G01 X300.7461 Y57.9415 F900
G01 X300.7288 Y57.9952 F900
G01 X300.7428 Y58.0034 F900
G01 X300.7226 Y57.9952 F900
G01 X293.5246 F900
G01 X293.5014 Y57.9034 F900
G01 X293.5246 Y57.9952 F900
G02 X293.5184 Y69.9954 I3.5958 J6.0019 F900
G01 X293.4957 Y70.0857 F900
G01 X293.5184 Y69.9954 F900
G01 X293.5045 Y69.9871 F900
G01 X293.5246 Y69.9952 F900
G01 X300.7288 Y69.9953 F900
G01 X300.7516 Y70.0857 F900
G01 X300.7288 Y69.9953 F900
G02 X303.6800 Y66.4467 I-3.6036 J-5.9982 F900
G01 X303.1147 Y66.2452 F900
G00 Z15.0000 F480


;No. 34: Ausschnitt 15
G00 X288.1908 Y62.8984 Z15.0000 F2100
G00 Z0.5000 F480
G01 Z0.0000 F100
G01 Z-2.0000 F100
G02 X300.6402 Y72.2797 I8.9328 J1.0968 F900
G02 X302.5399 Y56.8076 I-3.5165 J-8.2844 F900
G02 X288.1908 Y62.8984 I-5.4163 J7.1876 F900
G01 Z-4.0000 F100
G02 X300.6402 Y72.2797 I8.9328 J1.0968 F900
G02 X302.5399 Y56.8076 I-3.5165 J-8.2844 F900
G02 X288.1908 Y62.8984 I-5.4163 J7.1876 F900
G01 Z-5.0000 F100
G02 X300.6402 Y72.2797 I8.9328 J1.0968 F900
G02 X302.5399 Y56.8076 I-3.5165 J-8.2844 F900
G02 X288.1908 Y62.8984 I-5.4163 J7.1876 F900
G00 Z15.0000 F480


;No. 35: Ausschnitt 42
G00 X273.1147 Y61.7452 Z15.0000 F2100
G00 Z0.5000 F480
G01 Z0.0000 F100
G01 Z-2.0000 F100
G01 X261.1326 F900
G01 Y66.2452 F900
G01 X273.1147 F900
G01 X273.6800 Y66.4467 F900
G02 X270.7288 Y57.9952 I-6.5558 J-2.4518 F900
G01 X270.7516 Y57.9048 F900
G01 X270.7288 Y57.9952 F900
G01 X270.7428 Y58.0034 F900
G01 X270.7226 Y57.9952 F900
G01 X263.5246 F900
G01 X263.5058 Y57.9353 F900
G01 X263.5246 Y57.9952 F900
G02 X263.5184 Y69.9954 I3.5958 J6.0019 F900
G01 X263.5011 Y70.0491 F900
G01 X263.5184 Y69.9954 F900
G01 X263.5045 Y69.9871 F900
G01 X263.5246 Y69.9952 F900
G01 X270.7288 Y69.9953 F900
G01 X270.7516 Y70.0857 F900
G01 X270.7288 Y69.9953 F900
G02 X273.6800 Y66.4467 I-3.6036 J-5.9982 F900
G01 X273.1147 Y66.2452 F900
G01 Z-4.0000 F100
G01 X261.1326 F900
G01 Y61.7452 F900
G01 X273.1147 F900
G01 X273.6800 Y61.5438 F900
G02 X270.7288 Y57.9952 I-6.5548 J2.4496 F900
G01 X270.7516 Y57.9048 F900
G01 X270.7288 Y57.9952 F900
G01 X270.7428 Y58.0034 F900
G01 X270.7226 Y57.9952 F900
G01 X263.5246 F900
G01 X263.5058 Y57.9353 F900
G01 X263.5246 Y57.9952 F900
G02 X263.5184 Y69.9954 I3.5958 J6.0019 F900
G01 X263.5011 Y70.0491 F900
G01 X263.5184 Y69.9954 F900
G01 X263.5045 Y69.9871 F900
G01 X263.5246 Y69.9952 F900
G01 X270.7288 Y69.9953 F900
G01 X270.7516 Y70.0857 F900
G01 X270.7288 Y69.9953 F900
G02 X273.6800 Y61.5438 I-3.6047 J-5.9997 F900
G01 X273.1147 Y61.7452 F900
G01 Z-6.0000 F100
G01 X261.1326 F900
G01 Y66.2452 F900
G01 X273.1147 F900
G01 X273.6800 Y66.4467 F900
G02 X270.7288 Y57.9952 I-6.5558 J-2.4518 F900
G01 X270.7516 Y57.9048 F900
G01 X270.7288 Y57.9952 F900
G01 X270.7428 Y58.0034 F900
G01 X270.7226 Y57.9952 F900
G01 X263.5246 F900
G01 X263.5058 Y57.9353 F900
G01 X263.5246 Y57.9952 F900
G02 X263.5184 Y69.9954 I3.5958 J6.0019 F900
G01 X263.5011 Y70.0491 F900
G01 X263.5184 Y69.9954 F900
G01 X263.5045 Y69.9871 F900
G01 X263.5246 Y69.9952 F900
G01 X270.7288 Y69.9953 F900
G01 X270.7516 Y70.0857 F900
G01 X270.7288 Y69.9953 F900
G02 X273.6800 Y66.4467 I-3.6036 J-5.9982 F900
G01 X273.1147 Y66.2452 F900
G01 Z-8.0000 F100
G01 X261.1326 F900
G01 Y61.7452 F900
G01 X273.1147 F900
G01 X273.6800 Y61.5438 F900
G02 X270.7288 Y57.9952 I-6.5548 J2.4496 F900
G01 X270.7516 Y57.9048 F900
G01 X270.7288 Y57.9952 F900
G01 X270.7428 Y58.0034 F900
G01 X270.7226 Y57.9952 F900
G01 X263.5246 F900
G01 X263.5058 Y57.9353 F900
G01 X263.5246 Y57.9952 F900
G02 X263.5184 Y69.9954 I3.5958 J6.0019 F900
G01 X263.5011 Y70.0491 F900
G01 X263.5184 Y69.9954 F900
G01 X263.5045 Y69.9871 F900
G01 X263.5246 Y69.9952 F900
G01 X270.7288 Y69.9953 F900
G01 X270.7516 Y70.0857 F900
G01 X270.7288 Y69.9953 F900
G02 X273.6800 Y61.5438 I-3.6047 J-5.9997 F900
G01 X273.1147 Y61.7452 F900
G01 Z-10.0000 F100
G01 X261.1326 F900
G01 Y66.2452 F900
G01 X273.1147 F900
G01 X273.6800 Y66.4467 F900
G02 X270.7288 Y57.9952 I-6.5558 J-2.4518 F900
G01 X270.7516 Y57.9048 F900
G01 X270.7288 Y57.9952 F900
G01 X270.7428 Y58.0034 F900
G01 X270.7226 Y57.9952 F900
G01 X263.5246 F900
G01 X263.5058 Y57.9353 F900
G01 X263.5246 Y57.9952 F900
G02 X263.5184 Y69.9954 I3.5958 J6.0019 F900
G01 X263.5011 Y70.0491 F900
G01 X263.5184 Y69.9954 F900
G01 X263.5045 Y69.9871 F900
G01 X263.5246 Y69.9952 F900
G01 X270.7288 Y69.9953 F900
G01 X270.7516 Y70.0857 F900
G01 X270.7288 Y69.9953 F900
G02 X273.6800 Y66.4467 I-3.6036 J-5.9982 F900
G01 X273.1147 Y66.2452 F900
G00 Z15.0000 F480


;No. 36: Ausschnitt 16
G00 X258.2113 Y62.7427 Z15.0000 F2100
G00 Z0.5000 F480
G01 Z0.0000 F100
G01 Z-2.0000 F100
G02 X270.4951 Y72.3398 I8.9123 J1.2525 F900
G02 X272.6645 Y56.9032 I-3.3714 J-8.3445 F900
G02 X258.2113 Y62.7427 I-5.5409 J7.0920 F900
G01 Z-4.0000 F100
G02 X270.4951 Y72.3398 I8.9123 J1.2525 F900
G02 X272.6645 Y56.9032 I-3.3714 J-8.3445 F900
G02 X258.2113 Y62.7427 I-5.5409 J7.0920 F900
G01 Z-5.0000 F100
G02 X270.4951 Y72.3398 I8.9123 J1.2525 F900
G02 X272.6645 Y56.9032 I-3.3714 J-8.3445 F900
G02 X258.2113 Y62.7427 I-5.5409 J7.0920 F900
G00 Z15.0000 F480


;No. 37: Ausschnitt 43
G00 X233.1149 Y61.7458 Z15.0000 F2100
G00 Z0.5000 F480
G01 Z0.0000 F100
G01 Z-2.0000 F100
G01 X221.1324 F900
G01 X221.1328 Y66.2458 F900
G01 X233.1145 F900
G01 X233.6800 Y66.4467 F900
G02 X230.7432 Y58.0063 I-6.5511 J-2.4517 F900
G01 X230.7666 Y57.9144 F900
G01 X230.7432 Y58.0063 F900
G01 X223.5205 Y57.9963 F900
G01 X223.4974 Y57.9044 F900
G01 X223.5205 Y57.9963 F900
G02 X223.5184 Y69.9954 I3.6011 J6.0002 F900
G01 X223.4957 Y70.0857 F900
G01 X223.5184 Y69.9954 F900
G01 X223.5045 Y69.9871 F900
G01 X223.5246 Y69.9952 F900
G01 X230.7288 Y69.9953 F900
G01 X230.7516 Y70.0857 F900
G01 X230.7288 Y69.9953 F900
G02 X233.6800 Y66.4467 I-3.6036 J-5.9982 F900
G01 X233.1145 Y66.2458 F900
G01 Z-4.0000 F100
G01 X221.1328 F900
G01 X221.1324 Y61.7458 F900
G01 X233.1149 F900
G01 X233.6800 Y61.5438 F900
G02 X230.7432 Y58.0063 I-6.5381 J2.4399 F900
G01 X230.7666 Y57.9144 F900
G01 X230.7432 Y58.0063 F900
G01 X223.5205 Y57.9963 F900
G01 X223.4974 Y57.9044 F900
G01 X223.5205 Y57.9963 F900
G02 X223.5184 Y69.9954 I3.6011 J6.0002 F900
G01 X223.4957 Y70.0857 F900
G01 X223.5184 Y69.9954 F900
G01 X223.5045 Y69.9871 F900
G01 X223.5246 Y69.9952 F900
G01 X230.7288 Y69.9953 F900
G01 X230.7516 Y70.0857 F900
G01 X230.7288 Y69.9953 F900
G02 X233.6800 Y61.5438 I-3.6047 J-5.9997 F900
G01 X233.1149 Y61.7458 F900
G01 Z-6.0000 F100
G01 X221.1324 F900
G01 X221.1328 Y66.2458 F900
G01 X233.1145 F900
G01 X233.6800 Y66.4467 F900
G02 X230.7432 Y58.0063 I-6.5511 J-2.4517 F900
G01 X230.7666 Y57.9144 F900
G01 X230.7432 Y58.0063 F900
G01 X223.5205 Y57.9963 F900
G01 X223.4974 Y57.9044 F900
G01 X223.5205 Y57.9963 F900
G02 X223.5184 Y69.9954 I3.6011 J6.0002 F900
G01 X223.4957 Y70.0857 F900
G01 X223.5184 Y69.9954 F900
G01 X223.5045 Y69.9871 F900
G01 X223.5246 Y69.9952 F900
G01 X230.7288 Y69.9953 F900
G01 X230.7516 Y70.0857 F900
G01 X230.7288 Y69.9953 F900
G02 X233.6800 Y66.4467 I-3.6036 J-5.9982 F900
G01 X233.1145 Y66.2458 F900
G01 Z-8.0000 F100
G01 X221.1328 F900
G01 X221.1324 Y61.7458 F900
G01 X233.1149 F900
G01 X233.6800 Y61.5438 F900
G02 X230.7432 Y58.0063 I-6.5381 J2.4399 F900
G01 X230.7666 Y57.9144 F900
G01 X230.7432 Y58.0063 F900
G01 X223.5205 Y57.9963 F900
G01 X223.4974 Y57.9044 F900
G01 X223.5205 Y57.9963 F900
G02 X223.5184 Y69.9954 I3.6011 J6.0002 F900
G01 X223.4957 Y70.0857 F900
G01 X223.5184 Y69.9954 F900
G01 X223.5045 Y69.9871 F900
G01 X223.5246 Y69.9952 F900
G01 X230.7288 Y69.9953 F900
G01 X230.7516 Y70.0857 F900
G01 X230.7288 Y69.9953 F900
G02 X233.6800 Y61.5438 I-3.6047 J-5.9997 F900
G01 X233.1149 Y61.7458 F900
G01 Z-10.0000 F100
G01 X221.1324 F900
G01 X221.1328 Y66.2458 F900
G01 X233.1145 F900
G01 X233.6800 Y66.4467 F900
G02 X230.7432 Y58.0063 I-6.5511 J-2.4517 F900
G01 X230.7666 Y57.9144 F900
G01 X230.7432 Y58.0063 F900
G01 X223.5205 Y57.9963 F900
G01 X223.4974 Y57.9044 F900
G01 X223.5205 Y57.9963 F900
G02 X223.5184 Y69.9954 I3.6011 J6.0002 F900
G01 X223.4957 Y70.0857 F900
G01 X223.5184 Y69.9954 F900
G01 X223.5045 Y69.9871 F900
G01 X223.5246 Y69.9952 F900
G01 X230.7288 Y69.9953 F900
G01 X230.7516 Y70.0857 F900
G01 X230.7288 Y69.9953 F900
G02 X233.6800 Y66.4467 I-3.6036 J-5.9982 F900
G01 X233.1145 Y66.2458 F900
G00 Z15.0000 F480


;No. 38: Ausschnitt 17
G00 X218.2605 Y62.4324 Z15.0000 F2100
G00 Z0.5000 F480
G01 Z0.0000 F100
G01 Z-2.0000 F100
G02 X230.2018 Y72.4524 I8.8632 J1.5628 F900
G02 X232.9087 Y57.1009 I-3.0781 J-8.4571 F900
G02 X218.2605 Y62.4324 I-5.7850 J6.8943 F900
G01 Z-4.0000 F100
G02 X230.2018 Y72.4524 I8.8632 J1.5628 F900
G02 X232.9087 Y57.1009 I-3.0781 J-8.4571 F900
G02 X218.2605 Y62.4324 I-5.7850 J6.8943 F900
G01 Z-5.0000 F100
G02 X230.2018 Y72.4524 I8.8632 J1.5628 F900
G02 X232.9087 Y57.1009 I-3.0781 J-8.4571 F900
G02 X218.2605 Y62.4324 I-5.7850 J6.8943 F900
G00 Z15.0000 F480


;No. 39: Ausschnitt 44
G00 X203.1137 Y61.7425 Z15.0000 F2100
G00 Z0.5000 F480
G01 Z0.0000 F100
G01 Z-2.0000 F100
G01 X191.1336 F900
G01 X191.1316 Y66.2425 F900
G01 X203.1157 F900
G01 X203.6800 Y66.4466 F900
G02 X200.7640 Y58.0173 I-6.5540 J-2.4517 F900
G01 X200.7875 Y57.9255 F900
G01 X200.7640 Y58.0173 F900
G01 X193.5164 Y57.9973 F900
G01 X193.4933 Y57.9054 F900
G01 X193.5164 Y57.9973 F900
G02 X193.5152 Y69.9933 I3.6064 J5.9984 F900
G01 X193.4929 Y70.0792 F900
G01 X193.5152 Y69.9933 F900
G01 X193.5045 Y69.9871 F900
G01 X193.5205 Y69.9942 F900
G01 X200.7432 Y69.9842 F900
G01 X200.7666 Y70.0761 F900
G01 X200.7432 Y69.9842 F900
G02 X203.6800 Y66.4466 I-3.6020 J-5.9780 F900
G01 X203.1157 Y66.2425 F900
G01 Z-4.0000 F100
G01 X191.1316 F900
G01 X191.1336 Y61.7425 F900
G01 X203.1137 F900
G01 X203.6799 Y61.5438 F900
G02 X200.7640 Y58.0173 I-6.5484 J2.4459 F900
G01 X200.7875 Y57.9255 F900
G01 X200.7640 Y58.0173 F900
G01 X193.5164 Y57.9973 F900
G01 X193.4933 Y57.9054 F900
G01 X193.5164 Y57.9973 F900
G02 X193.5152 Y69.9933 I3.6064 J5.9984 F900
G01 X193.4929 Y70.0792 F900
G01 X193.5152 Y69.9933 F900
G01 X193.5045 Y69.9871 F900
G01 X193.5205 Y69.9942 F900
G01 X200.7432 Y69.9842 F900
G01 X200.7666 Y70.0761 F900
G01 X200.7432 Y69.9842 F900
G02 X203.6799 Y61.5438 I-3.6143 J-5.9887 F900
G01 X203.1137 Y61.7425 F900
G01 Z-6.0000 F100
G01 X191.1336 F900
G01 X191.1316 Y66.2425 F900
G01 X203.1157 F900
G01 X203.6800 Y66.4466 F900
G02 X200.7640 Y58.0173 I-6.5540 J-2.4517 F900
G01 X200.7875 Y57.9255 F900
G01 X200.7640 Y58.0173 F900
G01 X193.5164 Y57.9973 F900
G01 X193.4933 Y57.9054 F900
G01 X193.5164 Y57.9973 F900
G02 X193.5152 Y69.9933 I3.6064 J5.9984 F900
G01 X193.4929 Y70.0792 F900
G01 X193.5152 Y69.9933 F900
G01 X193.5045 Y69.9871 F900
G01 X193.5205 Y69.9942 F900
G01 X200.7432 Y69.9842 F900
G01 X200.7666 Y70.0761 F900
G01 X200.7432 Y69.9842 F900
G02 X203.6800 Y66.4466 I-3.6020 J-5.9780 F900
G01 X203.1157 Y66.2425 F900
G01 Z-8.0000 F100
G01 X191.1316 F900
G01 X191.1336 Y61.7425 F900
G01 X203.1137 F900
G01 X203.6799 Y61.5438 F900
G02 X200.7640 Y58.0173 I-6.5484 J2.4459 F900
G01 X200.7875 Y57.9255 F900
G01 X200.7640 Y58.0173 F900
G01 X193.5164 Y57.9973 F900
G01 X193.4933 Y57.9054 F900
G01 X193.5164 Y57.9973 F900
G02 X193.5152 Y69.9933 I3.6064 J5.9984 F900
G01 X193.4929 Y70.0792 F900
G01 X193.5152 Y69.9933 F900
G01 X193.5045 Y69.9871 F900
G01 X193.5205 Y69.9942 F900
G01 X200.7432 Y69.9842 F900
G01 X200.7666 Y70.0761 F900
G01 X200.7432 Y69.9842 F900
G02 X203.6799 Y61.5438 I-3.6143 J-5.9887 F900
G01 X203.1137 Y61.7425 F900
G01 Z-10.0000 F100
G01 X191.1336 F900
G01 X191.1316 Y66.2425 F900
G01 X203.1157 F900
G01 X203.6800 Y66.4466 F900
G02 X200.7640 Y58.0173 I-6.5540 J-2.4517 F900
G01 X200.7875 Y57.9255 F900
G01 X200.7640 Y58.0173 F900
G01 X193.5164 Y57.9973 F900
G01 X193.4933 Y57.9054 F900
G01 X193.5164 Y57.9973 F900
G02 X193.5152 Y69.9933 I3.6064 J5.9984 F900
G01 X193.4929 Y70.0792 F900
G01 X193.5152 Y69.9933 F900
G01 X193.5045 Y69.9871 F900
G01 X193.5205 Y69.9942 F900
G01 X200.7432 Y69.9842 F900
G01 X200.7666 Y70.0761 F900
G01 X200.7432 Y69.9842 F900
G02 X203.6800 Y66.4466 I-3.6020 J-5.9780 F900
G01 X203.1157 Y66.2425 F900
G00 Z15.0000 F480


;No. 40: Ausschnitt 18
G00 X188.3204 Y62.1241 Z15.0000 F2100
G00 Z0.5000 F480
G01 Z0.0000 F100
G01 Z-2.0000 F100
G02 X199.9048 Y72.5546 I8.8032 J1.8712 F900
G02 X203.1457 Y57.3070 I-2.7811 J-8.5594 F900
G02 X188.3204 Y62.1241 I-6.0221 J6.6882 F900
G01 Z-4.0000 F100
G02 X199.9048 Y72.5546 I8.8032 J1.8712 F900
G02 X203.1457 Y57.3070 I-2.7811 J-8.5594 F900
G02 X188.3204 Y62.1241 I-6.0221 J6.6882 F900
G01 Z-5.0000 F100
G02 X199.9048 Y72.5546 I8.8032 J1.8712 F900
G02 X203.1457 Y57.3070 I-2.7811 J-8.5594 F900
G02 X188.3204 Y62.1241 I-6.0221 J6.6882 F900
G00 Z15.0000 F480


;No. 41: Ausschnitt 45
G00 X163.1145 Y61.7447 Z15.0000 F2100
G00 Z0.5000 F480
G01 Z0.0000 F100
G01 Z-2.0000 F100
G01 X151.1328 F900
G01 X151.1324 Y66.2447 F900
G01 X163.1149 F900
G01 X163.6800 Y66.4466 F900
G02 X160.7288 Y57.9952 I-6.5558 J-2.4518 F900
G01 X160.7516 Y57.9048 F900
G01 X160.7288 Y57.9952 F900
G01 X160.7428 Y58.0034 F900
G01 X160.7226 Y57.9952 F900
G01 X153.5184 F900
G01 X153.4957 Y57.9048 F900
G01 X153.5184 Y57.9952 F900
G02 X153.5151 Y69.9934 I3.6052 J6.0001 F900
G01 X153.4923 Y70.0848 F900
G01 X153.5151 Y69.9934 F900
G01 X153.5045 Y69.9871 F900
G01 X153.5205 Y69.9942 F900
G01 X160.7432 Y69.9842 F900
G01 X160.7666 Y70.0761 F900
G01 X160.7432 Y69.9842 F900
G02 X163.6800 Y66.4466 I-3.6020 J-5.9780 F900
G01 X163.1149 Y66.2447 F900
G01 Z-4.0000 F100
G01 X151.1324 F900
G01 X151.1328 Y61.7447 F900
G01 X163.1145 F900
G01 X163.6800 Y61.5438 F900
G02 X160.7288 Y57.9952 I-6.5548 J2.4496 F900
G01 X160.7516 Y57.9048 F900
G01 X160.7288 Y57.9952 F900
G01 X160.7428 Y58.0034 F900
G01 X160.7226 Y57.9952 F900
G01 X153.5184 F900
G01 X153.4957 Y57.9048 F900
G01 X153.5184 Y57.9952 F900
G02 X153.5151 Y69.9934 I3.6052 J6.0001 F900
G01 X153.4923 Y70.0848 F900
G01 X153.5151 Y69.9934 F900
G01 X153.5045 Y69.9871 F900
G01 X153.5205 Y69.9942 F900
G01 X160.7432 Y69.9842 F900
G01 X160.7666 Y70.0761 F900
G01 X160.7432 Y69.9842 F900
G02 X163.6800 Y61.5438 I-3.6143 J-5.9887 F900
G01 X163.1145 Y61.7447 F900
G01 Z-6.0000 F100
G01 X151.1328 F900
G01 X151.1324 Y66.2447 F900
G01 X163.1149 F900
G01 X163.6800 Y66.4466 F900
G02 X160.7288 Y57.9952 I-6.5558 J-2.4518 F900
G01 X160.7516 Y57.9048 F900
G01 X160.7288 Y57.9952 F900
G01 X160.7428 Y58.0034 F900
G01 X160.7226 Y57.9952 F900
G01 X153.5184 F900
G01 X153.4957 Y57.9048 F900
G01 X153.5184 Y57.9952 F900
G02 X153.5151 Y69.9934 I3.6052 J6.0001 F900
G01 X153.4923 Y70.0848 F900
G01 X153.5151 Y69.9934 F900
G01 X153.5045 Y69.9871 F900
G01 X153.5205 Y69.9942 F900
G01 X160.7432 Y69.9842 F900
G01 X160.7666 Y70.0761 F900
G01 X160.7432 Y69.9842 F900
G02 X163.6800 Y66.4466 I-3.6020 J-5.9780 F900
G01 X163.1149 Y66.2447 F900
G01 Z-8.0000 F100
G01 X151.1324 F900
G01 X151.1328 Y61.7447 F900
G01 X163.1145 F900
G01 X163.6800 Y61.5438 F900
G02 X160.7288 Y57.9952 I-6.5548 J2.4496 F900
G01 X160.7516 Y57.9048 F900
G01 X160.7288 Y57.9952 F900
G01 X160.7428 Y58.0034 F900
G01 X160.7226 Y57.9952 F900
G01 X153.5184 F900
G01 X153.4957 Y57.9048 F900
G01 X153.5184 Y57.9952 F900
G02 X153.5151 Y69.9934 I3.6052 J6.0001 F900
G01 X153.4923 Y70.0848 F900
G01 X153.5151 Y69.9934 F900
G01 X153.5045 Y69.9871 F900
G01 X153.5205 Y69.9942 F900
G01 X160.7432 Y69.9842 F900
G01 X160.7666 Y70.0761 F900
G01 X160.7432 Y69.9842 F900
G02 X163.6800 Y61.5438 I-3.6143 J-5.9887 F900
G01 X163.1145 Y61.7447 F900
G01 Z-10.0000 F100
G01 X151.1328 F900
G01 X151.1324 Y66.2447 F900
G01 X163.1149 F900
G01 X163.6800 Y66.4466 F900
G02 X160.7288 Y57.9952 I-6.5558 J-2.4518 F900
G01 X160.7516 Y57.9048 F900
G01 X160.7288 Y57.9952 F900
G01 X160.7428 Y58.0034 F900
G01 X160.7226 Y57.9952 F900
G01 X153.5184 F900
G01 X153.4957 Y57.9048 F900
G01 X153.5184 Y57.9952 F900
G02 X153.5151 Y69.9934 I3.6052 J6.0001 F900
G01 X153.4923 Y70.0848 F900
G01 X153.5151 Y69.9934 F900
G01 X153.5045 Y69.9871 F900
G01 X153.5205 Y69.9942 F900
G01 X160.7432 Y69.9842 F900
G01 X160.7666 Y70.0761 F900
G01 X160.7432 Y69.9842 F900
G02 X163.6800 Y66.4466 I-3.6020 J-5.9780 F900
G01 X163.1149 Y66.2447 F900
G00 Z15.0000 F480


;No. 42: Ausschnitt 19
G00 X148.4304 Y61.6659 Z15.0000 F2100
G00 Z0.5000 F480
G01 Z0.0000 F100
G01 Z-2.0000 F100
G02 X159.4530 Y72.6885 I8.6932 J2.3293 F900
G02 X163.4875 Y57.6314 I-2.3293 J-8.6932 F900
G02 X148.4304 Y61.6659 I-6.3639 J6.3639 F900
G01 Z-4.0000 F100
G02 X159.4530 Y72.6885 I8.6932 J2.3293 F900
G02 X163.4875 Y57.6314 I-2.3293 J-8.6932 F900
G02 X148.4304 Y61.6659 I-6.3639 J6.3639 F900
G01 Z-5.0000 F100
G02 X159.4530 Y72.6885 I8.6932 J2.3293 F900
G02 X163.4875 Y57.6314 I-2.3293 J-8.6932 F900
G02 X148.4304 Y61.6659 I-6.3639 J6.3639 F900
G00 Z15.0000 F480


;No. 43: Ausschnitt 46
G00 X133.1147 Y61.7447 Z15.0000 F2100
G00 Z0.5000 F480
G01 Z0.0000 F100
G01 Z-2.0000 F100
G01 X121.1328 F900
G01 X121.1324 Y66.2447 F900
G01 X133.1150 F900
G01 X133.6733 Y66.4646 F900
G02 X130.7455 Y58.0051 I-6.5491 J-2.4697 F900
G01 X130.7594 Y58.0134 F900
G01 X130.7226 Y57.9952 F900
G01 X130.7447 Y57.9142 F900
G01 X130.7226 Y57.9952 F900
G01 X123.5246 F900
G01 X123.5014 Y57.9034 F900
G01 X123.5246 Y57.9952 F900
G02 X123.5151 Y69.9934 I3.5957 J6.0019 F900
G01 X123.4923 Y70.0848 F900
G01 X123.5151 Y69.9934 F900
G01 X123.5045 Y69.9871 F900
G01 X123.5205 Y69.9942 F900
G01 X130.7432 Y69.9842 F900
G01 X130.7666 Y70.0761 F900
G01 X130.7432 Y69.9842 F900
G02 X133.6733 Y66.4646 I-3.6014 J-5.9776 F900
G01 X133.1150 Y66.2447 F900
G01 Z-4.0000 F100
G01 X121.1324 F900
G01 X121.1328 Y61.7447 F900
G01 X133.1147 F900
G01 X133.6867 Y61.5618 F900
G02 X130.7455 Y58.0051 I-6.5614 J2.4317 F900
G01 X130.7594 Y58.0134 F900
G01 X130.7226 Y57.9952 F900
G01 X130.7447 Y57.9142 F900
G01 X130.7226 Y57.9952 F900
G01 X123.5246 F900
G01 X123.5014 Y57.9034 F900
G01 X123.5246 Y57.9952 F900
G02 X123.5151 Y69.9934 I3.5957 J6.0019 F900
G01 X123.4923 Y70.0848 F900
G01 X123.5151 Y69.9934 F900
G01 X123.5045 Y69.9871 F900
G01 X123.5205 Y69.9942 F900
G01 X130.7432 Y69.9842 F900
G01 X130.7666 Y70.0761 F900
G01 X130.7432 Y69.9842 F900
G02 X133.6867 Y61.5618 I-3.6141 J-5.9887 F900
G01 X133.1147 Y61.7447 F900
G01 Z-6.0000 F100
G01 X121.1328 F900
G01 X121.1324 Y66.2447 F900
G01 X133.1150 F900
G01 X133.6733 Y66.4646 F900
G02 X130.7455 Y58.0051 I-6.5491 J-2.4697 F900
G01 X130.7594 Y58.0134 F900
G01 X130.7226 Y57.9952 F900
G01 X130.7447 Y57.9142 F900
G01 X130.7226 Y57.9952 F900
G01 X123.5246 F900
G01 X123.5014 Y57.9034 F900
G01 X123.5246 Y57.9952 F900
G02 X123.5151 Y69.9934 I3.5957 J6.0019 F900
G01 X123.4923 Y70.0848 F900
G01 X123.5151 Y69.9934 F900
G01 X123.5045 Y69.9871 F900
G01 X123.5205 Y69.9942 F900
G01 X130.7432 Y69.9842 F900
G01 X130.7666 Y70.0761 F900
G01 X130.7432 Y69.9842 F900
G02 X133.6733 Y66.4646 I-3.6014 J-5.9776 F900
G01 X133.1150 Y66.2447 F900
G01 Z-8.0000 F100
G01 X121.1324 F900
G01 X121.1328 Y61.7447 F900
G01 X133.1147 F900
G01 X133.6867 Y61.5618 F900
G02 X130.7455 Y58.0051 I-6.5614 J2.4317 F900
G01 X130.7594 Y58.0134 F900
G01 X130.7226 Y57.9952 F900
G01 X130.7447 Y57.9142 F900
G01 X130.7226 Y57.9952 F900
G01 X123.5246 F900
G01 X123.5014 Y57.9034 F900
G01 X123.5246 Y57.9952 F900
G02 X123.5151 Y69.9934 I3.5957 J6.0019 F900
G01 X123.4923 Y70.0848 F900
G01 X123.5151 Y69.9934 F900
G01 X123.5045 Y69.9871 F900
G01 X123.5205 Y69.9942 F900
G01 X130.7432 Y69.9842 F900
G01 X130.7666 Y70.0761 F900
G01 X130.7432 Y69.9842 F900
G02 X133.6867 Y61.5618 I-3.6141 J-5.9887 F900
G01 X133.1147 Y61.7447 F900
G01 Z-10.0000 F100
G01 X121.1328 F900
G01 X121.1324 Y66.2447 F900
G01 X133.1150 F900
G01 X133.6733 Y66.4646 F900
G02 X130.7455 Y58.0051 I-6.5491 J-2.4697 F900
G01 X130.7594 Y58.0134 F900
G01 X130.7226 Y57.9952 F900
G01 X130.7447 Y57.9142 F900
G01 X130.7226 Y57.9952 F900
G01 X123.5246 F900
G01 X123.5014 Y57.9034 F900
G01 X123.5246 Y57.9952 F900
G02 X123.5151 Y69.9934 I3.5957 J6.0019 F900
G01 X123.4923 Y70.0848 F900
G01 X123.5151 Y69.9934 F900
G01 X123.5045 Y69.9871 F900
G01 X123.5205 Y69.9942 F900
G01 X130.7432 Y69.9842 F900
G01 X130.7666 Y70.0761 F900
G01 X130.7432 Y69.9842 F900
G02 X133.6733 Y66.4646 I-3.6014 J-5.9776 F900
G01 X133.1150 Y66.2447 F900
G00 Z15.0000 F480


;No. 44: Ausschnitt 20
G00 X118.6665 Y60.9171 Z15.0000 F2100
G00 Z0.5000 F480
G01 Z0.0000 F100
G01 Z-2.0000 F100
G02 X128.6865 Y72.8584 I8.4571 J3.0781 F900
G02 X134.0180 Y58.2102 I-1.5628 J-8.8632 F900
G02 X118.6665 Y60.9171 I-6.8943 J5.7850 F900
G01 Z-4.0000 F100
G02 X128.6865 Y72.8584 I8.4571 J3.0781 F900
G02 X134.0180 Y58.2102 I-1.5628 J-8.8632 F900
G02 X118.6665 Y60.9171 I-6.8943 J5.7850 F900
G01 Z-5.0000 F100
G02 X128.6865 Y72.8584 I8.4571 J3.0781 F900
G02 X134.0180 Y58.2102 I-1.5628 J-8.8632 F900
G02 X118.6665 Y60.9171 I-6.8943 J5.7850 F900
G00 Z15.0000 F480


;No. 45: Teil 3
G00 X25.6236 Y47.7050 Z15.0000 F2100
G00 Z0.5000 F480
G01 Z0.0000 F100
G01 Z-2.0000 F100
G01 Y28.9952 F900
G03 X28.6236 Y25.9952 I3.0000 J0.0000 F900
G01 X109.2478 F900
G01 X118.2478 F900
G01 X310.6556 F900
G01 X319.6556 F900
G01 X440.6236 F900
G03 X443.6236 Y28.9952 I0.0000 J3.0000 F900
G01 Y43.7996 F900
G01 Y52.7996 F900
G01 Y115.7708 F900
G01 Y124.7708 F900
G01 Y141.9952 F900
G03 X440.6236 Y144.9952 I-3.0000 J0.0000 F900
G01 X28.6236 F900
G03 X25.6236 Y141.9952 I0.0000 J-3.0000 F900
G01 Y125.6077 F900
G01 Y116.6077 F900
G01 Y56.7050 F900
G01 Y47.7050 F900
G01 Z-4.0000 F100
G01 Y28.9952 F900
G03 X28.6236 Y25.9952 I3.0000 J0.0000 F900
G01 X109.2478 F900
G01 X118.2478 F900
G01 X310.6556 F900
G01 X319.6556 F900
G01 X440.6236 F900
G03 X443.6236 Y28.9952 I0.0000 J3.0000 F900
G01 Y43.7996 F900
G01 Y52.7996 F900
G01 Y115.7708 F900
G01 Y124.7708 F900
G01 Y141.9952 F900
G03 X440.6236 Y144.9952 I-3.0000 J0.0000 F900
G01 X28.6236 F900
G03 X25.6236 Y141.9952 I0.0000 J-3.0000 F900
G01 Y125.6077 F900
G01 Y116.6077 F900
G01 Y56.7050 F900
G01 Y47.7050 F900
G01 Z-6.0000 F100
G01 Y28.9952 F900
G03 X28.6236 Y25.9952 I3.0000 J0.0000 F900
G01 X109.2478 F900
G01 X118.2478 F900
G01 X310.6556 F900
G01 X319.6556 F900
G01 X440.6236 F900
G03 X443.6236 Y28.9952 I0.0000 J3.0000 F900
G01 Y43.7996 F900
G01 Y52.7996 F900
G01 Y115.7708 F900
G01 Y124.7708 F900
G01 Y141.9952 F900
G03 X440.6236 Y144.9952 I-3.0000 J0.0000 F900
G01 X28.6236 F900
G03 X25.6236 Y141.9952 I0.0000 J-3.0000 F900
G01 Y125.6077 F900
G01 Y116.6077 F900
G01 Y56.7050 F900
G01 Y47.7050 F900
G01 Z-8.0000 F100
G01 Y28.9952 F900
G03 X28.6236 Y25.9952 I3.0000 J0.0000 F900
G01 X109.2478 F900
G00 Z-6.0000 F480
G01 X118.2478 F900
G01 Z-8.0000 F100
G01 X310.6556 F900
G00 Z-6.0000 F480
G01 X319.6556 F900
G01 Z-8.0000 F100
G01 X440.6236 F900
G03 X443.6236 Y28.9952 I0.0000 J3.0000 F900
G01 Y43.7996 F900
G00 Z-6.0000 F480
G01 Y52.7996 F900
G01 Z-8.0000 F100
G01 Y115.7708 F900
G00 Z-6.0000 F480
G01 Y124.7708 F900
G01 Z-8.0000 F100
G01 Y141.9952 F900
G03 X440.6236 Y144.9952 I-3.0000 J0.0000 F900
G01 X28.6236 F900
G03 X25.6236 Y141.9952 I0.0000 J-3.0000 F900
G01 Y125.6077 F900
G00 Z-6.0000 F480
G01 Y116.6077 F900
G01 Z-8.0000 F100
G01 Y56.7050 F900
G00 Z-6.0000 F480
G01 Y47.7050 F900
G00 Z-7.5000 F480
G01 Z-8.0000 F100
G01 Z-10.0000 F100
G01 Y28.9952 F900
G03 X28.6236 Y25.9952 I3.0000 J0.0000 F900
G01 X109.2478 F900
G00 Z-6.0000 F480
G01 X118.2478 F900
G00 Z-7.5000 F480
G01 Z-8.0000 F100
G01 Z-10.0000 F100
G01 X310.6556 F900
G00 Z-6.0000 F480
G01 X319.6556 F900
G00 Z-7.5000 F480
G01 Z-8.0000 F100
G01 Z-10.0000 F100
G01 X440.6236 F900
G03 X443.6236 Y28.9952 I0.0000 J3.0000 F900
G01 Y43.7996 F900
G00 Z-6.0000 F480
G01 Y52.7996 F900
G00 Z-7.5000 F480
G01 Z-8.0000 F100
G01 Z-10.0000 F100
G01 Y115.7708 F900
G00 Z-6.0000 F480
G01 Y124.7708 F900
G00 Z-7.5000 F480
G01 Z-8.0000 F100
G01 Z-10.0000 F100
G01 Y141.9952 F900
G03 X440.6236 Y144.9952 I-3.0000 J0.0000 F900
G01 X28.6236 F900
G03 X25.6236 Y141.9952 I0.0000 J-3.0000 F900
G01 Y125.6077 F900
G00 Z-6.0000 F480
G01 Y116.6077 F900
G00 Z-7.5000 F480
G01 Z-8.0000 F100
G01 Z-10.0000 F100
G01 Y56.7050 F900
G00 Z-6.0000 F480
G01 Y47.7050 F900
G00 Z15.0000 F480
G00 X0.0000 Y0.0000 F2100

M05
