;Project rear-text
;Created by Estlcam version 11 build 11,245
;Machining time about 00:12:36 hours

G90
M03 S24000
G00 Z15.0000 F480


;No. 1: Carve 82
G00 X28.9544 Y53.1108 F2100
G01 Z-0.5562 F500 S24000
G01 X28.9892 Y53.0301 Z-0.5543 F500
G01 X29.0203 Y52.9409 Z-0.5514 F500
G01 X29.0343 Y52.8927 Z-0.5497 F500
G01 X29.0472 Y52.8421 Z-0.5479 F500
G01 X29.0589 Y52.7890 Z-0.5459 F500
G01 X29.0692 Y52.7333 Z-0.5438 F500
G01 X29.0781 Y52.6750 Z-0.5417 F500
G01 X29.0854 Y52.6141 Z-0.5395 F500
G01 X29.0910 Y52.5506 Z-0.5374 F500
G01 X29.0949 Y52.4845 Z-0.5353 F500
G01 X29.0966 Y52.4346 Z-0.5338 F500
G01 X29.0967 Y52.3699 Z-0.5314 F500
G01 X29.0945 Y52.3050 Z-0.5283 F500
G01 X29.0895 Y52.2397 Z-0.5248 F500
G01 X29.0818 Y52.1737 Z-0.5208 F500
G01 X29.0711 Y52.1070 Z-0.5165 F500
G01 X29.0574 Y52.0394 Z-0.5118 F500
G01 X29.0403 Y51.9707 Z-0.5070 F500
G01 X29.0196 Y51.9010 Z-0.5020 F500
G01 X28.9951 Y51.8302 Z-0.4972 F500
G01 X28.9650 Y51.7547 Z-0.4924 F500
G01 X28.9343 Y51.6864 Z-0.4887 F500
G01 X28.9009 Y51.6205 Z-0.4852 F500
G01 X28.8647 Y51.5568 Z-0.4818 F500
G01 X28.8257 Y51.4952 Z-0.4786 F500
G01 X28.7840 Y51.4356 Z-0.4754 F500
G01 X28.7394 Y51.3778 Z-0.4723 F500
G01 X28.6919 Y51.3218 Z-0.4692 F500
G01 X28.6414 Y51.2674 Z-0.4661 F500
G01 X28.5877 Y51.2146 Z-0.4630 F500
G01 X28.5302 Y51.1631 Z-0.4597 F500
G01 X28.4961 Y51.1346 Z-0.4579 F500
G01 X28.4613 Y51.1068 Z-0.4563 F500
G01 X28.4257 Y51.0794 Z-0.4546 F500
G01 X28.3893 Y51.0529 Z-0.4533 F500
G01 X28.3523 Y51.0267 Z-0.4517 F500
G01 X28.3143 Y51.0015 Z-0.4506 F500
G01 X28.2757 Y50.9766 Z-0.4493 F500
G01 X28.2363 Y50.9524 Z-0.4482 F500
G01 X28.1962 Y50.9288 Z-0.4472 F500
G01 X28.1553 Y50.9058 Z-0.4462 F500
G01 X28.1136 Y50.8836 Z-0.4454 F500
G01 X28.0711 Y50.8618 Z-0.4446 F500
G01 X28.0278 Y50.8409 Z-0.4441 F500
G01 X27.9838 Y50.8205 Z-0.4435 F500
G01 X27.9389 Y50.8009 Z-0.4432 F500
G01 X27.8932 Y50.7819 Z-0.4429 F500
G01 X27.8468 Y50.7635 Z-0.4427 F500
G01 X27.7995 Y50.7460 F500
G01 X27.7516 Y50.7289 Z-0.4426 F500
G01 X27.7029 Y50.7128 Z-0.4429 F500
G01 X27.6558 Y50.6981 Z-0.4430 F500
G01 X27.6074 Y50.6840 Z-0.4431 F500
G01 X27.5577 Y50.6705 Z-0.4432 F500
G01 X27.5067 Y50.6576 Z-0.4430 F500
G01 X27.4543 Y50.6456 Z-0.4431 F500
G01 X27.4006 Y50.6341 Z-0.4430 F500
G01 X27.3456 Y50.6234 Z-0.4429 F500
G01 X27.2892 Y50.6134 Z-0.4428 F500
G01 X27.2315 Y50.6041 Z-0.4426 F500
G01 X27.1724 Y50.5958 Z-0.4425 F500
G01 X27.1121 Y50.5881 Z-0.4424 F500
G01 X27.0504 Y50.5812 Z-0.4421 F500
G01 X26.9873 Y50.5752 F500
G01 X26.9229 Y50.5700 Z-0.4420 F500
G01 X26.8573 Y50.5656 Z-0.4418 F500
G01 X26.7903 Y50.5622 Z-0.4419 F500
G01 X26.7219 Y50.5596 Z-0.4418 F500
G01 X26.6523 Y50.5578 Z-0.4417 F500
G01 X26.5814 Y50.5570 Z-0.4418 F500
G01 X26.5063 Y50.5571 Z-0.4420 F500
G01 X26.4281 Y50.5584 Z-0.4425 F500
G01 X26.3509 Y50.5608 Z-0.4434 F500
G01 X26.2746 Y50.5642 Z-0.4446 F500
G01 X26.1993 Y50.5686 Z-0.4461 F500
G01 X26.1249 Y50.5741 Z-0.4479 F500
G01 X26.0515 Y50.5805 Z-0.4499 F500
G01 X25.9790 Y50.5877 Z-0.4521 F500
G01 X25.9076 Y50.5959 Z-0.4545 F500
G01 X25.8371 Y50.6048 Z-0.4569 F500
G01 X25.7676 Y50.6146 Z-0.4595 F500
G01 X25.6991 Y50.6251 Z-0.4621 F500
G01 X25.6316 Y50.6364 Z-0.4648 F500
G01 X25.5651 Y50.6484 Z-0.4675 F500
G01 X25.4996 Y50.6610 Z-0.4702 F500
G01 X25.4350 Y50.6743 Z-0.4728 F500
G01 X25.3715 Y50.6881 Z-0.4754 F500
G01 X25.3089 Y50.7026 Z-0.4779 F500
G01 X25.2473 Y50.7177 Z-0.4804 F500
G01 X25.1866 Y50.7333 Z-0.4826 F500
G01 X25.1269 Y50.7494 Z-0.4848 F500
G01 X25.0660 Y50.7666 Z-0.4870 F500
G01 X25.0049 Y50.7845 Z-0.4892 F500
G01 X24.9437 Y50.8031 Z-0.4914 F500
G01 X24.8824 Y50.8224 Z-0.4936 F500
G01 X24.8209 Y50.8426 Z-0.4960 F500
G01 X24.7594 Y50.8636 Z-0.4985 F500
G01 X24.6977 Y50.8853 Z-0.5010 F500
G01 X24.6359 Y50.9079 Z-0.5036 F500
G01 X24.5740 Y50.9314 Z-0.5065 F500
G01 X24.5120 Y50.9556 Z-0.5094 F500
G01 X24.4499 Y50.9807 Z-0.5125 F500
G01 X24.3878 Y51.0066 Z-0.5158 F500
G01 X24.3256 Y51.0335 Z-0.5193 F500
G01 X24.2633 Y51.0612 Z-0.5229 F500
G01 X24.1869 Y51.0544 Z-0.4886 F500
G01 X23.6983 Y50.7299 Z0.0000 F500
G01 X24.2172 Y51.0750 Z-0.5189 F500
G01 X24.1675 Y51.1736 Z-0.4692 F500
G01 X24.1103 Y51.2721 Z-0.4121 F500
G01 X24.0545 Y51.3707 Z-0.3563 F500
G01 X24.0001 Y51.4693 Z-0.3019 F500
G01 X23.9471 Y51.5679 Z-0.2488 F500
G01 X23.8955 Y51.6665 Z-0.1972 F500
G01 X23.8455 Y51.7651 Z-0.1472 F500
G01 X23.7475 Y51.9622 Z-0.0493 F500
G01 X23.6983 Y52.0115 Z0.0000 F500
G01 X23.7344 Y51.9754 Z-0.0361 F500
G01 X23.7606 Y51.9392 Z-0.0623 F500
G01 X23.7978 Y51.8617 Z-0.0995 F500
G01 X23.8363 Y51.7835 Z-0.1380 F500
G01 X23.8761 Y51.7045 Z-0.1779 F500
G01 X23.9173 Y51.6247 Z-0.2190 F500
G01 X23.9599 Y51.5440 Z-0.2616 F500
G01 X24.0039 Y51.4623 Z-0.3057 F500
G01 X24.0495 Y51.3797 Z-0.3513 F500
G01 X24.0967 Y51.2961 Z-0.3984 F500
G01 X24.1959 Y51.1256 Z-0.4977 F500
G01 X24.2605 Y51.0625 Z-0.5231 F500
G01 X24.3402 Y51.0271 Z-0.5185 F500
G01 X24.4206 Y50.9928 Z-0.5141 F500
G01 X24.5016 Y50.9598 Z-0.5100 F500
G01 X24.5833 Y50.9278 Z-0.5061 F500
G01 X24.6657 Y50.8969 Z-0.5024 F500
G01 X24.7487 Y50.8673 Z-0.4989 F500
G01 X24.8325 Y50.8388 Z-0.4956 F500
G01 X24.9170 Y50.8115 Z-0.4924 F500
G01 X25.0012 Y50.7856 Z-0.4893 F500
G01 X25.0845 Y50.7613 Z-0.4864 F500
G01 X25.1675 Y50.7384 Z-0.4834 F500
G01 X25.2501 Y50.7170 Z-0.4802 F500
G01 X25.3324 Y50.6971 Z-0.4770 F500
G01 X25.4143 Y50.6787 Z-0.4737 F500
G01 X25.4958 Y50.6618 Z-0.4703 F500
G01 X25.5770 Y50.6462 Z-0.4670 F500
G01 X25.6577 Y50.6319 Z-0.4638 F500
G01 X25.7380 Y50.6190 Z-0.4607 F500
G01 X25.8178 Y50.6075 Z-0.4577 F500
G01 X25.8973 Y50.5971 Z-0.4548 F500
G01 X25.9763 Y50.5880 Z-0.4522 F500
G01 X26.0549 Y50.5801 Z-0.4498 F500
G01 X26.1330 Y50.5734 Z-0.4477 F500
G01 X26.2108 Y50.5679 Z-0.4459 F500
G01 X26.2881 Y50.5635 Z-0.4444 F500
G01 X26.3651 Y50.5602 Z-0.4432 F500
G01 X26.4417 Y50.5581 Z-0.4424 F500
G01 X26.5179 Y50.5571 Z-0.4419 F500
G01 X26.6071 Y50.5572 F500
G01 X26.7087 Y50.5592 Z-0.4418 F500
G01 X26.8086 Y50.5631 Z-0.4419 F500
G01 X26.9068 Y50.5689 Z-0.4420 F500
G01 X27.0034 Y50.5767 Z-0.4422 F500
G01 X27.0982 Y50.5865 Z-0.4424 F500
G01 X27.1914 Y50.5984 Z-0.4426 F500
G01 X27.2829 Y50.6124 Z-0.4428 F500
G01 X27.3728 Y50.6285 Z-0.4431 F500
G01 X27.4610 Y50.6471 F500
G01 X27.5476 Y50.6679 Z-0.4432 F500
G01 X27.6324 Y50.6911 F500
G01 X27.7155 Y50.7169 Z-0.4429 F500
G01 X27.7969 Y50.7450 Z-0.4427 F500
G01 X27.8767 Y50.7753 Z-0.4429 F500
G01 X27.9548 Y50.8078 Z-0.4434 F500
G01 X28.0313 Y50.8426 Z-0.4442 F500
G01 X28.1061 Y50.8797 Z-0.4453 F500
G01 X28.1792 Y50.9191 Z-0.4468 F500
G01 X28.2506 Y50.9610 Z-0.4487 F500
G01 X28.3179 Y51.0038 Z-0.4508 F500
G01 X28.3846 Y51.0495 Z-0.4531 F500
G01 X28.4492 Y51.0974 Z-0.4558 F500
G01 X28.5117 Y51.1475 Z-0.4589 F500
G01 X28.5719 Y51.2001 Z-0.4622 F500
G01 X28.6295 Y51.2553 Z-0.4655 F500
G01 X28.6843 Y51.3132 Z-0.4688 F500
G01 X28.7362 Y51.3738 Z-0.4721 F500
G01 X28.7851 Y51.4370 Z-0.4755 F500
G01 X28.8307 Y51.5027 Z-0.4790 F500
G01 X28.8730 Y51.5709 Z-0.4826 F500
G01 X28.9117 Y51.6413 Z-0.4864 F500
G01 X28.9469 Y51.7137 Z-0.4903 F500
G01 X28.9786 Y51.7881 Z-0.4946 F500
G01 X29.0071 Y51.8641 Z-0.4997 F500
G01 X29.0319 Y51.9416 Z-0.5051 F500
G01 X29.0530 Y52.0206 Z-0.5106 F500
G01 X29.0700 Y52.1010 Z-0.5161 F500
G01 X29.0829 Y52.1824 Z-0.5214 F500
G01 X29.0916 Y52.2647 Z-0.5263 F500
G01 X29.0958 Y52.3379 Z-0.5301 F500
G01 X29.0969 Y52.4017 Z-0.5328 F500
G01 X29.0956 Y52.4649 Z-0.5348 F500
G01 X29.0926 Y52.5277 Z-0.5368 F500
G01 X29.0877 Y52.5900 Z-0.5389 F500
G01 X29.0811 Y52.6519 Z-0.5410 F500
G01 X29.0725 Y52.7135 Z-0.5432 F500
G01 X29.0618 Y52.7746 Z-0.5454 F500
G01 X29.0488 Y52.8354 Z-0.5477 F500
G01 X29.0335 Y52.8956 Z-0.5499 F500
G01 X29.0157 Y52.9554 Z-0.5520 F500
G01 X28.9951 Y53.0145 Z-0.5539 F500
G01 X28.9716 Y53.0728 Z-0.5555 F500
G01 X28.9450 Y53.1300 Z-0.5568 F500
G01 X28.9151 Y53.1859 Z-0.5573 F500
G01 X28.8819 Y53.2402 Z-0.5574 F500
G01 X28.8452 Y53.2926 Z-0.5567 F500
G01 X28.8053 Y53.3426 Z-0.5551 F500
G01 X28.7624 Y53.3903 Z-0.5531 F500
G01 X28.7169 Y53.4355 Z-0.5509 F500
G01 X28.6769 Y53.4720 Z-0.5490 F500
G01 X28.6346 Y53.5077 Z-0.5471 F500
G01 X28.5912 Y53.5418 Z-0.5451 F500
G01 X28.5467 Y53.5743 Z-0.5431 F500
G01 X28.5013 Y53.6053 Z-0.5411 F500
G01 X28.4548 Y53.6349 Z-0.5392 F500
G01 X28.4075 Y53.6631 Z-0.5373 F500
G01 X28.3593 Y53.6900 Z-0.5355 F500
G01 X28.3103 Y53.7157 Z-0.5338 F500
G01 X28.2604 Y53.7403 Z-0.5322 F500
G01 X28.2097 Y53.7638 Z-0.5307 F500
G01 X28.1582 Y53.7863 Z-0.5293 F500
G01 X28.1059 Y53.8079 Z-0.5281 F500
G01 X28.0528 Y53.8285 Z-0.5270 F500
G01 X27.9987 Y53.8482 Z-0.5259 F500
G01 X27.9438 Y53.8670 Z-0.5249 F500
G01 X27.8880 Y53.8850 Z-0.5240 F500
G01 X27.8313 Y53.9023 Z-0.5232 F500
G01 X27.7738 Y53.9188 Z-0.5225 F500
G01 X27.7152 Y53.9344 Z-0.5217 F500
G01 X27.6240 Y53.9575 Z-0.5207 F500
G01 X27.5383 Y53.9780 Z-0.5199 F500
G01 X27.4514 Y53.9979 Z-0.5192 F500
G01 X27.3633 Y54.0170 Z-0.5187 F500
G01 X27.2742 Y54.0356 Z-0.5184 F500
G01 X27.1839 Y54.0535 Z-0.5183 F500
G01 X26.9997 Y54.0875 Z-0.5187 F500
G01 X26.8109 Y54.1193 Z-0.5201 F500
G01 X26.5447 Y54.1631 Z-0.5221 F500
G01 X26.2689 Y54.2120 Z-0.5229 F500
G01 X25.9822 Y54.2669 Z-0.5233 F500
G01 X25.8842 Y54.2868 Z-0.5236 F500
G01 X25.8181 Y54.3011 Z-0.5235 F500
G01 X25.7289 Y54.3223 Z-0.5239 F500
G01 X25.6427 Y54.3447 Z-0.5243 F500
G01 X25.5597 Y54.3683 Z-0.5248 F500
G01 X25.4797 Y54.3931 Z-0.5253 F500
G01 X25.4028 Y54.4190 Z-0.5260 F500
G01 X25.3291 Y54.4462 Z-0.5268 F500
G01 X25.2585 Y54.4743 Z-0.5276 F500
G01 X25.1911 Y54.5035 Z-0.5286 F500
G01 X25.1267 Y54.5336 Z-0.5296 F500
G01 X25.0655 Y54.5647 Z-0.5307 F500
G01 X25.0074 Y54.5966 Z-0.5320 F500
G01 X24.9523 Y54.6292 Z-0.5333 F500
G01 X24.9003 Y54.6626 Z-0.5347 F500
G01 X24.8512 Y54.6967 Z-0.5362 F500
G01 X24.8050 Y54.7313 Z-0.5377 F500
G01 X24.7617 Y54.7664 Z-0.5392 F500
G01 X24.7210 Y54.8020 Z-0.5407 F500
G01 X24.6472 Y54.8744 Z-0.5434 F500
G01 X24.5857 Y54.9457 Z-0.5452 F500
G01 X24.5277 Y55.0241 Z-0.5464 F500
G01 X24.4761 Y55.1060 Z-0.5468 F500
G01 X24.4305 Y55.1924 Z-0.5467 F500
G01 X24.4098 Y55.2375 Z-0.5463 F500
G01 X24.3904 Y55.2841 Z-0.5458 F500
G01 X24.3723 Y55.3323 Z-0.5451 F500
G01 X24.3557 Y55.3822 Z-0.5442 F500
G01 X24.3406 Y55.4339 Z-0.5433 F500
G01 X24.3269 Y55.4875 Z-0.5422 F500
G01 X24.3147 Y55.5431 Z-0.5410 F500
G01 X24.3041 Y55.6008 Z-0.5397 F500
G01 X24.2952 Y55.6607 Z-0.5383 F500
G01 X24.2880 Y55.7227 Z-0.5369 F500
G01 X24.2827 Y55.7869 Z-0.5354 F500
G01 X24.2792 Y55.8534 Z-0.5339 F500
G01 X24.2778 Y55.9238 Z-0.5322 F500
G01 X24.2790 Y55.9955 Z-0.5303 F500
G01 X24.2830 Y56.0650 Z-0.5282 F500
G01 X24.2898 Y56.1324 Z-0.5260 F500
G01 X24.2995 Y56.1979 Z-0.5238 F500
G01 X24.3119 Y56.2616 Z-0.5215 F500
G01 X24.3268 Y56.3238 Z-0.5189 F500
G01 X24.3444 Y56.3846 Z-0.5160 F500
G01 X24.3648 Y56.4444 Z-0.5129 F500
G01 X24.3880 Y56.5033 Z-0.5097 F500
G01 X24.4143 Y56.5614 Z-0.5064 F500
G01 X24.4435 Y56.6190 Z-0.5027 F500
G01 X24.4760 Y56.6762 Z-0.4988 F500
G01 X24.5119 Y56.7331 Z-0.4948 F500
G01 X24.5515 Y56.7898 Z-0.4906 F500
G01 X24.5950 Y56.8462 Z-0.4863 F500
G01 X24.6425 Y56.9022 Z-0.4820 F500
G01 X24.6942 Y56.9579 Z-0.4778 F500
G01 X24.7504 Y57.0130 Z-0.4737 F500
G01 X24.8111 Y57.0675 Z-0.4698 F500
G01 X24.8776 Y57.1223 Z-0.4662 F500
G01 X24.9456 Y57.1739 Z-0.4631 F500
G01 X25.0158 Y57.2227 Z-0.4603 F500
G01 X25.0882 Y57.2689 Z-0.4578 F500
G01 X25.1629 Y57.3124 Z-0.4556 F500
G01 X25.2399 Y57.3534 Z-0.4535 F500
G01 X25.3192 Y57.3918 Z-0.4516 F500
G01 X25.4009 Y57.4276 Z-0.4499 F500
G01 X25.4850 Y57.4606 Z-0.4485 F500
G01 X25.5716 Y57.4911 Z-0.4472 F500
G01 X25.6606 Y57.5190 Z-0.4460 F500
G01 X25.7522 Y57.5442 Z-0.4450 F500
G01 X25.8462 Y57.5668 Z-0.4440 F500
G01 X25.9428 Y57.5865 Z-0.4433 F500
G01 X26.0421 Y57.6035 Z-0.4428 F500
G01 X26.1438 Y57.6177 Z-0.4424 F500
G01 X26.2482 Y57.6291 Z-0.4420 F500
G01 X26.3551 Y57.6377 Z-0.4417 F500
G01 X26.4646 Y57.6434 F500
G01 X26.5767 Y57.6462 F500
G01 X26.6717 Y57.6465 Z-0.4419 F500
G01 X26.7479 Y57.6455 Z-0.4422 F500
G01 X26.8233 Y57.6436 Z-0.4426 F500
G01 X26.8979 Y57.6408 Z-0.4433 F500
G01 X26.9718 Y57.6370 Z-0.4441 F500
G01 X27.0449 Y57.6324 Z-0.4451 F500
G01 X27.1173 Y57.6269 Z-0.4463 F500
G01 X27.1888 Y57.6204 Z-0.4476 F500
G01 X27.2596 Y57.6132 Z-0.4491 F500
G01 X27.3296 Y57.6051 Z-0.4506 F500
G01 X27.3988 Y57.5962 Z-0.4523 F500
G01 X27.4672 Y57.5866 Z-0.4540 F500
G01 X27.5348 Y57.5762 Z-0.4558 F500
G01 X27.6016 Y57.5650 Z-0.4577 F500
G01 X27.6676 Y57.5530 Z-0.4597 F500
G01 X27.7328 Y57.5403 Z-0.4616 F500
G01 X27.7973 Y57.5269 Z-0.4636 F500
G01 X27.8609 Y57.5129 Z-0.4656 F500
G01 X27.9238 Y57.4982 Z-0.4676 F500
G01 X27.9858 Y57.4827 Z-0.4696 F500
G01 X28.0483 Y57.4664 Z-0.4717 F500
G01 X28.1112 Y57.4493 Z-0.4738 F500
G01 X28.1731 Y57.4317 Z-0.4761 F500
G01 X28.2944 Y57.3954 Z-0.4810 F500
G01 X28.3537 Y57.3769 Z-0.4833 F500
G01 X28.4121 Y57.3580 Z-0.4857 F500
G01 X28.4697 Y57.3388 Z-0.4881 F500
G01 X28.5263 Y57.3193 Z-0.4907 F500
G01 X28.5820 Y57.2994 Z-0.4932 F500
G01 X28.6368 Y57.2792 Z-0.4958 F500
G01 X28.6907 Y57.2587 Z-0.4984 F500
G01 X28.7437 Y57.2378 Z-0.5012 F500
G01 X28.7958 Y57.2166 Z-0.5039 F500
G01 X28.8643 Y57.2425 Z-0.4563 F500
G01 X29.1081 Y57.4098 Z-0.2125 F500
G01 X29.3206 Y57.5512 Z0.0000 F500
G01 X29.0936 Y57.4001 Z-0.2269 F500
G01 X28.8219 Y57.1985 Z-0.4987 F500
G01 X28.8845 Y57.0977 Z-0.4361 F500
G01 X28.9453 Y56.9970 Z-0.3753 F500
G01 X29.0044 Y56.8962 Z-0.3162 F500
G01 X29.0615 Y56.7954 Z-0.2591 F500
G01 X29.1166 Y56.6947 Z-0.2039 F500
G01 X29.1696 Y56.5939 Z-0.1510 F500
G01 X29.2204 Y56.4931 Z-0.1002 F500
G01 X29.2702 Y56.3924 Z-0.0504 F500
G01 X29.3206 Y56.3420 Z0.0000 F500
G00 Z15.0000 F480
G00 X34.4981 Y55.3194 F2100
G01 Z-0.6003 F500
G01 X34.4977 Y55.4245 Z-0.5677 F500
G01 X34.4453 Y55.5464 Z-0.4803 F500
G01 X34.0955 Y56.0268 Z0.0000 F500
G01 X34.4459 Y55.5455 Z-0.4812 F500
G01 X34.5461 Y55.5418 Z-0.4850 F500
G01 X34.8464 Y55.9575 Z-0.0693 F500
G01 X34.8965 Y56.0268 Z0.0000 F500
G00 Z15.0000 F480
G00 X37.3770 F2100
G00 F2100
G00 X37.4258 Y55.9658 F2100
G01 Z-0.0610 F500
G01 X37.7188 Y55.5998 Z-0.4270 F500
G01 X37.8165 Y55.6116 Z-0.4152 F500
G01 X38.3536 Y56.0268 Z0.0000 F500
G01 X37.8068 Y55.6042 Z-0.4226 F500
G01 X37.7402 Y55.5188 Z-0.4656 F500
G01 X36.7566 Y51.4602 Z-0.3942 F500
G01 X36.7259 Y51.3655 Z-0.4001 F500
G01 X36.6830 Y51.2740 Z-0.4185 F500
G01 X36.6279 Y51.1856 Z-0.4495 F500
G01 X36.5608 Y51.1003 Z-0.4930 F500
G01 X36.4815 Y51.0183 Z-0.5490 F500
G01 X36.3900 Y50.9393 Z-0.6176 F500
G01 X36.4025 Y50.8334 Z-0.5788 F500
G01 X36.8499 Y50.2545 Z0.0000 F500
G01 X36.4003 Y50.8362 Z-0.5817 F500
G01 X36.3004 Y50.7397 Z-0.4852 F500
G01 X35.9507 Y50.2545 Z0.0000 F500
G01 X36.2002 Y50.6006 Z-0.3461 F500
G01 X36.3841 Y50.8723 Z-0.6065 F500
G01 X36.3411 Y50.9632 Z-0.5945 F500
G01 X36.2511 Y51.0384 Z-0.5329 F500
G01 X36.1727 Y51.1174 Z-0.4835 F500
G01 X36.1059 Y51.2003 Z-0.4463 F500
G01 X36.0507 Y51.2871 Z-0.4214 F500
G01 X36.0071 Y51.3777 Z-0.4087 F500
G01 X35.9739 Y51.4719 Z-0.4070 F500
G01 X34.8537 Y54.8458 Z-0.4114 F500
G01 X34.8370 Y54.8895 Z-0.4135 F500
G01 X34.8176 Y54.9328 Z-0.4183 F500
G01 X34.7935 Y54.9791 Z-0.4266 F500
G01 X34.7635 Y55.0289 Z-0.4395 F500
G01 X34.7260 Y55.0824 Z-0.4583 F500
G01 X34.6757 Y55.1439 Z-0.4868 F500
G01 X34.6149 Y55.2073 Z-0.5246 F500
G01 X34.5361 Y55.2772 Z-0.5775 F500
G01 X34.4759 Y55.2915 Z-0.5878 F500
G01 X34.4460 Y55.2695 Z-0.5660 F500
G01 X34.4182 Y55.2478 Z-0.5462 F500
G01 X34.3924 Y55.2266 Z-0.5282 F500
G01 X34.3645 Y55.2023 Z-0.5091 F500
G01 X34.3387 Y55.1785 Z-0.4919 F500
G01 X34.3117 Y55.1518 Z-0.4743 F500
G01 X34.2869 Y55.1256 Z-0.4588 F500
G01 X34.2642 Y55.0998 Z-0.4451 F500
G01 X34.2433 Y55.0743 Z-0.4331 F500
G01 X34.2218 Y55.0460 Z-0.4213 F500
G01 X34.2022 Y55.0180 Z-0.4112 F500
G01 X34.1844 Y54.9902 Z-0.4028 F500
G01 X34.1664 Y54.9594 Z-0.3951 F500
G01 X34.1501 Y54.9287 Z-0.3890 F500
G01 X34.1342 Y54.8949 Z-0.3843 F500
G01 X34.1201 Y54.8608 Z-0.3813 F500
G01 X34.1067 Y54.8233 Z-0.3801 F500
G01 X33.0072 Y51.4584 Z-0.3666 F500
G01 X32.9715 Y51.3651 Z-0.3711 F500
G01 X32.9232 Y51.2761 Z-0.3890 F500
G01 X32.8619 Y51.1913 Z-0.4206 F500
G01 X32.7878 Y51.1108 Z-0.4656 F500
G01 X32.7008 Y51.0346 Z-0.5243 F500
G01 X32.6009 Y50.9626 Z-0.5965 F500
G01 X32.5629 Y50.8702 Z-0.6035 F500
G01 X32.6458 Y50.7377 Z-0.4832 F500
G01 X32.9948 Y50.2545 Z0.0000 F500
G01 X32.7465 Y50.5983 Z-0.3438 F500
G01 X32.5478 Y50.8344 Z-0.5799 F500
G01 X32.1008 Y50.2545 Z0.0000 F500
G01 X32.5485 Y50.8353 Z-0.5807 F500
G01 X32.5627 Y50.9419 Z-0.6216 F500
G01 X32.4794 Y51.0228 Z-0.5617 F500
G01 X32.4072 Y51.1067 Z-0.5132 F500
G01 X32.3460 Y51.1934 Z-0.4761 F500
G01 X32.2959 Y51.2831 Z-0.4505 F500
G01 X32.2568 Y51.3757 Z-0.4363 F500
G01 X32.2287 Y51.4712 Z-0.4333 F500
G01 X31.2150 Y55.5249 Z-0.4849 F500
G01 X31.1287 Y55.6050 Z-0.4218 F500
G01 X30.5815 Y56.0268 Z0.0000 F500
G01 X31.1386 Y55.5973 Z-0.4294 F500
G01 X31.2399 Y55.5784 Z-0.4483 F500
G01 X31.5437 Y55.9627 Z-0.0640 F500
G01 X31.5944 Y56.0268 Z0.0000 F500
G00 Z15.0000 F480
G00 X40.7475 Y57.0435 F2100
G01 Z-0.0504 F500
G01 X40.3445 Y57.4466 Z-0.4535 F500
G01 Y57.5473 F500
G01 X40.7979 Y58.0008 Z0.0000 F500
G01 X40.3497 Y57.5526 Z-0.4482 F500
G01 X40.2502 Y57.4969 Z-0.5038 F500
G01 X40.1506 Y57.5526 Z-0.4482 F500
G01 X39.7024 Y58.0008 Z0.0000 F500
G01 X40.1558 Y57.5473 Z-0.4535 F500
G01 Y57.4466 F500
G01 X39.7024 Y56.9931 Z0.0000 F500
G01 X40.1506 Y57.4413 Z-0.4482 F500
G01 X40.2502 Y57.4969 Z-0.5038 F500
G01 X40.3497 Y57.4413 Z-0.4482 F500
G01 X40.7481 Y57.0429 Z-0.0498 F500
G01 X40.7979 Y56.9931 Z0.0000 F500
G00 Z15.0000 F480
G00 X42.0737 Y55.9757 F2100
G01 Z-0.0510 F500
G01 X42.3799 Y55.6696 Z-0.3572 F500
G01 Y55.5675 F500
G01 X42.0227 Y55.2103 Z0.0000 F500
G01 X42.3508 Y55.5384 Z-0.3281 F500
G01 X42.4446 Y55.6185 Z-0.4082 F500
G01 X42.6789 F500
G01 X42.7182 Z-0.4101 F500
G01 X42.7583 Z-0.4159 F500
G01 X42.7960 Z-0.4247 F500
G01 X42.8316 Z-0.4358 F500
G01 X42.8650 Z-0.4486 F500
G01 X42.9006 Z-0.4645 F500
G01 X42.9340 Z-0.4814 F500
G01 X42.9701 Z-0.5015 F500
G01 X43.0037 Z-0.5216 F500
G01 X43.0401 Z-0.5451 F500
G01 X43.0732 Z-0.5675 F500
G01 X43.1091 Z-0.5931 F500
G01 X43.1404 Z-0.6161 F500
G01 X43.1647 Y55.5441 Z-0.5894 F500
G01 Y55.4420 Z-0.5382 F500
G01 Y55.3588 Z-0.5079 F500
G01 Y55.2916 Z-0.4925 F500
G01 Y55.2357 Z-0.4864 F500
G01 X43.1670 Y52.1902 Z-0.4880 F500
G01 X43.1687 Y52.0944 Z-0.4892 F500
G01 X43.1716 Y52.0037 Z-0.4901 F500
G01 X43.1760 Y51.9166 Z-0.4904 F500
G01 X43.1819 Y51.8329 F500
G01 X43.1900 Y51.7529 Z-0.4905 F500
G01 X43.2005 Y51.6765 Z-0.4914 F500
G01 X43.2134 Y51.6039 Z-0.4928 F500
G01 X43.2282 Y51.5351 Z-0.4945 F500
G01 X43.2448 Y51.4701 Z-0.4965 F500
G01 X43.2629 Y51.4089 Z-0.4985 F500
G01 X43.2822 Y51.3514 Z-0.5005 F500
G01 X43.3026 Y51.2976 Z-0.5022 F500
G01 X43.3238 Y51.2474 Z-0.5036 F500
G01 X43.3457 Y51.2006 Z-0.5047 F500
G01 X43.3908 Y51.1163 Z-0.5054 F500
G01 X43.4378 Y51.0434 Z-0.5046 F500
G01 X43.4868 Y50.9798 Z-0.5021 F500
G01 X43.5424 Y50.9190 Z-0.4978 F500
G01 X43.6044 Y50.8615 Z-0.4922 F500
G01 X43.6733 Y50.8077 Z-0.4855 F500
G01 X43.7504 Y50.7574 Z-0.4776 F500
G01 X43.8372 Y50.7107 Z-0.4688 F500
G01 X43.8846 Y50.6890 Z-0.4641 F500
G01 X43.9349 Y50.6686 Z-0.4595 F500
G01 X43.9883 Y50.6502 Z-0.4554 F500
G01 X44.0447 Y50.6335 Z-0.4516 F500
G01 X44.1040 Y50.6187 Z-0.4480 F500
G01 X44.1663 Y50.6057 Z-0.4446 F500
G01 X44.2315 Y50.5947 Z-0.4413 F500
G01 X44.2997 Y50.5857 Z-0.4382 F500
G01 X44.3707 Y50.5787 Z-0.4352 F500
G01 X44.4447 Y50.5737 Z-0.4323 F500
G01 X44.4932 Y50.5714 Z-0.4305 F500
G01 X44.5600 Y50.5699 Z-0.4278 F500
G01 X44.6068 Y50.5698 Z-0.4259 F500
G01 X44.6553 Y50.5705 Z-0.4239 F500
G01 X44.7056 Y50.5719 Z-0.4218 F500
G01 X44.7576 Y50.5741 Z-0.4196 F500
G01 X44.8113 Y50.5773 Z-0.4176 F500
G01 X44.8666 Y50.5818 Z-0.4158 F500
G01 X44.9235 Y50.5874 Z-0.4144 F500
G01 X44.9819 Y50.5943 Z-0.4133 F500
G01 X45.0431 Y50.6026 Z-0.4127 F500
G01 X45.1027 Y50.6118 Z-0.4126 F500
G01 X45.1611 Y50.6218 Z-0.4129 F500
G01 X45.2183 Y50.6327 Z-0.4136 F500
G01 X45.3516 Y50.5470 Z-0.3039 F500
G01 X45.5644 Y50.3770 Z-0.0911 F500
G01 X45.6555 Y50.3062 Z0.0000 F500
G01 X45.4698 Y50.4518 Z-0.1857 F500
G01 X45.3493 Y50.5488 Z-0.3062 F500
G01 X45.2484 Y50.6459 Z-0.4071 F500
G01 X45.3245 Y50.7429 Z-0.3310 F500
G01 X45.4699 Y50.9370 Z-0.1857 F500
G01 X45.5406 Y51.0340 Z-0.1149 F500
G01 X45.6087 Y51.1310 Z-0.0468 F500
G01 X45.6555 Y51.1796 Z0.0000 F500
G01 X45.6297 Y51.1538 Z-0.0258 F500
G01 X45.6102 Y51.1469 Z-0.0326 F500
G01 X45.6044 Y51.1248 Z-0.0511 F500
G01 X45.5841 Y51.0954 Z-0.0714 F500
G01 X45.5361 Y51.0277 Z-0.1195 F500
G01 X45.4452 Y50.9037 Z-0.2103 F500
G01 X45.3321 Y50.7529 Z-0.3234 F500
G01 X45.3052 Y50.7179 Z-0.3504 F500
G01 X45.2568 Y50.6565 Z-0.3987 F500
G01 X45.2300 Y50.6350 Z-0.4138 F500
G01 X45.1694 Y50.6233 Z-0.4130 F500
G01 X45.1091 Y50.6128 Z-0.4126 F500
G01 X45.0490 Y50.6035 Z-0.4127 F500
G01 X44.9890 Y50.5952 Z-0.4132 F500
G01 X44.9293 Y50.5880 Z-0.4143 F500
G01 X44.8696 Y50.5820 Z-0.4157 F500
G01 X44.8100 Y50.5772 Z-0.4176 F500
G01 X44.7506 Y50.5737 Z-0.4199 F500
G01 X44.6682 Y50.5708 Z-0.4234 F500
G01 X44.6241 Y50.5700 Z-0.4252 F500
G01 X44.5806 Y50.5698 Z-0.4270 F500
G01 X44.5378 Y50.5702 Z-0.4287 F500
G01 X44.4957 Y50.5713 Z-0.4304 F500
G01 X44.4132 Y50.5754 Z-0.4336 F500
G01 X44.3330 Y50.5820 Z-0.4369 F500
G01 X44.2547 Y50.5913 Z-0.4403 F500
G01 X44.1779 Y50.6036 Z-0.4440 F500
G01 X44.1022 Y50.6191 Z-0.4481 F500
G01 X44.0271 Y50.6384 Z-0.4528 F500
G01 X43.9522 Y50.6624 Z-0.4582 F500
G01 X43.9031 Y50.6812 Z-0.4624 F500
G01 X43.8367 Y50.7109 Z-0.4688 F500
G01 X43.7718 Y50.7448 Z-0.4755 F500
G01 X43.7090 Y50.7833 Z-0.4819 F500
G01 X43.6485 Y50.8260 Z-0.4880 F500
G01 X43.5910 Y50.8730 Z-0.4936 F500
G01 X43.5371 Y50.9243 Z-0.4983 F500
G01 X43.4871 Y50.9793 Z-0.5021 F500
G01 X43.4416 Y51.0380 Z-0.5044 F500
G01 X43.4007 Y51.0998 Z-0.5055 F500
G01 X43.3660 Y51.1609 Z-0.5053 F500
G01 X43.3339 Y51.2251 Z-0.5043 F500
G01 X43.3054 Y51.2908 Z-0.5024 F500
G01 X43.2800 Y51.3577 Z-0.5003 F500
G01 X43.2577 Y51.4255 Z-0.4980 F500
G01 X43.2383 Y51.4941 Z-0.4958 F500
G01 X43.2217 Y51.5633 Z-0.4939 F500
G01 X43.2078 Y51.6331 Z-0.4923 F500
G01 X43.1964 Y51.7032 Z-0.4911 F500
G01 X43.1876 Y51.7738 Z-0.4905 F500
G01 X43.1812 Y51.8425 Z-0.4904 F500
G01 X43.1768 Y51.9033 Z-0.4905 F500
G01 X43.1732 Y51.9672 Z-0.4904 F500
G01 X43.1704 Y52.0344 Z-0.4899 F500
G01 X43.1685 Y52.1050 Z-0.4891 F500
G01 X43.1655 Y52.3379 Z-0.4866 F500
G01 X43.1647 Y55.2103 Z-0.4858 F500
G01 Y55.2571 Z-0.4880 F500
G01 Y55.3047 Z-0.4948 F500
G01 Y55.3496 Z-0.5053 F500
G01 Y55.3919 Z-0.5186 F500
G01 Y55.4317 Z-0.5338 F500
G01 Y55.4686 Z-0.5502 F500
G01 Y55.5022 Z-0.5667 F500
G01 Y55.5379 Z-0.5859 F500
G01 Y55.5697 Z-0.6043 F500
G01 Y55.6036 Z-0.6250 F500
G01 X43.3079 Y55.6185 Z-0.5329 F500
G01 X43.4242 Z-0.4668 F500
G01 X43.5059 Z-0.4331 F500
G01 X43.5674 Z-0.4166 F500
G01 X43.6183 Z-0.4095 F500
G01 X43.7006 Z-0.4082 F500
G01 X45.2044 F500
G01 X45.3046 Y55.5612 Z-0.3509 F500
G01 X45.6555 Y55.2103 Z0.0000 F500
G01 X45.2983 Y55.5675 Z-0.3572 F500
G01 Y55.6696 F500
G01 X45.6555 Y56.0268 Z0.0000 F500
G01 X45.3046 Y55.6759 Z-0.3509 F500
G01 X45.2044 Y55.6185 Z-0.4082 F500
G01 X43.6505 F500
G01 X43.6111 Z-0.4101 F500
G01 X43.5711 Z-0.4159 F500
G01 X43.5334 Z-0.4247 F500
G01 X43.4978 Z-0.4358 F500
G01 X43.4644 Z-0.4486 F500
G01 X43.4288 Z-0.4645 F500
G01 X43.3954 Z-0.4814 F500
G01 X43.3593 Z-0.5015 F500
G01 X43.3257 Z-0.5216 F500
G01 X43.2893 Z-0.5451 F500
G01 X43.2562 Z-0.5675 F500
G01 X43.2202 Z-0.5931 F500
G01 X43.1890 Z-0.6161 F500
G01 X43.1647 Y55.6929 Z-0.5894 F500
G01 Y55.7951 Z-0.5382 F500
G01 Y55.8783 Z-0.5079 F500
G01 Y55.9455 Z-0.4925 F500
G01 Y56.0013 Z-0.4864 F500
G01 Y57.1489 Z-0.4858 F500
G01 X43.2114 Y57.2465 Z-0.4391 F500
G01 X43.6505 Y57.6856 Z0.0000 F500
G01 X43.2133 Y57.2484 Z-0.4372 F500
G01 X43.1161 F500
G01 X42.6789 Y57.6856 Z0.0000 F500
G01 X43.1180 Y57.2465 Z-0.4391 F500
G01 X43.1647 Y57.1489 Z-0.4858 F500
G01 Y56.0268 F500
G01 Y55.9800 Z-0.4880 F500
G01 Y55.9323 Z-0.4948 F500
G01 Y55.8875 Z-0.5053 F500
G01 Y55.8452 Z-0.5186 F500
G01 Y55.8054 Z-0.5338 F500
G01 Y55.7685 Z-0.5502 F500
G01 Y55.7349 Z-0.5667 F500
G01 Y55.6991 Z-0.5859 F500
G01 Y55.6673 Z-0.6043 F500
G01 Y55.6334 Z-0.6250 F500
G01 X43.0215 Y55.6185 Z-0.5329 F500
G01 X42.9052 Z-0.4668 F500
G01 X42.8235 Z-0.4331 F500
G01 X42.7620 Z-0.4166 F500
G01 X42.7111 Z-0.4095 F500
G01 X42.6321 Z-0.4082 F500
G01 X42.4446 F500
G01 X42.3508 Y55.6986 Z-0.3281 F500
G01 X42.0695 Y55.9799 Z-0.0469 F500
G01 X42.0227 Y56.0268 Z0.0000 F500
G00 Z15.0000 F480
G00 X40.6873 Y50.3031 F2100
G01 Z-0.0486 F500
G01 X40.2987 Y50.6917 Z-0.4372 F500
G01 X40.2016 F500
G01 X39.7644 Y50.2545 Z0.0000 F500
G01 X40.2123 Y50.7024 Z-0.4478 F500
G01 X40.2502 Y50.8019 Z-0.4858 F500
G01 Y55.4794 F500
G01 X40.2123 Y55.5789 Z-0.4478 F500
G01 X39.7644 Y56.0268 Z0.0000 F500
G01 X40.2016 Y55.5896 Z-0.4372 F500
G01 X40.2987 F500
G01 X40.7359 Y56.0268 Z0.0000 F500
G01 X40.2881 Y55.5789 Z-0.4478 F500
G01 X40.2502 Y55.4794 Z-0.4858 F500
G01 Y50.8019 F500
G01 X40.2881 Y50.7024 Z-0.4478 F500
G01 X40.6862 Y50.3043 Z-0.0498 F500
G01 X40.7359 Y50.2545 Z0.0000 F500
G00 Z15.0000 F480
G00 X50.6368 Y55.3966 F2100
G01 Z-0.4513 F500
G01 X50.5831 Y55.4211 Z-0.4491 F500
G01 X50.5293 Y55.4448 Z-0.4471 F500
G01 X50.4754 Y55.4677 Z-0.4451 F500
G01 X50.4213 Y55.4897 Z-0.4432 F500
G01 X50.3670 Y55.5110 Z-0.4414 F500
G01 X50.3126 Y55.5315 Z-0.4397 F500
G01 X50.2598 Y55.5506 Z-0.4381 F500
G01 X50.2055 Y55.5694 Z-0.4367 F500
G01 X50.1513 Y55.5874 Z-0.4354 F500
G01 X50.0972 Y55.6046 Z-0.4343 F500
G01 X50.0431 Y55.6209 Z-0.4333 F500
G01 X49.9889 Y55.6361 Z-0.4324 F500
G01 X49.9348 Y55.6504 Z-0.4315 F500
G01 X49.8806 Y55.6635 Z-0.4305 F500
G01 X49.8265 Y55.6756 Z-0.4295 F500
G01 X49.7723 Y55.6867 Z-0.4286 F500
G01 X49.7182 Y55.6967 Z-0.4277 F500
G01 X49.6640 Y55.7056 Z-0.4267 F500
G01 X49.6099 Y55.7135 Z-0.4259 F500
G01 X49.5559 Y55.7204 Z-0.4250 F500
G01 X49.5018 Y55.7262 Z-0.4243 F500
G01 X49.4479 Y55.7310 Z-0.4235 F500
G01 X49.3939 Y55.7347 Z-0.4228 F500
G01 X49.3400 Y55.7374 Z-0.4222 F500
G01 X49.2862 Y55.7391 Z-0.4217 F500
G01 X49.2325 Y55.7397 Z-0.4211 F500
G01 X49.1575 Y55.7388 Z-0.4208 F500
G01 X49.0618 Y55.7352 Z-0.4205 F500
G01 X48.9672 Y55.7286 F500
G01 X48.8738 Y55.7189 Z-0.4209 F500
G01 X48.7816 Y55.7061 Z-0.4217 F500
G01 X48.6905 Y55.6899 Z-0.4227 F500
G01 X48.6006 Y55.6705 Z-0.4241 F500
G01 X48.5120 Y55.6477 Z-0.4257 F500
G01 X48.4247 Y55.6214 Z-0.4276 F500
G01 X48.3388 Y55.5915 Z-0.4297 F500
G01 X48.2544 Y55.5580 Z-0.4321 F500
G01 X48.1716 Y55.5209 Z-0.4346 F500
G01 X48.0906 Y55.4801 Z-0.4373 F500
G01 X48.0114 Y55.4357 Z-0.4402 F500
G01 X47.9341 Y55.3877 Z-0.4432 F500
G01 X47.8589 Y55.3361 Z-0.4463 F500
G01 X47.7860 Y55.2809 Z-0.4495 F500
G01 X47.7153 Y55.2223 Z-0.4528 F500
G01 X47.6469 Y55.1604 Z-0.4561 F500
G01 X47.5809 Y55.0952 Z-0.4596 F500
G01 X47.5167 Y55.0258 Z-0.4631 F500
G01 X47.4552 Y54.9527 Z-0.4667 F500
G01 X47.3970 Y54.8765 Z-0.4702 F500
G01 X47.3420 Y54.7972 Z-0.4738 F500
G01 X47.2904 Y54.7150 Z-0.4773 F500
G01 X47.2422 Y54.6299 Z-0.4806 F500
G01 X47.1976 Y54.5422 Z-0.4838 F500
G01 X47.1564 Y54.4518 Z-0.4867 F500
G01 X47.1187 Y54.3590 Z-0.4895 F500
G01 X47.0844 Y54.2637 Z-0.4920 F500
G01 X47.0536 Y54.1661 Z-0.4942 F500
G01 X47.0261 Y54.0663 Z-0.4962 F500
G01 X47.0019 Y53.9643 Z-0.4980 F500
G01 X46.9810 Y53.8601 Z-0.4995 F500
G01 X46.9632 Y53.7539 Z-0.5007 F500
G01 X46.9485 Y53.6455 Z-0.5017 F500
G01 X46.9369 Y53.5351 Z-0.5025 F500
G01 X46.9282 Y53.4227 Z-0.5031 F500
G01 X46.9225 Y53.3082 Z-0.5035 F500
G01 X46.9197 Y53.1916 Z-0.5037 F500
G01 X46.9195 Y53.0756 Z-0.5039 F500
G01 X46.9221 Y52.9619 F500
G01 X46.9274 Y52.8500 Z-0.5038 F500
G01 X46.9354 Y52.7400 Z-0.5037 F500
G01 X46.9463 Y52.6318 Z-0.5035 F500
G01 X46.9600 Y52.5255 Z-0.5031 F500
G01 X46.9766 Y52.4210 Z-0.5027 F500
G01 X46.9963 Y52.3185 Z-0.5021 F500
G01 X47.0191 Y52.2178 Z-0.5014 F500
G01 X47.0451 Y52.1191 Z-0.5004 F500
G01 X47.0744 Y52.0225 Z-0.4991 F500
G01 X47.1070 Y51.9279 Z-0.4975 F500
G01 X47.1429 Y51.8355 Z-0.4959 F500
G01 X47.1821 Y51.7453 Z-0.4942 F500
G01 X47.2246 Y51.6574 Z-0.4922 F500
G01 X47.2706 Y51.5720 Z-0.4901 F500
G01 X47.3201 Y51.4893 Z-0.4877 F500
G01 X47.3731 Y51.4093 Z-0.4849 F500
G01 X47.4296 Y51.3323 Z-0.4818 F500
G01 X47.4896 Y51.2585 Z-0.4782 F500
G01 X47.5561 Y51.1850 Z-0.4742 F500
G01 X47.6222 Y51.1186 Z-0.4706 F500
G01 X47.6911 Y51.0558 Z-0.4668 F500
G01 X47.7628 Y50.9967 Z-0.4628 F500
G01 X47.8369 Y50.9414 Z-0.4586 F500
G01 X47.9134 Y50.8899 Z-0.4544 F500
G01 X47.9921 Y50.8422 Z-0.4503 F500
G01 X48.0728 Y50.7984 Z-0.4462 F500
G01 X48.1554 Y50.7584 Z-0.4423 F500
G01 X48.2396 Y50.7221 Z-0.4386 F500
G01 X48.3255 Y50.6898 Z-0.4348 F500
G01 X48.4129 Y50.6610 Z-0.4314 F500
G01 X48.5015 Y50.6356 Z-0.4285 F500
G01 X48.5914 Y50.6136 Z-0.4261 F500
G01 X48.6825 Y50.5948 Z-0.4242 F500
G01 X48.7749 Y50.5791 Z-0.4227 F500
G01 X48.8685 Y50.5666 Z-0.4217 F500
G01 X48.9633 Y50.5573 Z-0.4210 F500
G01 X49.0594 Y50.5509 Z-0.4208 F500
G01 X49.1567 Y50.5475 Z-0.4210 F500
G01 X49.2231 Y50.5466 Z-0.4211 F500
G01 X49.2932 Y50.5474 Z-0.4217 F500
G01 X49.3635 Y50.5499 Z-0.4224 F500
G01 X49.4338 Y50.5541 Z-0.4233 F500
G01 X49.5043 Y50.5600 Z-0.4242 F500
G01 X49.5749 Y50.5677 Z-0.4252 F500
G01 X49.6456 Y50.5772 Z-0.4262 F500
G01 X49.7163 Y50.5885 Z-0.4272 F500
G01 X49.7870 Y50.6016 Z-0.4281 F500
G01 X49.8578 Y50.6166 Z-0.4289 F500
G01 X49.9280 Y50.6334 Z-0.4295 F500
G01 X49.9963 Y50.6514 Z-0.4298 F500
G01 X50.0635 Y50.6709 Z-0.4300 F500
G01 X50.1297 Y50.6913 Z-0.4302 F500
G01 X50.1950 Y50.7129 Z-0.4307 F500
G01 X50.2593 Y50.7353 Z-0.4314 F500
G01 X50.3227 Y50.7588 Z-0.4325 F500
G01 X50.3852 Y50.7832 Z-0.4338 F500
G01 X50.4469 Y50.8085 Z-0.4356 F500
G01 X50.5077 Y50.8348 Z-0.4378 F500
G01 X50.5649 Y50.8607 Z-0.4402 F500
G01 X50.6114 Y50.8825 Z-0.4424 F500
G01 X50.6558 Y50.9075 Z-0.4412 F500
G01 X50.7297 Y51.0328 Z-0.3673 F500
G01 X50.7996 Y51.1545 Z-0.2974 F500
G01 X50.8655 Y51.2728 Z-0.2315 F500
G01 X50.9156 Y51.3665 Z-0.1814 F500
G01 X50.9788 Y51.4876 Z-0.1182 F500
G01 X51.0238 Y51.5764 Z-0.0732 F500
G01 X51.0548 Y51.6394 Z-0.0422 F500
G01 X51.0712 Y51.6601 Z-0.0259 F500
G01 X51.0970 Y51.6859 Z0.0000 F500
G01 X51.0537 Y51.6373 Z-0.0433 F500
G01 X51.0055 Y51.5401 Z-0.0915 F500
G01 X50.9556 Y51.4428 Z-0.1414 F500
G01 X50.9046 Y51.3456 Z-0.1924 F500
G01 X50.8521 Y51.2483 Z-0.2449 F500
G01 X50.7976 Y51.1511 Z-0.2994 F500
G01 X50.7419 Y51.0539 Z-0.3551 F500
G01 X50.6850 Y50.9566 Z-0.4120 F500
G01 X50.7180 Y50.8594 Z-0.3790 F500
G01 X51.0201 Y50.6649 Z-0.0769 F500
G01 X51.0970 Y50.6163 Z0.0000 F500
G00 Z15.0000 F480
G00 X50.7207 Y55.4420 F2100
G01 Z-0.3763 F500
G01 X50.9205 Y55.5704 Z-0.1765 F500
G01 X51.0970 Y55.6805 Z0.0000 F500
G01 X51.0177 Y55.6314 Z-0.0793 F500
G01 X50.7100 Y55.4351 Z-0.3870 F500
G01 X50.6791 Y55.3369 Z-0.4179 F500
G01 X50.7372 Y55.2387 Z-0.3598 F500
G01 X50.7937 Y55.1405 Z-0.3033 F500
G01 X50.8486 Y55.0423 Z-0.2484 F500
G01 X50.9020 Y54.9441 Z-0.1950 F500
G01 X50.9539 Y54.8460 Z-0.1431 F500
G01 X51.0043 Y54.7478 Z-0.0927 F500
G01 X51.0532 Y54.6496 Z-0.0438 F500
G01 X51.0970 Y54.6005 Z0.0000 F500
G00 Z15.0000 F480
G00 X56.6828 Y53.6470 F2100
G01 Z-0.4862 F500
G01 X56.6832 Y50.8023 Z-0.4858 F500
G01 X56.6456 Y50.7027 Z-0.4482 F500
G01 X56.1975 Y50.2545 Z0.0000 F500
G01 X56.6346 Y50.6917 Z-0.4372 F500
G01 X56.7318 F500
G01 X57.1690 Y50.2545 Z0.0000 F500
G01 X56.7133 Y50.7102 Z-0.4557 F500
G01 X56.6832 Y50.8114 Z-0.4858 F500
G01 X56.6817 Y53.7479 Z-0.4873 F500
G01 X56.6798 Y53.8492 Z-0.4892 F500
G01 X56.6771 Y53.9504 Z-0.4919 F500
G01 X56.6734 Y54.0476 Z-0.4950 F500
G01 X56.6684 Y54.1389 Z-0.4978 F500
G01 X56.6618 Y54.2271 Z-0.5001 F500
G01 X56.6536 Y54.3122 Z-0.5019 F500
G01 X56.6439 Y54.3941 Z-0.5033 F500
G01 X56.6324 Y54.4729 Z-0.5045 F500
G01 X56.6190 Y54.5485 Z-0.5056 F500
G01 X56.6039 Y54.6210 Z-0.5067 F500
G01 X56.5870 Y54.6904 Z-0.5077 F500
G01 X56.5684 Y54.7566 Z-0.5087 F500
G01 X56.5482 Y54.8198 Z-0.5097 F500
G01 X56.5265 Y54.8800 Z-0.5108 F500
G01 X56.5033 Y54.9372 Z-0.5117 F500
G01 X56.4787 Y54.9916 Z-0.5128 F500
G01 X56.4527 Y55.0431 Z-0.5137 F500
G01 X56.4254 Y55.0920 Z-0.5147 F500
G01 X56.3972 Y55.1385 Z-0.5153 F500
G01 X56.3677 Y55.1828 Z-0.5158 F500
G01 X56.3370 Y55.2248 Z-0.5160 F500
G01 X56.3051 Y55.2649 Z-0.5161 F500
G01 X56.2720 Y55.3029 F500
G01 X56.2029 Y55.3726 Z-0.5154 F500
G01 X56.1291 Y55.4351 Z-0.5137 F500
G01 X56.0493 Y55.4914 Z-0.5110 F500
G01 X55.9620 Y55.5424 Z-0.5072 F500
G01 X55.9151 Y55.5660 Z-0.5049 F500
G01 X55.8657 Y55.5882 Z-0.5025 F500
G01 X55.8137 Y55.6090 Z-0.4997 F500
G01 X55.7590 Y55.6286 Z-0.4965 F500
G01 X55.7013 Y55.6467 Z-0.4931 F500
G01 X55.6407 Y55.6631 Z-0.4896 F500
G01 X55.5770 Y55.6777 Z-0.4859 F500
G01 X55.5102 Y55.6903 Z-0.4822 F500
G01 X55.4402 Y55.7009 Z-0.4784 F500
G01 X55.3671 Y55.7094 Z-0.4746 F500
G01 X55.2908 Y55.7156 Z-0.4707 F500
G01 X55.2311 Y55.7189 Z-0.4678 F500
G01 X55.1484 Y55.7206 Z-0.4635 F500
G01 X55.0659 Y55.7194 Z-0.4587 F500
G01 X54.9835 Y55.7153 Z-0.4534 F500
G01 X54.9009 Y55.7080 Z-0.4476 F500
G01 X54.8180 Y55.6974 Z-0.4416 F500
G01 X54.7349 Y55.6833 Z-0.4356 F500
G01 X54.6513 Y55.6656 Z-0.4293 F500
G01 X54.5672 Y55.6444 Z-0.4228 F500
G01 X54.4826 Y55.6195 Z-0.4161 F500
G01 X54.3966 Y55.5905 Z-0.4091 F500
G01 X54.3524 Y55.5744 Z-0.4056 F500
G01 X54.3082 Y55.5573 Z-0.4020 F500
G01 X54.2640 Y55.5395 Z-0.3986 F500
G01 X54.2198 Y55.5207 Z-0.3951 F500
G01 X54.1756 Y55.5012 Z-0.3917 F500
G01 X54.1313 Y55.4807 Z-0.3883 F500
G01 X54.0871 Y55.4594 Z-0.3850 F500
G01 X54.0428 Y55.4373 Z-0.3817 F500
G01 X53.9986 Y55.4142 Z-0.3785 F500
G01 X53.9543 Y55.3904 Z-0.3752 F500
G01 X53.9100 Y55.3658 Z-0.3718 F500
G01 X53.8656 Y55.3404 Z-0.3683 F500
G01 X53.8212 Y55.3142 Z-0.3647 F500
G01 X53.7766 Y55.2873 Z-0.3611 F500
G01 X53.7321 Y55.2595 Z-0.3574 F500
G01 X53.6875 Y55.2309 Z-0.3536 F500
G01 X53.6428 Y55.2015 Z-0.3497 F500
G01 X53.5981 Y55.1712 Z-0.3458 F500
G01 X53.5219 Y55.1180 Z-0.3392 F500
G01 X53.4922 Y55.0986 Z-0.3382 F500
G01 X53.4617 Y55.0806 Z-0.3392 F500
G01 X53.4327 Y55.0653 Z-0.3419 F500
G01 X53.4025 Y55.0511 Z-0.3463 F500
G01 X53.3740 Y55.0391 Z-0.3520 F500
G01 X53.3441 Y55.0280 Z-0.3593 F500
G01 X53.3160 Y55.0187 Z-0.3673 F500
G01 X53.2864 Y55.0101 Z-0.3769 F500
G01 X53.2553 Y55.0023 Z-0.3881 F500
G01 X53.2262 Y54.9959 Z-0.3998 F500
G01 X53.1954 Y54.9904 Z-0.4130 F500
G01 X53.1627 Y54.9854 Z-0.4281 F500
G01 X53.1325 Y54.9819 Z-0.4430 F500
G01 X53.1004 Y54.9789 Z-0.4597 F500
G01 X53.0663 Y54.9768 Z-0.4783 F500
G01 X53.0299 Y54.9754 Z-0.4992 F500
G01 X52.9966 Y54.9751 Z-0.5191 F500
G01 X52.9608 Z-0.5417 F500
G01 X52.9284 Z-0.5634 F500
G01 X52.8936 Y55.0293 Z-0.5512 F500
G01 X52.8703 Y55.0999 Z-0.5279 F500
G01 X52.8527 Y55.1677 Z-0.5103 F500
G01 X52.8408 Y55.2293 Z-0.4984 F500
G01 X52.8329 Y55.2897 Z-0.4905 F500
G01 X52.8290 Y55.3451 Z-0.4866 F500
G01 X52.8282 Y55.4361 Z-0.4858 F500
G01 Y57.7436 F500
G01 X52.8625 Y57.8439 Z-0.4515 F500
G01 X53.3139 Y58.2953 Z0.0000 F500
G01 X52.8767 Y57.8582 Z-0.4372 F500
G01 X52.7796 F500
G01 X52.3424 Y58.2953 Z0.0000 F500
G01 X52.7947 Y57.8430 Z-0.4523 F500
G01 X52.8282 Y57.7425 Z-0.4858 F500
G01 Y55.4308 F500
G01 X52.8298 Y55.3303 Z-0.4874 F500
G01 X52.8407 Y55.2298 Z-0.4983 F500
G01 X52.8621 Y55.1293 Z-0.5197 F500
G01 X52.8938 Y55.0288 Z-0.5514 F500
G01 X52.8963 Y54.9282 Z-0.5539 F500
G01 X52.8639 Y54.8277 Z-0.5215 F500
G01 X52.8418 Y54.7272 Z-0.4994 F500
G01 X52.8302 Y54.6267 Z-0.4878 F500
G01 X52.8282 Y54.5262 Z-0.4858 F500
G01 Y50.8073 F500
G01 X52.7947 Y50.7068 Z-0.4523 F500
G01 X52.3424 Y50.2545 Z0.0000 F500
G01 X52.7796 Y50.6917 Z-0.4372 F500
G01 X52.8767 F500
G01 X53.2653 Y50.3031 Z-0.0486 F500
G01 X53.3139 Y50.2545 Z0.0000 F500
G00 Z15.0000 F480
G00 X65.0842 Y57.9209 F2100
G01 Z-0.0541 F500
G01 X65.1843 Y57.8078 Z-0.1671 F500
G01 X65.3845 Y57.5581 Z-0.4169 F500
G01 X65.4846 Y57.6245 Z-0.3504 F500
G01 X65.8351 Y57.9750 Z0.0000 F500
G01 X65.4833 Y57.6232 Z-0.3518 F500
G01 X65.3964 Y57.5227 Z-0.4387 F500
G01 X65.3790 Y57.4222 Z-0.4561 F500
G01 X65.3577 Y57.3217 Z-0.4774 F500
G01 X65.3322 Y57.2212 Z-0.5028 F500
G01 X65.3023 Y57.1207 Z-0.5327 F500
G01 X65.2686 Y57.0202 Z-0.5665 F500
G01 X65.2311 Y56.9196 Z-0.6040 F500
G01 X65.1898 Y56.8191 Z-0.6453 F500
G01 X65.2020 Y56.7186 Z-0.6331 F500
G01 X65.2497 Y56.6181 Z-0.5853 F500
G01 X65.2873 Y56.5176 Z-0.5478 F500
G01 X65.3146 Y56.4171 Z-0.5204 F500
G01 X65.3318 Y56.3166 Z-0.5033 F500
G01 X65.3388 Y56.2161 Z-0.4963 F500
G01 X65.3390 Y50.9966 Z-0.4980 F500
G01 Y50.9346 Z-0.5072 F500
G01 Y50.8643 Z-0.5263 F500
G01 X65.3490 Y50.7977 Z-0.5431 F500
G01 X65.3816 Y50.7782 Z-0.5237 F500
G01 X65.4130 Y50.7606 Z-0.5061 F500
G01 X65.4477 Y50.7428 Z-0.4883 F500
G01 X65.4812 Y50.7270 Z-0.4724 F500
G01 X65.5137 Y50.7130 Z-0.4585 F500
G01 X65.5453 Y50.7007 Z-0.4462 F500
G01 X65.5799 Y50.6887 Z-0.4342 F500
G01 X65.6135 Y50.6785 Z-0.4240 F500
G01 X65.6465 Y50.6699 Z-0.4154 F500
G01 X65.6824 Y50.6621 Z-0.4076 F500
G01 X65.7177 Y50.6560 Z-0.4015 F500
G01 X65.7560 Y50.6512 Z-0.3967 F500
G01 X65.7939 Y50.6483 Z-0.3938 F500
G01 X65.8351 Y50.6473 Z-0.3927 F500
G01 X66.9642 F500
G01 X67.0624 Y50.6964 Z-0.3436 F500
G01 X67.4060 Y51.0400 Z0.0000 F500
G01 X67.0624 Y50.6964 Z-0.3436 F500
G01 Y50.5982 F500
G01 X67.4060 Y50.2545 Z0.0000 F500
G01 X67.0589 Y50.6016 Z-0.3471 F500
G01 X66.9598 Y50.6473 Z-0.3927 F500
G01 X65.8689 F500
G01 X65.7697 Y50.6500 Z-0.3955 F500
G01 X65.6706 Y50.6645 Z-0.4100 F500
G01 X65.5714 Y50.6915 Z-0.4370 F500
G01 X65.4722 Y50.7311 Z-0.4765 F500
G01 X65.3731 Y50.7831 Z-0.5286 F500
G01 X65.2739 Y50.7655 Z-0.5110 F500
G01 X65.1747 Y50.7174 Z-0.4628 F500
G01 X65.0756 Y50.6817 Z-0.4272 F500
G01 X64.9764 Y50.6586 Z-0.4041 F500
G01 X64.8772 Y50.6480 Z-0.3935 F500
G01 X64.7781 Y50.6473 Z-0.3927 F500
G01 X63.6872 F500
G01 X63.5880 Y50.6016 Z-0.3471 F500
G01 X63.2409 Y50.2545 Z0.0000 F500
G01 X63.5846 Y50.5982 Z-0.3436 F500
G01 Y50.6964 F500
G01 X63.2409 Y51.0400 Z0.0000 F500
G01 X63.5914 Y50.6896 Z-0.3504 F500
G01 X63.6915 Y50.6473 Z-0.3927 F500
G01 X64.8669 Y50.6476 Z-0.3931 F500
G01 X64.9116 Y50.6503 Z-0.3957 F500
G01 X64.9568 Y50.6555 Z-0.4010 F500
G01 X65.0063 Y50.6643 Z-0.4097 F500
G01 X65.0607 Y50.6775 Z-0.4229 F500
G01 X65.1210 Y50.6965 Z-0.4420 F500
G01 X65.1926 Y50.7251 Z-0.4706 F500
G01 X65.2738 Y50.7655 Z-0.5109 F500
G01 X65.3390 Y50.8191 Z-0.5430 F500
G01 Y50.8594 Z-0.5279 F500
G01 Y50.9024 Z-0.5148 F500
G01 Y50.9436 Z-0.5054 F500
G01 Y50.9879 Z-0.4988 F500
G01 Y51.0357 Z-0.4961 F500
G01 X65.3389 Y56.2103 Z-0.4962 F500
G01 X65.3368 Y56.2623 Z-0.4982 F500
G01 X65.3315 Y56.3191 Z-0.5036 F500
G01 X65.3219 Y56.3812 Z-0.5131 F500
G01 X65.3081 Y56.4447 Z-0.5269 F500
G01 X65.2881 Y56.5149 Z-0.5469 F500
G01 X65.2620 Y56.5881 Z-0.5731 F500
G01 X65.2286 Y56.6652 Z-0.6064 F500
G01 X65.1866 Y56.7473 Z-0.6485 F500
G01 X65.1420 Y56.7719 Z-0.6478 F500
G01 X65.1089 Y56.7677 Z-0.6294 F500
G01 X65.0712 Y56.7624 Z-0.6095 F500
G01 X65.0355 Y56.7566 Z-0.5916 F500
G01 X64.9961 Y56.7496 Z-0.5731 F500
G01 X64.9587 Y56.7421 Z-0.5570 F500
G01 X64.9231 Y56.7343 Z-0.5429 F500
G01 X64.8844 Y56.7248 Z-0.5291 F500
G01 X64.8429 Y56.7135 Z-0.5162 F500
G01 X64.7928 Y56.6996 Z-0.5023 F500
G01 X64.6927 Y56.6740 Z-0.4767 F500
G01 X64.5926 Y56.6523 Z-0.4550 F500
G01 X64.4925 Y56.6340 Z-0.4367 F500
G01 X64.3923 Y56.6185 Z-0.4212 F500
G01 X64.2922 Y56.6054 Z-0.4081 F500
G01 X64.1921 Y56.5941 Z-0.3969 F500
G01 X64.0920 Y56.5846 Z-0.3873 F500
G01 X63.9918 Y56.5764 Z-0.3791 F500
G01 X63.8917 Y56.5699 Z-0.3726 F500
G01 X63.7916 Y56.5641 Z-0.3668 F500
G01 X63.6915 Y56.5592 Z-0.3619 F500
G01 X63.5914 Y56.5477 Z-0.3504 F500
G01 X63.2409 Y56.1973 Z0.0000 F500
G01 X63.5923 Y56.5487 Z-0.3514 F500
G01 X63.4992 Y56.6491 Z-0.2583 F500
G01 X63.3942 Y56.7495 Z-0.1533 F500
G01 X63.2409 Y56.9001 Z0.0000 F500
G01 X63.3595 Y56.7831 Z-0.1186 F500
G01 X63.5454 Y56.6056 Z-0.3045 F500
G01 X63.6234 Y56.5564 Z-0.3591 F500
G01 X63.7371 Y56.5613 Z-0.3641 F500
G01 X63.8140 Y56.5653 Z-0.3681 F500
G01 X63.9709 Y56.5750 Z-0.3777 F500
G01 X64.0163 Y56.5783 Z-0.3810 F500
G01 X64.0970 Y56.5851 Z-0.3878 F500
G01 X64.1753 Y56.5925 Z-0.3952 F500
G01 X64.2514 Y56.6006 Z-0.4033 F500
G01 X64.3256 Y56.6095 Z-0.4122 F500
G01 X64.3980 Y56.6193 Z-0.4220 F500
G01 X64.4692 Y56.6302 Z-0.4329 F500
G01 X64.5394 Y56.6422 Z-0.4449 F500
G01 X64.6094 Y56.6557 Z-0.4584 F500
G01 X64.6797 Y56.6710 Z-0.4737 F500
G01 X64.7527 Y56.6889 Z-0.4916 F500
G01 X64.8267 Y56.7090 Z-0.5117 F500
G01 X64.9024 Y56.7294 Z-0.5354 F500
G01 X65.0252 Y56.7549 Z-0.5866 F500
G01 X65.1637 Y56.7745 Z-0.6603 F500
G01 X65.1859 Y56.8101 Z-0.6492 F500
G01 X65.2030 Y56.8503 Z-0.6321 F500
G01 X65.2193 Y56.8901 Z-0.6158 F500
G01 X65.2349 Y56.9295 Z-0.6002 F500
G01 X65.2498 Y56.9686 Z-0.5853 F500
G01 X65.2640 Y57.0073 Z-0.5711 F500
G01 X65.2775 Y57.0457 Z-0.5576 F500
G01 X65.2904 Y57.0837 Z-0.5447 F500
G01 X65.3026 Y57.1215 Z-0.5325 F500
G01 X65.3142 Y57.1589 Z-0.5209 F500
G01 X65.3267 Y57.2016 Z-0.5084 F500
G01 X65.3383 Y57.2438 Z-0.4968 F500
G01 X65.3490 Y57.2855 Z-0.4861 F500
G01 X65.3588 Y57.3267 Z-0.4762 F500
G01 X65.3679 Y57.3676 Z-0.4672 F500
G01 X65.3763 Y57.4082 Z-0.4588 F500
G01 X65.3839 Y57.4486 Z-0.4512 F500
G01 X65.3909 Y57.4887 Z-0.4441 F500
G01 X65.3973 Y57.5286 Z-0.4378 F500
G01 X65.3695 Y57.5780 Z-0.3970 F500
G01 X65.3312 Y57.6280 Z-0.3470 F500
G01 X65.2940 Y57.6753 Z-0.2997 F500
G01 X65.2576 Y57.7203 Z-0.2547 F500
G01 X65.2221 Y57.7633 Z-0.2117 F500
G01 X65.1871 Y57.8046 Z-0.1704 F500
G01 X65.1525 Y57.8444 Z-0.1305 F500
G01 X65.1184 Y57.8830 Z-0.0920 F500
G01 X65.0845 Y57.9205 Z-0.0545 F500
G01 X65.0508 Y57.9571 Z-0.0179 F500
G00 Z15.0000 F480
G00 X98.9990 Y53.7403 F2100
G01 Z-0.5322 F500
G01 X99.0489 Y53.7157 Z-0.5338 F500
G01 X99.0979 Y53.6900 Z-0.5355 F500
G01 X99.1461 Y53.6631 Z-0.5373 F500
G01 X99.1934 Y53.6349 Z-0.5392 F500
G01 X99.2399 Y53.6053 Z-0.5411 F500
G01 X99.2853 Y53.5743 Z-0.5431 F500
G01 X99.3298 Y53.5418 Z-0.5451 F500
G01 X99.3732 Y53.5077 Z-0.5471 F500
G01 X99.4155 Y53.4720 Z-0.5490 F500
G01 X99.4555 Y53.4355 Z-0.5509 F500
G01 X99.5010 Y53.3903 Z-0.5531 F500
G01 X99.5439 Y53.3426 Z-0.5551 F500
G01 X99.5838 Y53.2926 Z-0.5567 F500
G01 X99.6205 Y53.2402 Z-0.5574 F500
G01 X99.6537 Y53.1859 Z-0.5573 F500
G01 X99.6836 Y53.1300 Z-0.5568 F500
G01 X99.7102 Y53.0728 Z-0.5555 F500
G01 X99.7337 Y53.0145 Z-0.5539 F500
G01 X99.7543 Y52.9554 Z-0.5520 F500
G01 X99.7721 Y52.8956 Z-0.5499 F500
G01 X99.7874 Y52.8354 Z-0.5477 F500
G01 X99.8004 Y52.7746 Z-0.5454 F500
G01 X99.8111 Y52.7135 Z-0.5432 F500
G01 X99.8197 Y52.6519 Z-0.5410 F500
G01 X99.8263 Y52.5900 Z-0.5389 F500
G01 X99.8312 Y52.5277 Z-0.5368 F500
G01 X99.8342 Y52.4649 Z-0.5348 F500
G01 X99.8355 Y52.4017 Z-0.5328 F500
G01 X99.8344 Y52.3379 Z-0.5301 F500
G01 X99.8302 Y52.2647 Z-0.5263 F500
G01 X99.8215 Y52.1824 Z-0.5214 F500
G01 X99.8086 Y52.1010 Z-0.5161 F500
G01 X99.7916 Y52.0206 Z-0.5106 F500
G01 X99.7705 Y51.9416 Z-0.5051 F500
G01 X99.7457 Y51.8641 Z-0.4997 F500
G01 X99.7172 Y51.7881 Z-0.4946 F500
G01 X99.6855 Y51.7137 Z-0.4903 F500
G01 X99.6503 Y51.6413 Z-0.4864 F500
G01 X99.6116 Y51.5709 Z-0.4826 F500
G01 X99.5693 Y51.5027 Z-0.4790 F500
G01 X99.5237 Y51.4370 Z-0.4755 F500
G01 X99.4748 Y51.3738 Z-0.4721 F500
G01 X99.4229 Y51.3132 Z-0.4688 F500
G01 X99.3681 Y51.2553 Z-0.4655 F500
G01 X99.3105 Y51.2001 Z-0.4622 F500
G01 X99.2503 Y51.1475 Z-0.4589 F500
G01 X99.1878 Y51.0974 Z-0.4558 F500
G01 X99.1232 Y51.0495 Z-0.4531 F500
G01 X99.0565 Y51.0038 Z-0.4507 F500
G01 X98.9892 Y50.9610 Z-0.4487 F500
G01 X98.9178 Y50.9191 Z-0.4468 F500
G01 X98.8447 Y50.8797 Z-0.4453 F500
G01 X98.7699 Y50.8426 Z-0.4442 F500
G01 X98.6934 Y50.8078 Z-0.4434 F500
G01 X98.6153 Y50.7753 Z-0.4429 F500
G01 X98.5355 Y50.7450 Z-0.4427 F500
G01 X98.4541 Y50.7169 Z-0.4429 F500
G01 X98.3710 Y50.6911 Z-0.4432 F500
G01 X98.2862 Y50.6679 F500
G01 X98.1996 Y50.6471 Z-0.4431 F500
G01 X98.1114 Y50.6285 F500
G01 X98.0215 Y50.6124 Z-0.4428 F500
G01 X97.9300 Y50.5984 Z-0.4426 F500
G01 X97.8368 Y50.5865 Z-0.4424 F500
G01 X97.7420 Y50.5767 Z-0.4422 F500
G01 X97.6454 Y50.5689 Z-0.4420 F500
G01 X97.5472 Y50.5631 Z-0.4419 F500
G01 X97.4473 Y50.5592 Z-0.4418 F500
G01 X97.3457 Y50.5572 Z-0.4419 F500
G01 X97.2565 Y50.5571 F500
G01 X97.1803 Y50.5581 Z-0.4424 F500
G01 X97.1037 Y50.5602 Z-0.4432 F500
G01 X97.0267 Y50.5635 Z-0.4444 F500
G01 X96.9494 Y50.5679 Z-0.4459 F500
G01 X96.8716 Y50.5734 Z-0.4477 F500
G01 X96.7935 Y50.5801 Z-0.4498 F500
G01 X96.7149 Y50.5880 Z-0.4522 F500
G01 X96.6359 Y50.5971 Z-0.4548 F500
G01 X96.5564 Y50.6075 Z-0.4577 F500
G01 X96.4766 Y50.6190 Z-0.4607 F500
G01 X96.3963 Y50.6319 Z-0.4638 F500
G01 X96.3156 Y50.6462 Z-0.4670 F500
G01 X96.2344 Y50.6618 Z-0.4703 F500
G01 X96.1529 Y50.6787 Z-0.4737 F500
G01 X96.0710 Y50.6971 Z-0.4770 F500
G01 X95.9887 Y50.7170 Z-0.4802 F500
G01 X95.9061 Y50.7384 Z-0.4834 F500
G01 X95.8231 Y50.7613 Z-0.4864 F500
G01 X95.7398 Y50.7856 Z-0.4893 F500
G01 X95.6556 Y50.8115 Z-0.4924 F500
G01 X95.5711 Y50.8388 Z-0.4956 F500
G01 X95.4873 Y50.8673 Z-0.4989 F500
G01 X95.4043 Y50.8969 Z-0.5024 F500
G01 X95.3219 Y50.9278 Z-0.5061 F500
G01 X95.2402 Y50.9598 Z-0.5100 F500
G01 X95.1592 Y50.9928 Z-0.5141 F500
G01 X95.0788 Y51.0271 Z-0.5185 F500
G01 X94.9991 Y51.0625 Z-0.5231 F500
G01 X94.9345 Y51.1256 Z-0.4977 F500
G01 X94.8353 Y51.2961 Z-0.3984 F500
G01 X94.7881 Y51.3797 Z-0.3513 F500
G01 X94.7425 Y51.4623 Z-0.3057 F500
G01 X94.6985 Y51.5440 Z-0.2616 F500
G01 X94.6559 Y51.6247 Z-0.2190 F500
G01 X94.6147 Y51.7045 Z-0.1779 F500
G01 X94.5749 Y51.7835 Z-0.1380 F500
G01 X94.5364 Y51.8617 Z-0.0995 F500
G01 X94.4992 Y51.9392 Z-0.0623 F500
G01 X94.4730 Y51.9754 Z-0.0362 F500
G01 X94.4369 Y52.0115 Z0.0000 F500
G01 X94.4861 Y51.9622 Z-0.0493 F500
G01 X94.5841 Y51.7651 Z-0.1472 F500
G01 X94.6341 Y51.6665 Z-0.1972 F500
G01 X94.6857 Y51.5679 Z-0.2488 F500
G01 X94.7387 Y51.4693 Z-0.3019 F500
G01 X94.7931 Y51.3707 Z-0.3563 F500
G01 X94.8489 Y51.2721 Z-0.4121 F500
G01 X94.9061 Y51.1736 Z-0.4692 F500
G01 X94.9558 Y51.0750 Z-0.5189 F500
G01 X94.4369 Y50.7299 Z0.0000 F500
G01 X94.9255 Y51.0544 Z-0.4886 F500
G01 X95.0019 Y51.0612 Z-0.5229 F500
G01 X95.0642 Y51.0335 Z-0.5193 F500
G01 X95.1264 Y51.0066 Z-0.5158 F500
G01 X95.1885 Y50.9807 Z-0.5125 F500
G01 X95.2506 Y50.9556 Z-0.5094 F500
G01 X95.3126 Y50.9314 Z-0.5065 F500
G01 X95.3745 Y50.9079 Z-0.5036 F500
G01 X95.4363 Y50.8853 Z-0.5010 F500
G01 X95.4980 Y50.8636 Z-0.4985 F500
G01 X95.5595 Y50.8426 Z-0.4960 F500
G01 X95.6210 Y50.8224 Z-0.4936 F500
G01 X95.6823 Y50.8031 Z-0.4914 F500
G01 X95.7435 Y50.7845 Z-0.4892 F500
G01 X95.8046 Y50.7666 Z-0.4870 F500
G01 X95.8655 Y50.7494 Z-0.4848 F500
G01 X95.9252 Y50.7333 Z-0.4826 F500
G01 X95.9859 Y50.7177 Z-0.4804 F500
G01 X96.0475 Y50.7026 Z-0.4779 F500
G01 X96.1101 Y50.6881 Z-0.4754 F500
G01 X96.1736 Y50.6743 Z-0.4728 F500
G01 X96.2382 Y50.6610 Z-0.4702 F500
G01 X96.3037 Y50.6484 Z-0.4675 F500
G01 X96.3702 Y50.6364 Z-0.4648 F500
G01 X96.4377 Y50.6251 Z-0.4621 F500
G01 X96.5062 Y50.6146 Z-0.4595 F500
G01 X96.5757 Y50.6048 Z-0.4569 F500
G01 X96.6462 Y50.5959 Z-0.4545 F500
G01 X96.7176 Y50.5877 Z-0.4521 F500
G01 X96.7901 Y50.5805 Z-0.4499 F500
G01 X96.8635 Y50.5741 Z-0.4479 F500
G01 X96.9379 Y50.5686 Z-0.4461 F500
G01 X97.0132 Y50.5642 Z-0.4446 F500
G01 X97.0895 Y50.5608 Z-0.4434 F500
G01 X97.1667 Y50.5584 Z-0.4425 F500
G01 X97.2449 Y50.5571 Z-0.4420 F500
G01 X97.3200 Y50.5570 Z-0.4418 F500
G01 X97.3909 Y50.5578 Z-0.4417 F500
G01 X97.4605 Y50.5596 Z-0.4418 F500
G01 X97.5289 Y50.5622 Z-0.4419 F500
G01 X97.5959 Y50.5656 Z-0.4418 F500
G01 X97.6615 Y50.5700 Z-0.4420 F500
G01 X97.7259 Y50.5752 Z-0.4421 F500
G01 X97.7890 Y50.5812 F500
G01 X97.8507 Y50.5881 Z-0.4424 F500
G01 X97.9110 Y50.5958 Z-0.4425 F500
G01 X97.9701 Y50.6041 Z-0.4426 F500
G01 X98.0278 Y50.6134 Z-0.4428 F500
G01 X98.0842 Y50.6234 Z-0.4429 F500
G01 X98.1392 Y50.6341 Z-0.4430 F500
G01 X98.1929 Y50.6456 Z-0.4431 F500
G01 X98.2453 Y50.6576 Z-0.4430 F500
G01 X98.2963 Y50.6705 Z-0.4432 F500
G01 X98.3460 Y50.6839 Z-0.4431 F500
G01 X98.3944 Y50.6981 Z-0.4430 F500
G01 X98.4415 Y50.7128 Z-0.4429 F500
G01 X98.4902 Y50.7289 Z-0.4426 F500
G01 X98.5381 Y50.7460 Z-0.4427 F500
G01 X98.5854 Y50.7635 F500
G01 X98.6318 Y50.7819 Z-0.4429 F500
G01 X98.6775 Y50.8009 Z-0.4432 F500
G01 X98.7224 Y50.8205 Z-0.4435 F500
G01 X98.7664 Y50.8409 Z-0.4441 F500
G01 X98.8097 Y50.8618 Z-0.4446 F500
G01 X98.8522 Y50.8836 Z-0.4454 F500
G01 X98.8939 Y50.9058 Z-0.4462 F500
G01 X98.9348 Y50.9288 Z-0.4472 F500
G01 X98.9749 Y50.9524 Z-0.4482 F500
G01 X99.0143 Y50.9766 Z-0.4493 F500
G01 X99.0529 Y51.0015 Z-0.4506 F500
G01 X99.0909 Y51.0267 Z-0.4517 F500
G01 X99.1279 Y51.0529 Z-0.4533 F500
G01 X99.1643 Y51.0794 Z-0.4546 F500
G01 X99.1999 Y51.1068 Z-0.4563 F500
G01 X99.2347 Y51.1346 Z-0.4579 F500
G01 X99.2688 Y51.1631 Z-0.4597 F500
G01 X99.3263 Y51.2146 Z-0.4630 F500
G01 X99.3800 Y51.2674 Z-0.4661 F500
G01 X99.4305 Y51.3218 Z-0.4692 F500
G01 X99.4780 Y51.3778 Z-0.4723 F500
G01 X99.5226 Y51.4356 Z-0.4754 F500
G01 X99.5643 Y51.4952 Z-0.4786 F500
G01 X99.6033 Y51.5568 Z-0.4818 F500
G01 X99.6395 Y51.6205 Z-0.4852 F500
G01 X99.6729 Y51.6864 Z-0.4887 F500
G01 X99.7036 Y51.7547 Z-0.4924 F500
G01 X99.7337 Y51.8302 Z-0.4972 F500
G01 X99.7582 Y51.9010 Z-0.5020 F500
G01 X99.7789 Y51.9707 Z-0.5070 F500
G01 X99.7960 Y52.0394 Z-0.5118 F500
G01 X99.8097 Y52.1070 Z-0.5165 F500
G01 X99.8204 Y52.1737 Z-0.5208 F500
G01 X99.8281 Y52.2397 Z-0.5248 F500
G01 X99.8331 Y52.3050 Z-0.5283 F500
G01 X99.8353 Y52.3699 Z-0.5314 F500
G01 X99.8352 Y52.4346 Z-0.5338 F500
G01 X99.8335 Y52.4845 Z-0.5353 F500
G01 X99.8296 Y52.5506 Z-0.5374 F500
G01 X99.8240 Y52.6141 Z-0.5395 F500
G01 X99.8167 Y52.6750 Z-0.5417 F500
G01 X99.8078 Y52.7333 Z-0.5438 F500
G01 X99.7975 Y52.7890 Z-0.5459 F500
G01 X99.7858 Y52.8421 Z-0.5479 F500
G01 X99.7729 Y52.8927 Z-0.5497 F500
G01 X99.7589 Y52.9409 Z-0.5514 F500
G01 X99.7278 Y53.0301 Z-0.5543 F500
G01 X99.6930 Y53.1108 Z-0.5562 F500
G01 X99.6548 Y53.1838 Z-0.5573 F500
G01 X99.6135 Y53.2507 Z-0.5572 F500
G01 X99.5684 Y53.3127 Z-0.5560 F500
G01 X99.5173 Y53.3728 Z-0.5537 F500
G01 X99.4548 Y53.4361 Z-0.5509 F500
G01 X99.3841 Y53.4987 Z-0.5475 F500
G01 X99.3047 Y53.5604 Z-0.5438 F500
G01 X99.2614 Y53.5908 Z-0.5418 F500
G01 X99.2158 Y53.6209 Z-0.5399 F500
G01 X99.1677 Y53.6504 Z-0.5380 F500
G01 X99.1171 Y53.6795 Z-0.5361 F500
G01 X99.0639 Y53.7080 Z-0.5342 F500
G01 X99.0083 Y53.7359 Z-0.5325 F500
G01 X98.9500 Y53.7631 Z-0.5308 F500
G01 X98.8892 Y53.7895 Z-0.5291 F500
G01 X98.8259 Y53.8152 Z-0.5276 F500
G01 X98.7600 Y53.8401 Z-0.5262 F500
G01 X98.6915 Y53.8639 Z-0.5250 F500
G01 X98.6205 Y53.8869 Z-0.5239 F500
G01 X98.5469 Y53.9090 Z-0.5228 F500
G01 X98.4938 Y53.9239 Z-0.5222 F500
G01 X98.4120 Y53.9451 Z-0.5212 F500
G01 X98.3262 Y53.9663 Z-0.5203 F500
G01 X98.2361 Y53.9874 Z-0.5196 F500
G01 X98.1420 Y54.0084 Z-0.5189 F500
G01 X97.9933 Y54.0395 Z-0.5183 F500
G01 X97.8354 Y54.0699 Z-0.5184 F500
G01 X97.6686 Y54.0996 Z-0.5191 F500
G01 X97.2041 Y54.1768 Z-0.5225 F500
G01 X96.9032 Y54.2315 Z-0.5230 F500
G01 X96.6497 Y54.2813 Z-0.5235 F500
G01 X96.5754 Y54.2970 Z-0.5236 F500
G01 X96.5161 Y54.3104 Z-0.5238 F500
G01 X96.4466 Y54.3275 Z-0.5240 F500
G01 X96.3785 Y54.3455 Z-0.5244 F500
G01 X96.3118 Y54.3643 Z-0.5247 F500
G01 X96.2464 Y54.3841 Z-0.5252 F500
G01 X96.1824 Y54.4049 Z-0.5258 F500
G01 X96.1197 Y54.4268 Z-0.5263 F500
G01 X96.0582 Y54.4498 Z-0.5269 F500
G01 X95.9980 Y54.4740 Z-0.5276 F500
G01 X95.9390 Y54.4993 Z-0.5284 F500
G01 X95.8811 Y54.5260 Z-0.5294 F500
G01 X95.8245 Y54.5541 Z-0.5305 F500
G01 X95.7689 Y54.5837 Z-0.5316 F500
G01 X95.7146 Y54.6149 Z-0.5329 F500
G01 X95.6614 Y54.6478 Z-0.5343 F500
G01 X95.6095 Y54.6827 Z-0.5357 F500
G01 X95.5589 Y54.7196 Z-0.5373 F500
G01 X95.5096 Y54.7586 Z-0.5389 F500
G01 X95.4619 Y54.7999 Z-0.5406 F500
G01 X95.4159 Y54.8436 Z-0.5423 F500
G01 X95.3727 Y54.8886 Z-0.5440 F500
G01 X95.3332 Y54.9347 Z-0.5450 F500
G01 X95.2958 Y54.9826 Z-0.5458 F500
G01 X95.2608 Y55.0322 Z-0.5465 F500
G01 X95.2280 Y55.0834 Z-0.5469 F500
G01 X95.1979 Y55.1361 F500
G01 X95.1703 Y55.1900 Z-0.5467 F500
G01 X95.1451 Y55.2451 Z-0.5463 F500
G01 X95.1224 Y55.3011 Z-0.5457 F500
G01 X95.1021 Y55.3579 Z-0.5449 F500
G01 X95.0844 Y55.4155 Z-0.5438 F500
G01 X95.0688 Y55.4737 Z-0.5426 F500
G01 X95.0555 Y55.5325 Z-0.5413 F500
G01 X95.0443 Y55.5917 Z-0.5399 F500
G01 X95.0351 Y55.6513 Z-0.5386 F500
G01 X95.0278 Y55.7112 Z-0.5372 F500
G01 X95.0224 Y55.7716 Z-0.5358 F500
G01 X95.0187 Y55.8323 Z-0.5345 F500
G01 X95.0167 Y55.8933 Z-0.5331 F500
G01 X95.0166 Y55.9547 Z-0.5317 F500
G01 X95.0189 Y56.0244 Z-0.5297 F500
G01 X95.0250 Y56.1022 Z-0.5273 F500
G01 X95.0351 Y56.1795 Z-0.5246 F500
G01 X95.0493 Y56.2561 Z-0.5217 F500
G01 X95.0676 Y56.3316 Z-0.5185 F500
G01 X95.0900 Y56.4059 Z-0.5151 F500
G01 X95.1165 Y56.4787 Z-0.5114 F500
G01 X95.1473 Y56.5495 Z-0.5071 F500
G01 X95.1818 Y56.6184 Z-0.5028 F500
G01 X95.2200 Y56.6851 Z-0.4983 F500
G01 X95.2615 Y56.7494 Z-0.4937 F500
G01 X95.3062 Y56.8112 Z-0.4892 F500
G01 X95.3538 Y56.8706 Z-0.4847 F500
G01 X95.4040 Y56.9275 Z-0.4804 F500
G01 X95.4568 Y56.9820 Z-0.4763 F500
G01 X95.5118 Y57.0341 Z-0.4724 F500
G01 X95.5690 Y57.0839 Z-0.4688 F500
G01 X95.6280 Y57.1316 Z-0.4657 F500
G01 X95.6890 Y57.1774 Z-0.4629 F500
G01 X95.7519 Y57.2211 Z-0.4604 F500
G01 X95.8190 Y57.2641 Z-0.4581 F500
G01 X95.8864 Y57.3039 Z-0.4561 F500
G01 X95.9552 Y57.3414 Z-0.4542 F500
G01 X96.0255 Y57.3766 Z-0.4526 F500
G01 X96.0971 Y57.4095 Z-0.4511 F500
G01 X96.1702 Y57.4401 Z-0.4496 F500
G01 X96.2445 Y57.4683 Z-0.4482 F500
G01 X96.3201 Y57.4944 Z-0.4471 F500
G01 X96.3970 Y57.5183 Z-0.4460 F500
G01 X96.4750 Y57.5401 Z-0.4452 F500
G01 X96.5543 Y57.5598 Z-0.4445 F500
G01 X96.6347 Y57.5775 Z-0.4439 F500
G01 X96.7164 Y57.5929 Z-0.4433 F500
G01 X96.7993 Y57.6063 Z-0.4428 F500
G01 X96.8833 Y57.6178 Z-0.4424 F500
G01 X96.9685 Y57.6273 Z-0.4421 F500
G01 X97.0550 Y57.6350 Z-0.4420 F500
G01 X97.1426 Y57.6407 Z-0.4419 F500
G01 X97.2315 Y57.6444 Z-0.4418 F500
G01 X97.3216 Y57.6462 Z-0.4417 F500
G01 X97.4080 Y57.6466 Z-0.4419 F500
G01 X97.4901 Y57.6455 Z-0.4422 F500
G01 X97.5720 Y57.6433 Z-0.4427 F500
G01 X97.6539 Y57.6400 Z-0.4435 F500
G01 X97.7356 Y57.6355 Z-0.4445 F500
G01 X97.8172 Y57.6299 Z-0.4457 F500
G01 X97.8987 Y57.6231 Z-0.4471 F500
G01 X97.9800 Y57.6151 Z-0.4487 F500
G01 X98.0613 Y57.6059 Z-0.4505 F500
G01 X98.1424 Y57.5955 Z-0.4524 F500
G01 X98.2235 Y57.5839 Z-0.4545 F500
G01 X98.3044 Y57.5711 Z-0.4568 F500
G01 X98.3852 Y57.5569 Z-0.4591 F500
G01 X98.4658 Y57.5414 Z-0.4615 F500
G01 X98.5463 Y57.5247 Z-0.4640 F500
G01 X98.6267 Y57.5066 Z-0.4665 F500
G01 X98.7069 Y57.4872 Z-0.4691 F500
G01 X98.7870 Y57.4664 Z-0.4717 F500
G01 X98.8670 Y57.4444 Z-0.4745 F500
G01 X98.9468 Y57.4214 Z-0.4776 F500
G01 X99.0220 Y57.3988 Z-0.4806 F500
G01 X99.1000 Y57.3744 Z-0.4836 F500
G01 X99.1769 Y57.3494 Z-0.4869 F500
G01 X99.2527 Y57.3235 Z-0.4902 F500
G01 X99.3274 Y57.2969 Z-0.4936 F500
G01 X99.4010 Y57.2695 Z-0.4971 F500
G01 X99.4735 Y57.2413 Z-0.5007 F500
G01 X99.5450 Y57.2122 Z-0.5045 F500
G01 X99.6412 Y57.0679 Z-0.4179 F500
G01 X99.7271 Y56.9235 Z-0.3321 F500
G01 X99.7673 Y56.8536 Z-0.2919 F500
G01 X99.8057 Y56.7852 Z-0.2535 F500
G01 X99.8424 Y56.7183 Z-0.2168 F500
G01 X99.8774 Y56.6529 Z-0.1817 F500
G01 X99.9108 Y56.5888 Z-0.1484 F500
G01 X99.9426 Y56.5262 Z-0.1166 F500
G01 X99.9727 Y56.4649 Z-0.0864 F500
G01 X100.0014 Y56.4050 Z-0.0578 F500
G01 X100.0230 Y56.3781 Z-0.0362 F500
G01 X100.0592 Y56.3420 Z0.0000 F500
G01 X100.0088 Y56.3924 Z-0.0504 F500
G01 X99.9590 Y56.4931 Z-0.1002 F500
G01 X99.9082 Y56.5939 Z-0.1510 F500
G01 X99.8552 Y56.6947 Z-0.2039 F500
G01 X99.8001 Y56.7954 Z-0.2591 F500
G01 X99.7430 Y56.8962 Z-0.3162 F500
G01 X99.6839 Y56.9970 Z-0.3753 F500
G01 X99.6231 Y57.0977 Z-0.4361 F500
G01 X99.5605 Y57.1985 Z-0.4987 F500
G01 X99.8322 Y57.4001 Z-0.2269 F500
G01 X99.9827 Y57.5008 Z-0.0764 F500
G01 X100.0592 Y57.5512 Z0.0000 F500
G00 Z15.0000 F480
G00 X105.1839 Y55.5464 F2100
G01 Z-0.4803 F500
G01 X104.8341 Y56.0268 Z0.0000 F500
G01 X105.1845 Y55.5455 Z-0.4812 F500
G01 X105.2847 Y55.5418 Z-0.4850 F500
G01 X105.5850 Y55.9575 Z-0.0693 F500
G01 X105.6351 Y56.0268 Z0.0000 F500
G00 Z15.0000 F480
G00 X105.5850 Y55.9574 F2100
G01 Z-0.0693 F500
G01 X105.3847 Y55.6802 Z-0.3466 F500
G01 X105.2363 Y55.4202 Z-0.5690 F500
G01 X105.2367 Y55.3148 Z-0.6017 F500
G01 X105.3214 Y55.2373 Z-0.5457 F500
G01 X105.4014 Y55.1582 Z-0.4945 F500
G01 X105.4698 Y55.0753 Z-0.4556 F500
G01 X105.5267 Y54.9886 Z-0.4288 F500
G01 X105.5720 Y54.8981 Z-0.4142 F500
G01 X105.6063 Y54.8039 Z-0.4112 F500
G01 X106.7303 Y51.4185 Z-0.4070 F500
G01 X106.7453 Y51.3785 Z-0.4086 F500
G01 X106.7642 Y51.3357 Z-0.4130 F500
G01 X106.7877 Y51.2899 Z-0.4208 F500
G01 X106.8170 Y51.2408 Z-0.4330 F500
G01 X106.8535 Y51.1880 Z-0.4510 F500
G01 X106.9024 Y51.1275 Z-0.4782 F500
G01 X106.9650 Y51.0616 Z-0.5168 F500
G01 X107.0424 Y50.9927 Z-0.5684 F500
G01 X107.1277 Y50.9386 Z-0.6183 F500
G01 X107.1533 Y50.9594 Z-0.5988 F500
G01 X107.1820 Y50.9837 Z-0.5772 F500
G01 X107.2085 Y51.0075 Z-0.5575 F500
G01 X107.2331 Y51.0307 Z-0.5396 F500
G01 X107.2597 Y51.0573 Z-0.5206 F500
G01 X107.2841 Y51.0832 Z-0.5035 F500
G01 X107.3096 Y51.1122 Z-0.4860 F500
G01 X107.3330 Y51.1407 Z-0.4706 F500
G01 X107.3543 Y51.1686 Z-0.4570 F500
G01 X107.3761 Y51.1994 Z-0.4437 F500
G01 X107.3958 Y51.2298 Z-0.4323 F500
G01 X107.4137 Y51.2598 Z-0.4226 F500
G01 X107.4315 Y51.2929 Z-0.4136 F500
G01 X107.4475 Y51.3257 Z-0.4065 F500
G01 X107.4616 Y51.3584 Z-0.4011 F500
G01 X107.4753 Y51.3944 Z-0.3969 F500
G01 X107.4870 Y51.4306 Z-0.3947 F500
G01 X107.4978 Y51.4705 Z-0.3943 F500
G01 X108.4712 Y55.4877 Z-0.4650 F500
G01 X108.4641 Y55.5914 Z-0.4354 F500
G01 X108.1156 Y56.0268 Z0.0000 F500
G01 X108.4574 Y55.5998 Z-0.4270 F500
G01 X108.5551 Y55.6116 Z-0.4152 F500
G01 X109.0922 Y56.0268 Z0.0000 F500
G01 X108.5455 Y55.6042 Z-0.4226 F500
G01 X108.4788 Y55.5188 Z-0.4656 F500
G01 X107.4952 Y51.4602 Z-0.3942 F500
G01 X107.4645 Y51.3655 Z-0.4001 F500
G01 X107.4216 Y51.2740 Z-0.4185 F500
G01 X107.3665 Y51.1856 Z-0.4495 F500
G01 X107.2994 Y51.1003 Z-0.4930 F500
G01 X107.2201 Y51.0183 Z-0.5490 F500
G01 X107.1286 Y50.9393 Z-0.6176 F500
G01 X107.1411 Y50.8334 Z-0.5788 F500
G01 X107.5885 Y50.2545 Z0.0000 F500
G01 X107.1389 Y50.8362 Z-0.5817 F500
G01 X107.0390 Y50.7397 Z-0.4852 F500
G01 X106.6893 Y50.2545 Z0.0000 F500
G01 X106.9388 Y50.6006 Z-0.3461 F500
G01 X107.1227 Y50.8723 Z-0.6065 F500
G01 X107.0797 Y50.9632 Z-0.5945 F500
G01 X106.9897 Y51.0384 Z-0.5329 F500
G01 X106.9113 Y51.1174 Z-0.4835 F500
G01 X106.8445 Y51.2003 Z-0.4463 F500
G01 X106.7893 Y51.2871 Z-0.4214 F500
G01 X106.7457 Y51.3778 Z-0.4087 F500
G01 X106.7125 Y51.4719 Z-0.4070 F500
G01 X105.5923 Y54.8458 Z-0.4114 F500
G01 X105.5756 Y54.8895 Z-0.4135 F500
G01 X105.5562 Y54.9328 Z-0.4183 F500
G01 X105.5321 Y54.9791 Z-0.4266 F500
G01 X105.5021 Y55.0289 Z-0.4395 F500
G01 X105.4646 Y55.0824 Z-0.4584 F500
G01 X105.4143 Y55.1439 Z-0.4868 F500
G01 X105.3535 Y55.2073 Z-0.5246 F500
G01 X105.2747 Y55.2772 Z-0.5775 F500
G01 X105.2145 Y55.2915 Z-0.5878 F500
G01 X105.1846 Y55.2695 Z-0.5660 F500
G01 X105.1568 Y55.2478 Z-0.5462 F500
G01 X105.1310 Y55.2266 Z-0.5282 F500
G01 X105.1031 Y55.2023 Z-0.5091 F500
G01 X105.0773 Y55.1785 Z-0.4919 F500
G01 X105.0503 Y55.1518 Z-0.4743 F500
G01 X105.0255 Y55.1256 Z-0.4588 F500
G01 X105.0028 Y55.0998 Z-0.4451 F500
G01 X104.9819 Y55.0743 Z-0.4331 F500
G01 X104.9604 Y55.0460 Z-0.4213 F500
G01 X104.9408 Y55.0180 Z-0.4112 F500
G01 X104.9230 Y54.9902 Z-0.4028 F500
G01 X104.9050 Y54.9594 Z-0.3951 F500
G01 X104.8887 Y54.9287 Z-0.3890 F500
G01 X104.8728 Y54.8949 Z-0.3843 F500
G01 X104.8587 Y54.8608 Z-0.3813 F500
G01 X104.8453 Y54.8233 Z-0.3801 F500
G01 X103.7458 Y51.4584 Z-0.3666 F500
G01 X103.7101 Y51.3651 Z-0.3711 F500
G01 X103.6618 Y51.2761 Z-0.3890 F500
G01 X103.6005 Y51.1913 Z-0.4206 F500
G01 X103.5264 Y51.1108 Z-0.4656 F500
G01 X103.4394 Y51.0346 Z-0.5243 F500
G01 X103.3395 Y50.9626 Z-0.5965 F500
G01 X103.3015 Y50.8702 Z-0.6035 F500
G01 X103.3844 Y50.7377 Z-0.4832 F500
G01 X103.7334 Y50.2545 Z0.0000 F500
G01 X103.4851 Y50.5983 Z-0.3438 F500
G01 X103.2864 Y50.8344 Z-0.5799 F500
G01 X102.8394 Y50.2545 Z0.0000 F500
G01 X103.2871 Y50.8353 Z-0.5807 F500
G01 X103.3013 Y50.9419 Z-0.6216 F500
G01 X103.2180 Y51.0228 Z-0.5617 F500
G01 X103.1458 Y51.1067 Z-0.5132 F500
G01 X103.0846 Y51.1934 Z-0.4761 F500
G01 X103.0345 Y51.2831 Z-0.4505 F500
G01 X102.9954 Y51.3757 Z-0.4363 F500
G01 X102.9673 Y51.4712 Z-0.4333 F500
G01 X101.9536 Y55.5249 Z-0.4849 F500
G01 X101.8673 Y55.6050 Z-0.4218 F500
G01 X101.3201 Y56.0268 Z0.0000 F500
G01 X101.8772 Y55.5973 Z-0.4294 F500
G01 X101.9785 Y55.5784 Z-0.4483 F500
G01 X102.2823 Y55.9627 Z-0.0640 F500
G01 X102.3330 Y56.0268 Z0.0000 F500
G00 Z15.0000 F480
G00 X111.4861 Y57.0435 F2100
G01 Z-0.0504 F500
G01 X111.0831 Y57.4466 Z-0.4535 F500
G01 Y57.5473 F500
G01 X111.5365 Y58.0008 Z0.0000 F500
G01 X111.0883 Y57.5526 Z-0.4482 F500
G01 X110.9888 Y57.4969 Z-0.5038 F500
G01 X110.8892 Y57.5526 Z-0.4482 F500
G01 X110.4410 Y58.0008 Z0.0000 F500
G01 X110.8945 Y57.5473 Z-0.4535 F500
G01 Y57.4466 F500
G01 X110.4410 Y56.9931 Z0.0000 F500
G01 X110.8892 Y57.4413 Z-0.4482 F500
G01 X110.9888 Y57.4969 Z-0.5038 F500
G01 X111.0883 Y57.4413 Z-0.4482 F500
G01 X111.4867 Y57.0429 Z-0.0498 F500
G01 X111.5365 Y56.9931 Z0.0000 F500
G00 Z15.0000 F480
G00 X116.3431 Y55.9757 F2100
G01 Z-0.0510 F500
G01 X116.0369 Y55.6696 Z-0.3572 F500
G01 Y55.5675 F500
G01 X116.3941 Y55.2103 Z0.0000 F500
G01 X116.0432 Y55.5612 Z-0.3509 F500
G01 X115.9430 Y55.6185 Z-0.4082 F500
G01 X114.3569 Z-0.4095 F500
G01 X114.3060 Z-0.4166 F500
G01 X114.2445 Z-0.4331 F500
G01 X114.1628 Z-0.4668 F500
G01 X114.0465 Z-0.5329 F500
G01 X113.9033 Y55.6036 Z-0.6250 F500
G01 Y55.5697 Z-0.6043 F500
G01 Y55.5379 Z-0.5859 F500
G01 Y55.5022 Z-0.5667 F500
G01 Y55.4686 Z-0.5502 F500
G01 Y55.4317 Z-0.5338 F500
G01 Y55.3919 Z-0.5186 F500
G01 Y55.3496 Z-0.5053 F500
G01 Y55.3047 Z-0.4948 F500
G01 Y55.2571 Z-0.4880 F500
G01 Y55.2103 Z-0.4858 F500
G01 X113.9057 Y52.1791 Z-0.4882 F500
G01 X113.9071 Y52.1050 Z-0.4891 F500
G01 X113.9090 Y52.0344 Z-0.4899 F500
G01 X113.9118 Y51.9672 Z-0.4904 F500
G01 X113.9154 Y51.9033 Z-0.4905 F500
G01 X113.9198 Y51.8425 Z-0.4904 F500
G01 X113.9262 Y51.7738 Z-0.4905 F500
G01 X113.9350 Y51.7032 Z-0.4911 F500
G01 X113.9464 Y51.6331 Z-0.4923 F500
G01 X113.9603 Y51.5633 Z-0.4939 F500
G01 X113.9769 Y51.4941 Z-0.4958 F500
G01 X113.9963 Y51.4255 Z-0.4980 F500
G01 X114.0186 Y51.3576 Z-0.5003 F500
G01 X114.0440 Y51.2908 Z-0.5024 F500
G01 X114.0725 Y51.2251 Z-0.5043 F500
G01 X114.1046 Y51.1609 Z-0.5053 F500
G01 X114.1393 Y51.0998 Z-0.5055 F500
G01 X114.1802 Y51.0380 Z-0.5044 F500
G01 X114.2257 Y50.9793 Z-0.5021 F500
G01 X114.2757 Y50.9243 Z-0.4983 F500
G01 X114.3296 Y50.8730 Z-0.4936 F500
G01 X114.3871 Y50.8260 Z-0.4880 F500
G01 X114.4476 Y50.7833 Z-0.4819 F500
G01 X114.5104 Y50.7448 Z-0.4755 F500
G01 X114.5753 Y50.7110 Z-0.4688 F500
G01 X114.6417 Y50.6812 Z-0.4624 F500
G01 X114.6908 Y50.6624 Z-0.4582 F500
G01 X114.7657 Y50.6384 Z-0.4528 F500
G01 X114.8408 Y50.6191 Z-0.4481 F500
G01 X114.9165 Y50.6036 Z-0.4440 F500
G01 X114.9933 Y50.5913 Z-0.4403 F500
G01 X115.0716 Y50.5820 Z-0.4369 F500
G01 X115.1518 Y50.5754 Z-0.4336 F500
G01 X115.2343 Y50.5713 Z-0.4304 F500
G01 X115.2764 Y50.5702 Z-0.4287 F500
G01 X115.3192 Y50.5698 Z-0.4270 F500
G01 X115.3627 Y50.5700 Z-0.4252 F500
G01 X115.4068 Y50.5708 Z-0.4234 F500
G01 X115.4892 Y50.5737 Z-0.4199 F500
G01 X115.5486 Y50.5772 Z-0.4176 F500
G01 X115.6082 Y50.5820 Z-0.4157 F500
G01 X115.6679 Y50.5880 Z-0.4143 F500
G01 X115.7276 Y50.5952 Z-0.4132 F500
G01 X115.7876 Y50.6035 Z-0.4127 F500
G01 X115.8477 Y50.6128 Z-0.4126 F500
G01 X115.9080 Y50.6233 Z-0.4130 F500
G01 X115.9686 Y50.6350 Z-0.4138 F500
G01 X115.9954 Y50.6565 Z-0.3987 F500
G01 X116.0438 Y50.7179 Z-0.3504 F500
G01 X116.1486 Y50.8564 Z-0.2455 F500
G01 X116.2469 Y50.9893 Z-0.1473 F500
G01 X116.3000 Y51.0631 Z-0.0942 F500
G01 X116.3228 Y51.0954 Z-0.0714 F500
G01 X116.3430 Y51.1248 Z-0.0511 F500
G01 X116.3488 Y51.1469 Z-0.0327 F500
G01 X116.3683 Y51.1538 Z-0.0258 F500
G01 X116.3942 Y51.1796 Z0.0000 F500
G01 X116.3473 Y51.1310 Z-0.0468 F500
G01 X116.2792 Y51.0340 Z-0.1149 F500
G01 X116.2085 Y50.9370 Z-0.1857 F500
G01 X116.0631 Y50.7429 Z-0.3310 F500
G01 X115.9870 Y50.6459 Z-0.4071 F500
G01 X116.0879 Y50.5488 Z-0.3062 F500
G01 X116.2084 Y50.4518 Z-0.1857 F500
G01 X116.3941 Y50.3062 Z0.0000 F500
G01 X116.2313 Y50.4336 Z-0.1628 F500
G01 X116.0902 Y50.5470 Z-0.3039 F500
G01 X115.9569 Y50.6326 Z-0.4136 F500
G01 X115.8997 Y50.6218 Z-0.4129 F500
G01 X115.8413 Y50.6118 Z-0.4126 F500
G01 X115.7817 Y50.6026 Z-0.4127 F500
G01 X115.7205 Y50.5943 Z-0.4133 F500
G01 X115.6621 Y50.5874 Z-0.4144 F500
G01 X115.6052 Y50.5818 Z-0.4158 F500
G01 X115.5499 Y50.5773 Z-0.4176 F500
G01 X115.4962 Y50.5741 Z-0.4196 F500
G01 X115.4442 Y50.5719 Z-0.4218 F500
G01 X115.3939 Y50.5705 Z-0.4239 F500
G01 X115.3454 Y50.5698 Z-0.4259 F500
G01 X115.2986 Y50.5699 Z-0.4278 F500
G01 X115.2318 Y50.5714 Z-0.4305 F500
G01 X115.1833 Y50.5737 Z-0.4323 F500
G01 X115.1093 Y50.5787 Z-0.4352 F500
G01 X115.0383 Y50.5857 Z-0.4382 F500
G01 X114.9701 Y50.5947 Z-0.4413 F500
G01 X114.9049 Y50.6057 Z-0.4446 F500
G01 X114.8426 Y50.6187 Z-0.4480 F500
G01 X114.7833 Y50.6335 Z-0.4516 F500
G01 X114.7269 Y50.6502 Z-0.4554 F500
G01 X114.6736 Y50.6686 Z-0.4595 F500
G01 X114.6232 Y50.6890 Z-0.4641 F500
G01 X114.5758 Y50.7107 Z-0.4688 F500
G01 X114.4890 Y50.7574 Z-0.4776 F500
G01 X114.4119 Y50.8077 Z-0.4855 F500
G01 X114.3430 Y50.8615 Z-0.4922 F500
G01 X114.2810 Y50.9190 Z-0.4978 F500
G01 X114.2254 Y50.9798 Z-0.5021 F500
G01 X114.1764 Y51.0434 Z-0.5046 F500
G01 X114.1294 Y51.1163 Z-0.5054 F500
G01 X114.0843 Y51.2006 Z-0.5047 F500
G01 X114.0624 Y51.2474 Z-0.5036 F500
G01 X114.0412 Y51.2976 Z-0.5022 F500
G01 X114.0208 Y51.3514 Z-0.5005 F500
G01 X114.0015 Y51.4089 Z-0.4985 F500
G01 X113.9834 Y51.4701 Z-0.4965 F500
G01 X113.9668 Y51.5351 Z-0.4945 F500
G01 X113.9520 Y51.6039 Z-0.4928 F500
G01 X113.9391 Y51.6765 Z-0.4914 F500
G01 X113.9286 Y51.7529 Z-0.4905 F500
G01 X113.9205 Y51.8329 Z-0.4904 F500
G01 X113.9146 Y51.9166 F500
G01 X113.9102 Y52.0037 Z-0.4901 F500
G01 X113.9073 Y52.0944 Z-0.4892 F500
G01 X113.9045 Y52.2892 Z-0.4870 F500
G01 X113.9033 Y55.2357 Z-0.4864 F500
G01 Y55.2916 Z-0.4925 F500
G01 Y55.3588 Z-0.5079 F500
G01 Y55.4420 Z-0.5382 F500
G01 Y55.5441 Z-0.5894 F500
G01 X113.8790 Y55.6185 Z-0.6161 F500
G01 X113.8477 Z-0.5931 F500
G01 X113.8118 Z-0.5675 F500
G01 X113.7787 Z-0.5451 F500
G01 X113.7423 Z-0.5216 F500
G01 X113.7087 Z-0.5015 F500
G01 X113.6726 Z-0.4814 F500
G01 X113.6392 Z-0.4645 F500
G01 X113.6036 Z-0.4486 F500
G01 X113.5702 Z-0.4358 F500
G01 X113.5346 Z-0.4247 F500
G01 X113.4969 Z-0.4159 F500
G01 X113.4568 Z-0.4101 F500
G01 X113.4175 Z-0.4082 F500
G01 X113.1832 F500
G01 X113.0894 Y55.5384 Z-0.3281 F500
G01 X112.7613 Y55.2103 Z0.0000 F500
G01 X113.1185 Y55.5675 Z-0.3572 F500
G01 Y55.6696 F500
G01 X112.7613 Y56.0268 Z0.0000 F500
G01 X113.0894 Y55.6986 Z-0.3281 F500
G01 X113.1832 Y55.6185 Z-0.4082 F500
G01 X113.3707 F500
G01 X113.4497 Z-0.4095 F500
G01 X113.5006 Z-0.4166 F500
G01 X113.5621 Z-0.4331 F500
G01 X113.6438 Z-0.4668 F500
G01 X113.7601 Z-0.5329 F500
G01 X113.9033 Y55.6334 Z-0.6250 F500
G01 Y55.6673 Z-0.6043 F500
G01 Y55.6991 Z-0.5859 F500
G01 Y55.7349 Z-0.5667 F500
G01 Y55.7685 Z-0.5502 F500
G01 Y55.8054 Z-0.5338 F500
G01 Y55.8452 Z-0.5186 F500
G01 Y55.8875 Z-0.5053 F500
G01 Y55.9323 Z-0.4948 F500
G01 Y55.9800 Z-0.4880 F500
G01 Y56.0268 Z-0.4858 F500
G01 Y57.1489 F500
G01 X113.8566 Y57.2465 Z-0.4391 F500
G01 X113.4175 Y57.6856 Z0.0000 F500
G01 X113.8547 Y57.2484 Z-0.4372 F500
G01 X113.9519 F500
G01 X114.3891 Y57.6856 Z0.0000 F500
G01 X113.9500 Y57.2465 Z-0.4391 F500
G01 X113.9033 Y57.1489 Z-0.4858 F500
G01 Y56.0013 Z-0.4864 F500
G01 Y55.9455 Z-0.4925 F500
G01 Y55.8783 Z-0.5079 F500
G01 Y55.7951 Z-0.5382 F500
G01 Y55.6929 Z-0.5894 F500
G01 X113.9276 Y55.6185 Z-0.6161 F500
G01 X113.9588 Z-0.5931 F500
G01 X113.9948 Z-0.5675 F500
G01 X114.0279 Z-0.5451 F500
G01 X114.0643 Z-0.5216 F500
G01 X114.0979 Z-0.5015 F500
G01 X114.1340 Z-0.4814 F500
G01 X114.1674 Z-0.4645 F500
G01 X114.2030 Z-0.4486 F500
G01 X114.2364 Z-0.4358 F500
G01 X114.2720 Z-0.4247 F500
G01 X114.3097 Z-0.4159 F500
G01 X114.3497 Z-0.4101 F500
G01 X114.3891 Z-0.4082 F500
G01 X115.9430 F500
G01 X116.0432 Y55.6759 Z-0.3509 F500
G01 X116.3440 Y55.9766 Z-0.0501 F500
G01 X116.3941 Y56.0268 Z0.0000 F500
G00 Z15.0000 F480
G00 X120.2945 Y55.7204 F2100
G01 Z-0.4250 F500
G01 X120.3485 Y55.7135 Z-0.4259 F500
G01 X120.4027 Y55.7056 Z-0.4267 F500
G01 X120.4568 Y55.6967 Z-0.4277 F500
G01 X120.5109 Y55.6867 Z-0.4286 F500
G01 X120.5651 Y55.6756 Z-0.4295 F500
G01 X120.6192 Y55.6635 Z-0.4305 F500
G01 X120.6734 Y55.6504 Z-0.4315 F500
G01 X120.7275 Y55.6361 Z-0.4324 F500
G01 X120.7817 Y55.6209 Z-0.4333 F500
G01 X120.8358 Y55.6046 Z-0.4343 F500
G01 X120.8899 Y55.5874 Z-0.4354 F500
G01 X120.9441 Y55.5694 Z-0.4367 F500
G01 X120.9984 Y55.5506 Z-0.4381 F500
G01 X121.0512 Y55.5315 Z-0.4397 F500
G01 X121.1056 Y55.5110 Z-0.4414 F500
G01 X121.1599 Y55.4897 Z-0.4432 F500
G01 X121.2140 Y55.4677 Z-0.4451 F500
G01 X121.2679 Y55.4448 Z-0.4471 F500
G01 X121.3217 Y55.4211 Z-0.4491 F500
G01 X121.3754 Y55.3966 Z-0.4513 F500
G01 X121.4489 Y55.2845 Z-0.3867 F500
G01 X121.5165 Y55.1682 Z-0.3191 F500
G01 X121.5813 Y55.0529 Z-0.2543 F500
G01 X121.6436 Y54.9384 Z-0.1920 F500
G01 X121.7036 Y54.8244 Z-0.1320 F500
G01 X121.7615 Y54.7108 Z-0.0741 F500
G01 X121.7896 Y54.6540 Z-0.0460 F500
G01 X121.8098 Y54.6263 Z-0.0259 F500
G01 X121.8356 Y54.6005 Z0.0000 F500
G01 X121.7918 Y54.6496 Z-0.0438 F500
G01 X121.7429 Y54.7478 Z-0.0927 F500
G01 X121.6925 Y54.8460 Z-0.1431 F500
G01 X121.6406 Y54.9441 Z-0.1950 F500
G01 X121.5872 Y55.0423 Z-0.2484 F500
G01 X121.5323 Y55.1405 Z-0.3033 F500
G01 X121.4758 Y55.2387 Z-0.3598 F500
G01 X121.4177 Y55.3369 Z-0.4179 F500
G01 X121.4486 Y55.4351 Z-0.3870 F500
G01 X121.7563 Y55.6314 Z-0.0793 F500
G01 X121.8356 Y55.6805 Z0.0000 F500
G01 X121.5912 Y55.5272 Z-0.2444 F500
G01 X121.3952 Y55.4000 Z-0.4404 F500
G01 X121.3526 Y55.4071 Z-0.4503 F500
G01 X121.2750 Y55.4417 Z-0.4473 F500
G01 X121.1955 Y55.4753 Z-0.4444 F500
G01 X121.1141 Y55.5077 Z-0.4416 F500
G01 X121.0307 Y55.5390 Z-0.4390 F500
G01 X120.9454 Y55.5690 Z-0.4367 F500
G01 X120.9020 Y55.5835 Z-0.4356 F500
G01 X120.8581 Y55.5976 Z-0.4346 F500
G01 X120.8141 Y55.6113 Z-0.4338 F500
G01 X120.7309 Y55.6352 Z-0.4324 F500
G01 X120.6474 Y55.6568 Z-0.4309 F500
G01 X120.5636 Y55.6759 Z-0.4295 F500
G01 X120.4793 Y55.6927 Z-0.4280 F500
G01 X120.3946 Y55.7069 Z-0.4266 F500
G01 X120.3094 Y55.7186 Z-0.4252 F500
G01 X120.2238 Y55.7278 Z-0.4240 F500
G01 X120.1808 Y55.7314 Z-0.4234 F500
G01 X120.1376 Y55.7344 Z-0.4229 F500
G01 X120.0944 Y55.7368 Z-0.4224 F500
G01 X120.0510 Y55.7385 Z-0.4219 F500
G01 X120.0074 Y55.7395 Z-0.4215 F500
G01 X119.9291 Y55.7394 Z-0.4208 F500
G01 X119.8177 Y55.7361 Z-0.4205 F500
G01 X119.7093 Y55.7289 F500
G01 X119.6039 Y55.7179 Z-0.4210 F500
G01 X119.5015 Y55.7030 Z-0.4218 F500
G01 X119.4021 Y55.6845 Z-0.4229 F500
G01 X119.3057 Y55.6623 Z-0.4244 F500
G01 X119.2122 Y55.6366 Z-0.4261 F500
G01 X119.1216 Y55.6074 Z-0.4282 F500
G01 X119.0339 Y55.5747 Z-0.4305 F500
G01 X118.9489 Y55.5387 Z-0.4330 F500
G01 X118.8666 Y55.4995 Z-0.4356 F500
G01 X118.7869 Y55.4570 Z-0.4384 F500
G01 X118.7096 Y55.4112 Z-0.4413 F500
G01 X118.6347 Y55.3622 Z-0.4443 F500
G01 X118.5621 Y55.3100 Z-0.4474 F500
G01 X118.4917 Y55.2544 Z-0.4506 F500
G01 X118.4234 Y55.1954 Z-0.4539 F500
G01 X118.3572 Y55.1330 Z-0.4572 F500
G01 X118.2929 Y55.0671 Z-0.4607 F500
G01 X118.2326 Y54.9996 Z-0.4641 F500
G01 X118.1752 Y54.9291 Z-0.4676 F500
G01 X118.1211 Y54.8565 Z-0.4710 F500
G01 X118.0703 Y54.7816 Z-0.4744 F500
G01 X118.0227 Y54.7044 Z-0.4777 F500
G01 X117.9781 Y54.6248 Z-0.4808 F500
G01 X117.9364 Y54.5427 Z-0.4837 F500
G01 X117.8976 Y54.4579 Z-0.4865 F500
G01 X117.8617 Y54.3704 Z-0.4891 F500
G01 X117.8286 Y54.2800 Z-0.4915 F500
G01 X117.7984 Y54.1866 Z-0.4937 F500
G01 X117.7709 Y54.0901 Z-0.4957 F500
G01 X117.7464 Y53.9904 Z-0.4974 F500
G01 X117.7247 Y53.8874 Z-0.4990 F500
G01 X117.7060 Y53.7809 Z-0.5003 F500
G01 X117.6903 Y53.6710 Z-0.5014 F500
G01 X117.6776 Y53.5576 Z-0.5023 F500
G01 X117.6680 Y53.4407 Z-0.5030 F500
G01 X117.6616 Y53.3201 Z-0.5035 F500
G01 X117.6584 Y53.1959 Z-0.5037 F500
G01 X117.6579 Y53.0986 Z-0.5039 F500
G01 X117.6587 Y53.0306 Z-0.5038 F500
G01 X117.6607 Y52.9638 Z-0.5039 F500
G01 X117.6633 Y52.8980 Z-0.5037 F500
G01 X117.6670 Y52.8335 Z-0.5038 F500
G01 X117.6715 Y52.7700 Z-0.5037 F500
G01 X117.6769 Y52.7077 Z-0.5035 F500
G01 X117.6832 Y52.6465 F500
G01 X117.6902 Y52.5865 Z-0.5032 F500
G01 X117.6983 Y52.5276 Z-0.5031 F500
G01 X117.7069 Y52.4697 Z-0.5028 F500
G01 X117.7166 Y52.4131 Z-0.5026 F500
G01 X117.7269 Y52.3575 Z-0.5022 F500
G01 X117.7382 Y52.3031 Z-0.5020 F500
G01 X117.7500 Y52.2497 Z-0.5015 F500
G01 X117.7627 Y52.1974 Z-0.5011 F500
G01 X117.7761 Y52.1462 Z-0.5005 F500
G01 X117.7903 Y52.0960 Z-0.5000 F500
G01 X117.8052 Y52.0469 Z-0.4993 F500
G01 X117.8372 Y51.9512 Z-0.4978 F500
G01 X117.8725 Y51.8577 Z-0.4962 F500
G01 X117.9102 Y51.7685 Z-0.4945 F500
G01 X117.9502 Y51.6833 Z-0.4927 F500
G01 X117.9924 Y51.6021 Z-0.4908 F500
G01 X118.0367 Y51.5246 Z-0.4886 F500
G01 X118.0833 Y51.4507 Z-0.4862 F500
G01 X118.1321 Y51.3803 Z-0.4837 F500
G01 X118.1832 Y51.3131 Z-0.4808 F500
G01 X118.2365 Y51.2489 Z-0.4777 F500
G01 X118.2947 Y51.1850 Z-0.4742 F500
G01 X118.3535 Y51.1257 Z-0.4710 F500
G01 X118.4146 Y51.0691 Z-0.4676 F500
G01 X118.4783 Y51.0151 Z-0.4639 F500
G01 X118.5446 Y50.9636 Z-0.4602 F500
G01 X118.6137 Y50.9148 Z-0.4563 F500
G01 X118.6859 Y50.8685 Z-0.4524 F500
G01 X118.7612 Y50.8249 Z-0.4485 F500
G01 X118.8398 Y50.7840 Z-0.4447 F500
G01 X118.9218 Y50.7458 Z-0.4409 F500
G01 X118.9641 Y50.7278 Z-0.4391 F500
G01 X119.0484 Y50.6954 Z-0.4354 F500
G01 X119.0935 Y50.6796 Z-0.4334 F500
G01 X119.1393 Y50.6648 Z-0.4318 F500
G01 X119.1856 Y50.6506 Z-0.4301 F500
G01 X119.2327 Y50.6376 Z-0.4288 F500
G01 X119.2803 Y50.6251 Z-0.4272 F500
G01 X119.3286 Y50.6139 Z-0.4262 F500
G01 X119.3776 Y50.6031 Z-0.4249 F500
G01 X119.4272 Y50.5936 Z-0.4241 F500
G01 X119.4774 Y50.5847 Z-0.4231 F500
G01 X119.5282 Y50.5770 Z-0.4225 F500
G01 X119.5797 Y50.5699 Z-0.4218 F500
G01 X119.6318 Y50.5639 Z-0.4214 F500
G01 X119.6845 Y50.5587 Z-0.4211 F500
G01 X119.7379 Y50.5544 Z-0.4208 F500
G01 X119.7919 Y50.5512 F500
G01 X119.8465 Y50.5486 Z-0.4206 F500
G01 X119.9017 Y50.5473 Z-0.4210 F500
G01 X119.9575 Y50.5466 Z-0.4211 F500
G01 X120.0073 Y50.5470 Z-0.4215 F500
G01 X120.0505 Y50.5479 Z-0.4219 F500
G01 X120.0933 Y50.5495 Z-0.4223 F500
G01 X120.1358 Y50.5517 Z-0.4228 F500
G01 X120.1779 Y50.5545 Z-0.4233 F500
G01 X120.2197 Y50.5579 Z-0.4239 F500
G01 X120.3021 Y50.5664 Z-0.4250 F500
G01 X120.3832 Y50.5771 Z-0.4262 F500
G01 X120.4630 Y50.5899 Z-0.4273 F500
G01 X120.5414 Y50.6048 Z-0.4282 F500
G01 X120.6185 Y50.6217 Z-0.4290 F500
G01 X120.6945 Y50.6405 Z-0.4296 F500
G01 X120.7694 Y50.6612 Z-0.4299 F500
G01 X120.8497 Y50.6854 Z-0.4301 F500
G01 X120.9311 Y50.7120 Z-0.4307 F500
G01 X120.9723 Y50.7262 Z-0.4311 F500
G01 X121.0136 Y50.7410 Z-0.4316 F500
G01 X121.0552 Y50.7565 Z-0.4323 F500
G01 X121.0971 Y50.7726 Z-0.4332 F500
G01 X121.1392 Y50.7893 Z-0.4342 F500
G01 X121.1814 Y50.8068 Z-0.4355 F500
G01 X121.2239 Y50.8250 Z-0.4369 F500
G01 X121.2666 Y50.8439 Z-0.4386 F500
G01 X121.3094 Y50.8635 Z-0.4405 F500
G01 X121.3525 Y50.8837 Z-0.4425 F500
G01 X121.4735 Y50.8483 Z-0.3621 F500
G01 X121.8356 Y50.6163 Z0.0000 F500
G01 X121.4566 Y50.8594 Z-0.3790 F500
G01 X121.4236 Y50.9566 Z-0.4120 F500
G01 X121.4805 Y51.0539 Z-0.3551 F500
G01 X121.5362 Y51.1511 Z-0.2994 F500
G01 X121.5907 Y51.2483 Z-0.2449 F500
G01 X121.6432 Y51.3456 Z-0.1924 F500
G01 X121.6942 Y51.4428 Z-0.1414 F500
G01 X121.7441 Y51.5401 Z-0.0915 F500
G01 X121.7923 Y51.6373 Z-0.0433 F500
G01 X121.8356 Y51.6859 Z0.0000 F500
G01 X121.8098 Y51.6601 Z-0.0259 F500
G01 X121.7934 Y51.6394 Z-0.0422 F500
G01 X121.7624 Y51.5764 Z-0.0732 F500
G01 X121.7174 Y51.4876 Z-0.1182 F500
G01 X121.6428 Y51.3448 Z-0.1928 F500
G01 X121.6041 Y51.2728 Z-0.2315 F500
G01 X121.5382 Y51.1545 Z-0.2974 F500
G01 X121.4683 Y51.0328 Z-0.3673 F500
G01 X121.4096 Y50.9329 Z-0.4260 F500
G01 X121.3945 Y50.9076 Z-0.4411 F500
G00 Z15.0000 F480
G00 X127.4214 Y53.6470 F2100
G01 Z-0.4862 F500
G01 X127.4218 Y50.8023 Z-0.4858 F500
G01 X127.3842 Y50.7027 Z-0.4482 F500
G01 X126.9361 Y50.2545 Z0.0000 F500
G01 X127.3732 Y50.6917 Z-0.4372 F500
G01 X127.4704 F500
G01 X127.9076 Y50.2545 Z0.0000 F500
G01 X127.4519 Y50.7102 Z-0.4557 F500
G01 X127.4218 Y50.8114 Z-0.4858 F500
G01 X127.4203 Y53.7479 Z-0.4873 F500
G01 X127.4184 Y53.8492 Z-0.4892 F500
G01 X127.4157 Y53.9504 Z-0.4919 F500
G01 X127.4120 Y54.0476 Z-0.4949 F500
G01 X127.4070 Y54.1389 Z-0.4978 F500
G01 X127.4004 Y54.2271 Z-0.5001 F500
G01 X127.3922 Y54.3122 Z-0.5019 F500
G01 X127.3825 Y54.3941 Z-0.5033 F500
G01 X127.3710 Y54.4729 Z-0.5045 F500
G01 X127.3576 Y54.5485 Z-0.5056 F500
G01 X127.3424 Y54.6210 Z-0.5067 F500
G01 X127.3256 Y54.6904 Z-0.5077 F500
G01 X127.3070 Y54.7566 Z-0.5087 F500
G01 X127.2868 Y54.8198 Z-0.5097 F500
G01 X127.2651 Y54.8800 Z-0.5108 F500
G01 X127.2419 Y54.9372 Z-0.5117 F500
G01 X127.2173 Y54.9916 Z-0.5128 F500
G01 X127.1913 Y55.0431 Z-0.5137 F500
G01 X127.1640 Y55.0920 Z-0.5147 F500
G01 X127.1357 Y55.1385 Z-0.5153 F500
G01 X127.1063 Y55.1828 Z-0.5157 F500
G01 X127.0756 Y55.2248 Z-0.5160 F500
G01 X127.0437 Y55.2649 Z-0.5161 F500
G01 X127.0106 Y55.3029 F500
G01 X126.9415 Y55.3726 Z-0.5154 F500
G01 X126.8677 Y55.4351 Z-0.5137 F500
G01 X126.7879 Y55.4914 Z-0.5110 F500
G01 X126.7006 Y55.5424 Z-0.5072 F500
G01 X126.6537 Y55.5660 Z-0.5049 F500
G01 X126.6043 Y55.5882 Z-0.5025 F500
G01 X126.5523 Y55.6090 Z-0.4997 F500
G01 X126.4976 Y55.6286 Z-0.4965 F500
G01 X126.4399 Y55.6467 Z-0.4931 F500
G01 X126.3793 Y55.6631 Z-0.4896 F500
G01 X126.3156 Y55.6777 Z-0.4859 F500
G01 X126.2488 Y55.6903 Z-0.4822 F500
G01 X126.1788 Y55.7009 Z-0.4784 F500
G01 X126.1057 Y55.7094 Z-0.4746 F500
G01 X126.0294 Y55.7156 Z-0.4707 F500
G01 X125.9697 Y55.7189 Z-0.4678 F500
G01 X125.8870 Y55.7206 Z-0.4635 F500
G01 X125.8045 Y55.7194 Z-0.4587 F500
G01 X125.7220 Y55.7153 Z-0.4534 F500
G01 X125.6394 Y55.7080 Z-0.4476 F500
G01 X125.5566 Y55.6974 Z-0.4416 F500
G01 X125.4735 Y55.6833 Z-0.4356 F500
G01 X125.3899 Y55.6656 Z-0.4293 F500
G01 X125.3058 Y55.6444 Z-0.4228 F500
G01 X125.2212 Y55.6195 Z-0.4161 F500
G01 X125.1352 Y55.5905 Z-0.4091 F500
G01 X125.0910 Y55.5744 Z-0.4056 F500
G01 X125.0468 Y55.5573 Z-0.4020 F500
G01 X125.0026 Y55.5395 Z-0.3986 F500
G01 X124.9584 Y55.5207 Z-0.3951 F500
G01 X124.9141 Y55.5012 Z-0.3917 F500
G01 X124.8699 Y55.4807 Z-0.3883 F500
G01 X124.8257 Y55.4594 Z-0.3850 F500
G01 X124.7814 Y55.4373 Z-0.3817 F500
G01 X124.7372 Y55.4142 Z-0.3785 F500
G01 X124.6929 Y55.3904 Z-0.3752 F500
G01 X124.6486 Y55.3658 Z-0.3718 F500
G01 X124.6042 Y55.3404 Z-0.3683 F500
G01 X124.5598 Y55.3142 Z-0.3647 F500
G01 X124.5152 Y55.2873 Z-0.3611 F500
G01 X124.4707 Y55.2595 Z-0.3574 F500
G01 X124.4261 Y55.2309 Z-0.3536 F500
G01 X124.3814 Y55.2015 Z-0.3497 F500
G01 X124.3367 Y55.1712 Z-0.3458 F500
G01 X124.2605 Y55.1180 Z-0.3392 F500
G01 X124.2308 Y55.0986 Z-0.3382 F500
G01 X124.2003 Y55.0806 Z-0.3392 F500
G01 X124.1713 Y55.0653 Z-0.3419 F500
G01 X124.1411 Y55.0511 Z-0.3463 F500
G01 X124.1126 Y55.0391 Z-0.3520 F500
G01 X124.0827 Y55.0280 Z-0.3593 F500
G01 X124.0546 Y55.0187 Z-0.3673 F500
G01 X124.0250 Y55.0101 Z-0.3769 F500
G01 X123.9939 Y55.0023 Z-0.3881 F500
G01 X123.9648 Y54.9959 Z-0.3998 F500
G01 X123.9340 Y54.9904 Z-0.4130 F500
G01 X123.9013 Y54.9854 Z-0.4281 F500
G01 X123.8711 Y54.9819 Z-0.4430 F500
G01 X123.8390 Y54.9789 Z-0.4597 F500
G01 X123.8049 Y54.9768 Z-0.4783 F500
G01 X123.7685 Y54.9754 Z-0.4992 F500
G01 X123.7352 Y54.9751 Z-0.5191 F500
G01 X123.6994 Z-0.5417 F500
G01 X123.6670 Z-0.5634 F500
G01 X123.6322 Y55.0293 Z-0.5512 F500
G01 X123.6089 Y55.0999 Z-0.5279 F500
G01 X123.5913 Y55.1677 Z-0.5103 F500
G01 X123.5794 Y55.2293 Z-0.4984 F500
G01 X123.5715 Y55.2897 Z-0.4905 F500
G01 X123.5676 Y55.3451 Z-0.4866 F500
G01 X123.5668 Y55.4361 Z-0.4858 F500
G01 Y57.7436 F500
G01 X123.6011 Y57.8439 Z-0.4515 F500
G01 X124.0525 Y58.2953 Z0.0000 F500
G01 X123.6153 Y57.8582 Z-0.4372 F500
G01 X123.5182 F500
G01 X123.0810 Y58.2953 Z0.0000 F500
G01 X123.5333 Y57.8430 Z-0.4523 F500
G01 X123.5668 Y57.7425 Z-0.4858 F500
G01 Y55.4308 F500
G01 X123.5684 Y55.3303 Z-0.4874 F500
G01 X123.5793 Y55.2298 Z-0.4983 F500
G01 X123.6007 Y55.1293 Z-0.5197 F500
G01 X123.6324 Y55.0288 Z-0.5514 F500
G01 X123.6349 Y54.9282 Z-0.5539 F500
G01 X123.6025 Y54.8277 Z-0.5215 F500
G01 X123.5804 Y54.7272 Z-0.4994 F500
G01 X123.5688 Y54.6267 Z-0.4878 F500
G01 X123.5668 Y54.5262 Z-0.4858 F500
G01 Y50.8073 F500
G01 X123.5333 Y50.7068 Z-0.4523 F500
G01 X123.0810 Y50.2545 Z0.0000 F500
G01 X123.5182 Y50.6917 Z-0.4372 F500
G01 X123.6153 F500
G01 X124.0040 Y50.3031 Z-0.0486 F500
G01 X124.0525 Y50.2545 Z0.0000 F500
G00 Z15.0000 F480
G00 X136.4167 Y54.3350 F2100
G01 Z-0.3994 F500
G01 X136.4815 Y54.2837 Z-0.3609 F500
G01 X136.5514 Y54.2378 Z-0.3310 F500
G01 X136.6208 Y54.2013 Z-0.3131 F500
G01 X136.6557 Y54.1862 Z-0.3084 F500
G01 X136.6907 Y54.1731 Z-0.3064 F500
G01 X136.7262 Y54.1619 Z-0.3070 F500
G01 X136.7621 Y54.1521 Z-0.3100 F500
G01 X136.7978 Y54.1419 Z-0.3133 F500
G01 X136.8331 Y54.1308 Z-0.3165 F500
G01 X136.8682 Y54.1190 Z-0.3197 F500
G01 X136.9029 Y54.1064 Z-0.3229 F500
G01 X136.9374 Y54.0931 Z-0.3263 F500
G01 X136.9715 Y54.0792 Z-0.3297 F500
G01 X137.0054 Y54.0645 Z-0.3333 F500
G01 X137.0391 Y54.0492 Z-0.3371 F500
G01 X137.0725 Y54.0332 Z-0.3410 F500
G01 X137.1056 Y54.0166 Z-0.3452 F500
G01 X137.1342 Y54.0017 Z-0.3490 F500
G01 X137.1676 Y53.9837 Z-0.3536 F500
G01 X137.2009 Y53.9649 Z-0.3585 F500
G01 X137.2339 Y53.9454 Z-0.3639 F500
G01 X137.2668 Y53.9253 Z-0.3697 F500
G01 X137.2994 Y53.9043 Z-0.3758 F500
G01 X137.3317 Y53.8823 Z-0.3820 F500
G01 X137.3635 Y53.8595 Z-0.3884 F500
G01 X137.3950 Y53.8357 Z-0.3949 F500
G01 X137.4259 Y53.8110 Z-0.4016 F500
G01 X137.4564 Y53.7853 Z-0.4083 F500
G01 X137.4863 Y53.7586 Z-0.4150 F500
G01 X137.5156 Y53.7309 Z-0.4218 F500
G01 X137.5442 Y53.7023 Z-0.4284 F500
G01 X137.5721 Y53.6726 Z-0.4351 F500
G01 X137.5992 Y53.6420 Z-0.4415 F500
G01 X137.6253 Y53.6104 Z-0.4477 F500
G01 X137.6505 Y53.5778 Z-0.4536 F500
G01 X137.6748 Y53.5443 Z-0.4593 F500
G01 X137.6982 Y53.5099 Z-0.4648 F500
G01 X137.7392 Y53.4444 Z-0.4739 F500
G01 X137.7614 Y53.4052 Z-0.4790 F500
G01 X137.7825 Y53.3652 Z-0.4839 F500
G01 X137.8023 Y53.3244 Z-0.4888 F500
G01 X137.8211 Y53.2829 Z-0.4935 F500
G01 X137.8387 Y53.2406 Z-0.4982 F500
G01 X137.8552 Y53.1976 Z-0.5028 F500
G01 X137.8705 Y53.1540 Z-0.5071 F500
G01 X137.8840 Y53.1096 Z-0.5108 F500
G01 X137.9064 Y53.0188 Z-0.5162 F500
G01 X137.9232 Y52.9258 Z-0.5200 F500
G01 X137.9353 Y52.8309 Z-0.5227 F500
G01 X137.9432 Y52.7342 Z-0.5247 F500
G01 X137.9472 Y52.6358 Z-0.5262 F500
G01 X137.9479 Y52.5864 Z-0.5269 F500
G01 X137.9469 Y52.4891 Z-0.5280 F500
G01 X137.9424 Y52.3935 Z-0.5286 F500
G01 X137.9344 Y52.2996 Z-0.5287 F500
G01 X137.9227 Y52.2074 Z-0.5283 F500
G01 X137.9072 Y52.1169 Z-0.5274 F500
G01 X137.8879 Y52.0282 Z-0.5262 F500
G01 X137.8646 Y51.9412 Z-0.5247 F500
G01 X137.8371 Y51.8560 Z-0.5229 F500
G01 X137.8054 Y51.7728 Z-0.5210 F500
G01 X137.7738 Y51.7004 Z-0.5193 F500
G01 X137.7378 Y51.6262 Z-0.5173 F500
G01 X137.6986 Y51.5537 Z-0.5152 F500
G01 X137.6561 Y51.4830 Z-0.5131 F500
G01 X137.6105 Y51.4143 Z-0.5108 F500
G01 X137.5618 Y51.3477 Z-0.5083 F500
G01 X137.5101 Y51.2831 Z-0.5056 F500
G01 X137.4557 Y51.2207 Z-0.5027 F500
G01 X137.3984 Y51.1606 Z-0.4995 F500
G01 X137.3384 Y51.1028 Z-0.4960 F500
G01 X137.2697 Y51.0423 Z-0.4919 F500
G01 X137.1998 Y50.9869 Z-0.4884 F500
G01 X137.1272 Y50.9351 Z-0.4852 F500
G01 X137.0521 Y50.8869 Z-0.4822 F500
G01 X136.9747 Y50.8422 Z-0.4794 F500
G01 X136.8950 Y50.8010 Z-0.4768 F500
G01 X136.8132 Y50.7632 Z-0.4744 F500
G01 X136.7294 Y50.7288 Z-0.4720 F500
G01 X136.6435 Y50.6976 Z-0.4695 F500
G01 X136.5557 Y50.6697 Z-0.4671 F500
G01 X136.4675 Y50.6450 Z-0.4648 F500
G01 X136.3830 Y50.6241 Z-0.4626 F500
G01 X136.2990 Y50.6056 Z-0.4602 F500
G01 X136.2154 Y50.5896 Z-0.4578 F500
G01 X136.1323 Y50.5760 Z-0.4554 F500
G01 X136.0497 Y50.5647 Z-0.4531 F500
G01 X135.9676 Y50.5557 Z-0.4511 F500
G01 X135.8860 Y50.5489 Z-0.4494 F500
G01 X135.8049 Y50.5443 Z-0.4481 F500
G01 X135.7243 Y50.5419 Z-0.4473 F500
G01 X135.6326 Y50.5416 Z-0.4470 F500
G01 X135.5694 Y50.5427 F500
G01 X135.5061 Y50.5447 Z-0.4471 F500
G01 X135.4427 Y50.5478 Z-0.4473 F500
G01 X135.3791 Y50.5518 Z-0.4477 F500
G01 X135.3153 Y50.5567 Z-0.4481 F500
G01 X135.2514 Y50.5627 Z-0.4486 F500
G01 X135.1874 Y50.5696 Z-0.4493 F500
G01 X135.1232 Y50.5775 Z-0.4500 F500
G01 X135.0589 Y50.5864 Z-0.4508 F500
G01 X134.9944 Y50.5962 Z-0.4517 F500
G01 X134.9298 Y50.6071 Z-0.4526 F500
G01 X134.8651 Y50.6190 Z-0.4535 F500
G01 X134.8003 Y50.6319 Z-0.4545 F500
G01 X134.7353 Y50.6458 Z-0.4555 F500
G01 X134.6701 Y50.6606 Z-0.4566 F500
G01 X134.6049 Y50.6765 Z-0.4577 F500
G01 X134.5395 Y50.6934 Z-0.4588 F500
G01 X134.4739 Y50.7110 Z-0.4603 F500
G01 X134.4081 Y50.7294 Z-0.4620 F500
G01 X134.3429 Y50.7484 Z-0.4639 F500
G01 X134.2785 Y50.7679 Z-0.4658 F500
G01 X134.2148 Y50.7879 Z-0.4679 F500
G01 X134.1517 Y50.8084 Z-0.4700 F500
G01 X134.0893 Y50.8295 Z-0.4721 F500
G01 X134.0275 Y50.8511 Z-0.4743 F500
G01 X133.9663 Y50.8734 Z-0.4765 F500
G01 X133.9058 Y50.8963 Z-0.4786 F500
G01 X133.8168 Y51.0097 Z-0.4108 F500
G01 X133.7385 Y51.1333 Z-0.3326 F500
G01 X133.6649 Y51.2532 Z-0.2590 F500
G01 X133.5958 Y51.3695 Z-0.1899 F500
G01 X133.5310 Y51.4823 Z-0.1251 F500
G01 X133.4705 Y51.5916 Z-0.0646 F500
G01 X133.4447 Y51.6214 Z-0.0387 F500
G01 X133.4059 Y51.6601 Z0.0000 F500
G01 X133.4550 Y51.6110 Z-0.0491 F500
G01 X133.5138 Y51.5128 Z-0.1079 F500
G01 X133.5696 Y51.4146 Z-0.1637 F500
G01 X133.6270 Y51.3165 Z-0.2211 F500
G01 X133.6860 Y51.2183 Z-0.2801 F500
G01 X133.7467 Y51.1201 Z-0.3408 F500
G01 X133.8089 Y51.0219 Z-0.4030 F500
G01 X133.8725 Y50.9237 Z-0.4666 F500
G01 X133.6291 Y50.7274 Z-0.2232 F500
G01 X133.4059 Y50.5801 Z0.0000 F500
G01 X133.5732 Y50.6899 Z-0.1673 F500
G01 X133.7695 Y50.8234 Z-0.3636 F500
G01 X133.8345 Y50.8686 Z-0.4286 F500
G01 X133.8947 Y50.9007 Z-0.4790 F500
G01 X133.9833 Y50.8671 Z-0.4758 F500
G01 X134.0771 Y50.8337 Z-0.4725 F500
G01 X134.1259 Y50.8170 Z-0.4708 F500
G01 X134.1759 Y50.8004 Z-0.4691 F500
G01 X134.2798 Y50.7675 Z-0.4658 F500
G01 X134.3887 Y50.7350 Z-0.4625 F500
G01 X134.4450 Y50.7190 Z-0.4610 F500
G01 X134.5026 Y50.7032 Z-0.4596 F500
G01 X134.5634 Y50.6871 Z-0.4584 F500
G01 X134.6199 Y50.6728 Z-0.4574 F500
G01 X134.6765 Y50.6592 Z-0.4565 F500
G01 X134.7331 Y50.6462 Z-0.4556 F500
G01 X134.7899 Y50.6340 Z-0.4547 F500
G01 X134.8468 Y50.6225 Z-0.4538 F500
G01 X134.9038 Y50.6117 Z-0.4529 F500
G01 X134.9609 Y50.6017 Z-0.4520 F500
G01 X135.0181 Y50.5925 Z-0.4513 F500
G01 X135.0755 Y50.5840 Z-0.4505 F500
G01 X135.1329 Y50.5762 Z-0.4499 F500
G01 X135.1905 Y50.5692 Z-0.4492 F500
G01 X135.2482 Y50.5630 Z-0.4487 F500
G01 X135.3060 Y50.5575 Z-0.4482 F500
G01 X135.3640 Y50.5529 Z-0.4477 F500
G01 X135.4220 Y50.5490 Z-0.4474 F500
G01 X135.4802 Y50.5459 Z-0.4471 F500
G01 X135.5385 Y50.5436 Z-0.4469 F500
G01 X135.5970 Y50.5421 F500
G01 X135.6555 Y50.5414 F500
G01 X135.7129 Y50.5417 Z-0.4472 F500
G01 X135.7687 Y50.5430 Z-0.4477 F500
G01 X135.8239 Y50.5452 Z-0.4484 F500
G01 X135.8784 Y50.5484 Z-0.4493 F500
G01 X135.9323 Y50.5525 Z-0.4503 F500
G01 X135.9855 Y50.5574 Z-0.4515 F500
G01 X136.0381 Y50.5633 Z-0.4528 F500
G01 X136.0900 Y50.5699 Z-0.4542 F500
G01 X136.1412 Y50.5773 Z-0.4556 F500
G01 X136.1919 Y50.5855 Z-0.4570 F500
G01 X136.2418 Y50.5944 Z-0.4585 F500
G01 X136.2912 Y50.6040 Z-0.4599 F500
G01 X136.3399 Y50.6143 Z-0.4614 F500
G01 X136.3879 Y50.6252 Z-0.4627 F500
G01 X136.4354 Y50.6368 Z-0.4640 F500
G01 X136.4823 Y50.6489 Z-0.4652 F500
G01 X136.5286 Y50.6618 Z-0.4663 F500
G01 X136.5743 Y50.6753 Z-0.4675 F500
G01 X136.6193 Y50.6896 Z-0.4688 F500
G01 X136.6638 Y50.7046 Z-0.4701 F500
G01 X136.7475 Y50.7358 Z-0.4724 F500
G01 X136.8305 Y50.7708 Z-0.4748 F500
G01 X136.9104 Y50.8086 Z-0.4773 F500
G01 X136.9873 Y50.8491 Z-0.4798 F500
G01 X137.0613 Y50.8925 Z-0.4825 F500
G01 X137.1325 Y50.9387 Z-0.4854 F500
G01 X137.2010 Y50.9878 Z-0.4884 F500
G01 X137.2668 Y51.0399 Z-0.4917 F500
G01 X137.3299 Y51.0950 Z-0.4954 F500
G01 X137.3907 Y51.1530 Z-0.4990 F500
G01 X137.4430 Y51.2070 Z-0.5020 F500
G01 X137.4924 Y51.2622 Z-0.5046 F500
G01 X137.5391 Y51.3186 Z-0.5071 F500
G01 X137.5833 Y51.3764 Z-0.5094 F500
G01 X137.6251 Y51.4356 Z-0.5115 F500
G01 X137.6646 Y51.4965 Z-0.5134 F500
G01 X137.7016 Y51.5590 Z-0.5154 F500
G01 X137.7363 Y51.6233 Z-0.5172 F500
G01 X137.7688 Y51.6895 Z-0.5190 F500
G01 X137.7991 Y51.7577 Z-0.5206 F500
G01 X137.8263 Y51.8261 Z-0.5222 F500
G01 X137.8503 Y51.8953 Z-0.5237 F500
G01 X137.8717 Y51.9659 Z-0.5251 F500
G01 X137.8903 Y52.0381 Z-0.5264 F500
G01 X137.9063 Y52.1120 Z-0.5274 F500
G01 X137.9197 Y52.1878 Z-0.5281 F500
G01 X137.9305 Y52.2655 Z-0.5286 F500
G01 X137.9388 Y52.3454 Z-0.5287 F500
G01 X137.9444 Y52.4275 Z-0.5284 F500
G01 X137.9474 Y52.5120 Z-0.5277 F500
G01 X137.9478 Y52.5998 Z-0.5267 F500
G01 X137.9457 Y52.6841 Z-0.5255 F500
G01 X137.9413 Y52.7631 Z-0.5241 F500
G01 X137.9347 Y52.8370 Z-0.5225 F500
G01 X137.9262 Y52.9058 Z-0.5206 F500
G01 X137.9160 Y52.9693 Z-0.5184 F500
G01 X137.9044 Y53.0277 Z-0.5157 F500
G01 X137.8917 Y53.0812 Z-0.5127 F500
G01 X137.8709 Y53.1525 Z-0.5073 F500
G01 X137.8452 Y53.2243 Z-0.4999 F500
G01 X137.8134 Y53.3004 Z-0.4915 F500
G01 X137.7791 Y53.3717 Z-0.4831 F500
G01 X137.7424 Y53.4388 Z-0.4746 F500
G01 X137.7033 Y53.5021 Z-0.4659 F500
G01 X137.6620 Y53.5622 Z-0.4562 F500
G01 X137.6186 Y53.6188 Z-0.4461 F500
G01 X137.5769 Y53.6673 Z-0.4362 F500
G01 X137.5302 Y53.7165 Z-0.4251 F500
G01 X137.4785 Y53.7657 Z-0.4132 F500
G01 X137.4215 Y53.8146 Z-0.4006 F500
G01 X137.3804 Y53.8470 Z-0.3918 F500
G01 X137.3366 Y53.8789 Z-0.3830 F500
G01 X137.2903 Y53.9103 Z-0.3740 F500
G01 X137.2412 Y53.9410 Z-0.3651 F500
G01 X137.1833 Y53.9750 Z-0.3558 F500
G01 X137.1296 Y54.0041 Z-0.3484 F500
G01 X137.0773 Y54.0308 Z-0.3416 F500
G01 X137.0264 Y54.0551 Z-0.3356 F500
G01 X136.9770 Y54.0769 Z-0.3303 F500
G01 X136.9291 Y54.0964 Z-0.3254 F500
G01 X136.8830 Y54.1138 Z-0.3210 F500
G01 X136.8385 Y54.1290 Z-0.3170 F500
G01 X136.7959 Y54.1424 Z-0.3131 F500
G01 X136.7551 Y54.1540 Z-0.3093 F500
G01 X136.7221 Y54.1631 Z-0.3068 F500
G01 X136.6915 Y54.1729 Z-0.3063 F500
G01 X136.6639 Y54.1830 Z-0.3076 F500
G01 X136.6363 Y54.1944 Z-0.3106 F500
G01 X136.6112 Y54.2059 Z-0.3149 F500
G01 X136.5859 Y54.2186 Z-0.3206 F500
G01 X136.5629 Y54.2312 Z-0.3272 F500
G01 X136.5394 Y54.2450 Z-0.3352 F500
G01 X136.5155 Y54.2602 Z-0.3448 F500
G01 X136.4937 Y54.2751 Z-0.3547 F500
G01 X136.4713 Y54.2913 Z-0.3662 F500
G01 X136.4481 Y54.3090 Z-0.3795 F500
G01 X136.4272 Y54.3261 Z-0.3925 F500
G01 X136.4058 Y54.3447 Z-0.4070 F500
G01 X136.3836 Y54.3650 Z-0.4232 F500
G01 X136.3606 Y54.3873 Z-0.4414 F500
G01 X136.3401 Y54.4082 Z-0.4587 F500
G01 X136.3188 Y54.4309 Z-0.4780 F500
G01 X136.3714 Y54.5333 Z-0.4244 F500
G01 X136.4356 Y54.6099 Z-0.3683 F500
G01 X136.4843 Y54.6592 Z-0.3360 F500
G01 X136.5257 Y54.6956 Z-0.3152 F500
G01 X136.5613 Y54.7232 Z-0.3018 F500
G01 X136.5943 Y54.7456 Z-0.2927 F500
G01 X136.6249 Y54.7643 Z-0.2874 F500
G01 X136.6536 Y54.7797 Z-0.2845 F500
G01 X136.6804 Y54.7927 Z-0.2839 F500
G01 X136.7078 Y54.8044 Z-0.2850 F500
G01 X136.7336 Y54.8141 Z-0.2876 F500
G01 X136.7644 Y54.8251 Z-0.2918 F500
G01 X136.8147 Y54.8442 Z-0.2990 F500
G01 X136.8637 Y54.8644 Z-0.3059 F500
G01 X136.9115 Y54.8858 Z-0.3127 F500
G01 X136.9581 Y54.9085 Z-0.3195 F500
G01 X137.0036 Y54.9324 Z-0.3261 F500
G01 X137.0480 Y54.9574 Z-0.3326 F500
G01 X137.0913 Y54.9839 Z-0.3392 F500
G01 X137.1334 Y55.0115 Z-0.3459 F500
G01 X137.1746 Y55.0404 Z-0.3523 F500
G01 X137.2148 Y55.0706 Z-0.3590 F500
G01 X137.2539 Y55.1023 Z-0.3658 F500
G01 X137.2921 Y55.1351 Z-0.3726 F500
G01 X137.3293 Y55.1694 Z-0.3795 F500
G01 X137.3655 Y55.2052 Z-0.3868 F500
G01 X137.4008 Y55.2424 Z-0.3940 F500
G01 X137.4352 Y55.2810 Z-0.4014 F500
G01 X137.4685 Y55.3212 Z-0.4094 F500
G01 X137.5009 Y55.3630 Z-0.4175 F500
G01 X137.5325 Y55.4062 Z-0.4257 F500
G01 X137.5621 Y55.4502 Z-0.4343 F500
G01 X137.5892 Y55.4932 Z-0.4425 F500
G01 X137.6142 Y55.5357 Z-0.4503 F500
G01 X137.6368 Y55.5778 Z-0.4580 F500
G01 X137.6575 Y55.6193 Z-0.4651 F500
G01 X137.6763 Y55.6604 Z-0.4719 F500
G01 X137.6932 Y55.7010 Z-0.4783 F500
G01 X137.7087 Y55.7411 Z-0.4841 F500
G01 X137.7348 Y55.8206 Z-0.4948 F500
G01 X137.7553 Y55.8996 Z-0.5038 F500
G01 X137.7709 Y55.9791 Z-0.5113 F500
G01 X137.7818 Y56.0603 Z-0.5173 F500
G01 X137.7880 Y56.1441 Z-0.5219 F500
G01 X137.7893 Y56.2317 Z-0.5253 F500
G01 X137.7864 Y56.3075 Z-0.5278 F500
G01 X137.7808 Y56.3757 Z-0.5299 F500
G01 X137.7725 Y56.4403 Z-0.5318 F500
G01 X137.7620 Y56.5014 Z-0.5335 F500
G01 X137.7494 Y56.5593 Z-0.5349 F500
G01 X137.7349 Y56.6141 Z-0.5359 F500
G01 X137.7185 Y56.6662 Z-0.5366 F500
G01 X137.7004 Y56.7157 Z-0.5368 F500
G01 X137.6806 Y56.7631 Z-0.5365 F500
G01 X137.6473 Y56.8313 Z-0.5353 F500
G01 X137.6217 Y56.8768 Z-0.5340 F500
G01 X137.5941 Y56.9215 Z-0.5321 F500
G01 X137.5641 Y56.9657 Z-0.5297 F500
G01 X137.5315 Y57.0095 Z-0.5269 F500
G01 X137.4961 Y57.0530 Z-0.5236 F500
G01 X137.4575 Y57.0963 Z-0.5199 F500
G01 X137.4156 Y57.1394 Z-0.5159 F500
G01 X137.3702 Y57.1822 Z-0.5115 F500
G01 X137.3209 Y57.2247 Z-0.5070 F500
G01 X137.2712 Y57.2639 Z-0.5026 F500
G01 X137.2184 Y57.3019 Z-0.4980 F500
G01 X137.1638 Y57.3381 Z-0.4936 F500
G01 X137.1074 Y57.3723 Z-0.4895 F500
G01 X137.0491 Y57.4044 Z-0.4857 F500
G01 X136.9889 Y57.4345 Z-0.4822 F500
G01 X136.9268 Y57.4630 Z-0.4786 F500
G01 X136.8628 Y57.4897 Z-0.4750 F500
G01 X136.7969 Y57.5146 Z-0.4714 F500
G01 X136.7289 Y57.5377 Z-0.4678 F500
G01 X136.6585 Y57.5588 Z-0.4643 F500
G01 X136.5844 Y57.5782 Z-0.4611 F500
G01 X136.5069 Y57.5958 Z-0.4581 F500
G01 X136.4259 Y57.6114 Z-0.4557 F500
G01 X136.3415 Y57.6248 Z-0.4536 F500
G01 X136.2538 Y57.6363 Z-0.4518 F500
G01 X136.1629 Y57.6457 Z-0.4502 F500
G01 X136.1162 Y57.6497 Z-0.4496 F500
G01 X136.0687 Y57.6531 Z-0.4490 F500
G01 X136.0204 Y57.6560 Z-0.4485 F500
G01 X135.9713 Y57.6583 Z-0.4480 F500
G01 X135.9214 Y57.6601 Z-0.4476 F500
G01 X135.8707 Y57.6614 Z-0.4473 F500
G01 X135.8193 Y57.6621 Z-0.4471 F500
G01 X135.7676 Y57.6622 Z-0.4469 F500
G01 X135.7160 Y57.6617 Z-0.4468 F500
G01 X135.6642 Y57.6603 Z-0.4467 F500
G01 X135.6121 Y57.6582 F500
G01 X135.5598 Y57.6554 Z-0.4468 F500
G01 X135.5072 Y57.6518 Z-0.4469 F500
G01 X135.4543 Y57.6474 Z-0.4471 F500
G01 X135.4012 Y57.6422 Z-0.4473 F500
G01 X135.3478 Y57.6363 Z-0.4476 F500
G01 X135.2942 Y57.6296 Z-0.4480 F500
G01 X135.2404 Y57.6222 Z-0.4484 F500
G01 X135.1862 Y57.6140 Z-0.4489 F500
G01 X135.1319 Y57.6050 Z-0.4494 F500
G01 X135.0772 Y57.5952 Z-0.4500 F500
G01 X135.0224 Y57.5846 Z-0.4507 F500
G01 X134.9672 Y57.5733 Z-0.4514 F500
G01 X134.9118 Y57.5612 Z-0.4522 F500
G01 X134.8562 Y57.5483 Z-0.4530 F500
G01 X134.8003 Y57.5347 Z-0.4539 F500
G01 X134.7442 Y57.5203 Z-0.4548 F500
G01 X134.6850 Y57.5044 Z-0.4559 F500
G01 X134.6287 Y57.4888 Z-0.4572 F500
G01 X134.5739 Y57.4731 Z-0.4586 F500
G01 X134.5204 Y57.4572 Z-0.4600 F500
G01 X134.4683 Y57.4411 Z-0.4616 F500
G01 X134.4176 Y57.4249 Z-0.4632 F500
G01 X134.3683 Y57.4086 Z-0.4648 F500
G01 X134.3204 Y57.3922 Z-0.4664 F500
G01 X134.2739 Y57.3758 Z-0.4680 F500
G01 X134.2287 Y57.3594 Z-0.4695 F500
G01 X134.1850 Y57.3430 Z-0.4711 F500
G01 X134.1018 Y57.3105 Z-0.4737 F500
G01 X133.8525 Y57.4796 Z-0.2244 F500
G01 X133.6611 Y57.6028 Z-0.0330 F500
G01 X133.6281 Y57.6236 Z0.0000 F500
G01 X133.7061 Y57.5745 Z-0.0780 F500
G01 X133.8576 Y57.4763 Z-0.2295 F500
G01 X134.0039 Y57.3781 Z-0.3758 F500
G01 X134.0823 Y57.2799 Z-0.4542 F500
G01 X134.0194 Y57.1817 Z-0.3913 F500
G01 X133.9581 Y57.0835 Z-0.3300 F500
G01 X133.8982 Y56.9854 Z-0.2701 F500
G01 X133.8398 Y56.8872 Z-0.2117 F500
G01 X133.7828 Y56.7890 Z-0.1547 F500
G01 X133.7271 Y56.6908 Z-0.0991 F500
G01 X133.6730 Y56.5926 Z-0.0449 F500
G01 X133.6281 Y56.5435 Z0.0000 F500
G01 X133.6539 Y56.5694 Z-0.0259 F500
G01 X133.6776 Y56.6010 Z-0.0495 F500
G01 X133.7436 Y56.7201 Z-0.1155 F500
G01 X133.8125 Y56.8405 Z-0.1844 F500
G01 X133.8845 Y56.9625 Z-0.2564 F500
G01 X133.9598 Y57.0863 Z-0.3317 F500
G01 X134.0387 Y57.2120 Z-0.4106 F500
G01 X134.0795 Y57.2756 Z-0.4514 F500
G01 X134.1293 Y57.3213 Z-0.4730 F500
G01 X134.1892 Y57.3445 Z-0.4709 F500
G01 X134.2493 Y57.3670 Z-0.4689 F500
G01 X134.3098 Y57.3885 Z-0.4668 F500
G01 X134.3705 Y57.4093 Z-0.4647 F500
G01 X134.4315 Y57.4293 Z-0.4627 F500
G01 X134.4927 Y57.4487 Z-0.4609 F500
G01 X134.5541 Y57.4673 Z-0.4591 F500
G01 X134.6155 Y57.4851 Z-0.4575 F500
G01 X134.6766 Y57.5021 Z-0.4561 F500
G01 X134.7374 Y57.5185 Z-0.4549 F500
G01 X134.7980 Y57.5341 Z-0.4539 F500
G01 X134.8583 Y57.5488 Z-0.4530 F500
G01 X134.9185 Y57.5627 Z-0.4521 F500
G01 X134.9784 Y57.5757 Z-0.4513 F500
G01 X135.0381 Y57.5877 Z-0.4505 F500
G01 X135.0976 Y57.5989 Z-0.4499 F500
G01 X135.1570 Y57.6092 Z-0.4493 F500
G01 X135.2161 Y57.6186 Z-0.4487 F500
G01 X135.2750 Y57.6271 Z-0.4482 F500
G01 X135.3337 Y57.6346 Z-0.4478 F500
G01 X135.3921 Y57.6413 Z-0.4474 F500
G01 X135.4504 Y57.6470 Z-0.4471 F500
G01 X135.5085 Y57.6519 Z-0.4469 F500
G01 X135.5664 Y57.6558 Z-0.4468 F500
G01 X135.6241 Y57.6588 Z-0.4467 F500
G01 X135.6816 Y57.6608 Z-0.4468 F500
G01 X135.7389 Y57.6620 Z-0.4469 F500
G01 X135.7853 Y57.6622 Z-0.4470 F500
G01 X135.8558 Y57.6616 Z-0.4473 F500
G01 X135.9253 Y57.6600 Z-0.4477 F500
G01 X135.9938 Y57.6573 Z-0.4482 F500
G01 X136.0614 Y57.6536 Z-0.4489 F500
G01 X136.1280 Y57.6488 Z-0.4497 F500
G01 X136.1937 Y57.6428 Z-0.4507 F500
G01 X136.2585 Y57.6357 Z-0.4519 F500
G01 X136.3224 Y57.6275 Z-0.4532 F500
G01 X136.3855 Y57.6181 Z-0.4547 F500
G01 X136.4488 Y57.6073 Z-0.4564 F500
G01 X136.5146 Y57.5942 Z-0.4584 F500
G01 X136.5800 Y57.5793 Z-0.4609 F500
G01 X136.6450 Y57.5625 Z-0.4638 F500
G01 X136.7095 Y57.5437 Z-0.4669 F500
G01 X136.7735 Y57.5228 Z-0.4701 F500
G01 X136.8370 Y57.4998 Z-0.4736 F500
G01 X136.8997 Y57.4746 Z-0.4771 F500
G01 X136.9618 Y57.4473 Z-0.4807 F500
G01 X137.0231 Y57.4178 Z-0.4842 F500
G01 X137.0934 Y57.3803 Z-0.4886 F500
G01 X137.1559 Y57.3430 Z-0.4931 F500
G01 X137.2170 Y57.3029 Z-0.4979 F500
G01 X137.2764 Y57.2600 Z-0.5031 F500
G01 X137.3338 Y57.2140 Z-0.5082 F500
G01 X137.3890 Y57.1649 Z-0.5133 F500
G01 X137.4417 Y57.1130 Z-0.5184 F500
G01 X137.4918 Y57.0580 Z-0.5232 F500
G01 X137.5387 Y57.0002 Z-0.5276 F500
G01 X137.5822 Y56.9395 Z-0.5312 F500
G01 X137.6197 Y56.8803 Z-0.5338 F500
G01 X137.6577 Y56.8112 Z-0.5358 F500
G01 X137.6907 Y56.7395 Z-0.5367 F500
G01 X137.7186 Y56.6659 Z-0.5366 F500
G01 X137.7414 Y56.5907 Z-0.5355 F500
G01 X137.7595 Y56.5144 Z-0.5339 F500
G01 X137.7730 Y56.4373 Z-0.5317 F500
G01 X137.7824 Y56.3598 Z-0.5294 F500
G01 X137.7878 Y56.2820 Z-0.5270 F500
G01 X137.7895 Y56.2041 Z-0.5244 F500
G01 X137.7855 Y56.1046 Z-0.5201 F500
G01 X137.7772 Y56.0231 Z-0.5149 F500
G01 X137.7642 Y55.9427 Z-0.5082 F500
G01 X137.7465 Y55.8638 Z-0.5001 F500
G01 X137.7242 Y55.7866 Z-0.4906 F500
G01 X137.6974 Y55.7115 Z-0.4799 F500
G01 X137.6665 Y55.6385 Z-0.4685 F500
G01 X137.6317 Y55.5681 Z-0.4563 F500
G01 X137.5934 Y55.5002 Z-0.4439 F500
G01 X137.5520 Y55.4349 Z-0.4314 F500
G01 X137.5080 Y55.3724 Z-0.4193 F500
G01 X137.4615 Y55.3126 Z-0.4077 F500
G01 X137.4127 Y55.2555 Z-0.3967 F500
G01 X137.3616 Y55.2013 Z-0.3860 F500
G01 X137.3085 Y55.1500 Z-0.3758 F500
G01 X137.2532 Y55.1017 Z-0.3657 F500
G01 X137.1960 Y55.0562 Z-0.3561 F500
G01 X137.1368 Y55.0138 Z-0.3464 F500
G01 X137.0759 Y54.9743 Z-0.3370 F500
G01 X137.0133 Y54.9377 Z-0.3276 F500
G01 X136.9495 Y54.9042 Z-0.3183 F500
G01 X136.8862 Y54.8743 Z-0.3093 F500
G01 X136.8218 Y54.8470 Z-0.3000 F500
G01 X136.7563 Y54.8222 Z-0.2907 F500
G01 X136.6910 Y54.7974 Z-0.2842 F500
G01 X136.6283 Y54.7662 Z-0.2870 F500
G01 X136.5675 Y54.7277 Z-0.2998 F500
G01 X136.5080 Y54.6808 Z-0.3234 F500
G01 X136.4491 Y54.6244 Z-0.3585 F500
G01 X136.3900 Y54.5570 Z-0.4065 F500
G01 X136.3296 Y54.4796 Z-0.4662 F500
G01 X136.2556 Y54.4453 Z-0.4832 F500
G01 X136.1740 Y54.4424 Z-0.4702 F500
G01 X136.0923 Y54.4398 Z-0.4591 F500
G01 X136.0102 Y54.4375 Z-0.4498 F500
G01 X135.9275 Y54.4355 Z-0.4424 F500
G01 X135.8442 Y54.4338 Z-0.4366 F500
G01 X135.7601 Y54.4323 Z-0.4325 F500
G01 X135.6749 Y54.4310 Z-0.4301 F500
G01 X135.5884 Y54.4544 Z-0.4049 F500
G01 X135.1836 Y54.8589 Z0.0000 F500
G01 X135.6125 Y54.4299 Z-0.4289 F500
G01 X135.2312 Y54.0487 Z-0.0477 F500
G01 X135.1836 Y54.0010 Z0.0000 F500
G00 Z15.0000 F480
G00 X110.5516 Y50.3031 F2100
G01 Z-0.0486 F500
G01 X110.9402 Y50.6917 Z-0.4372 F500
G01 X111.0373 F500
G01 X111.4745 Y50.2545 Z0.0000 F500
G01 X111.0267 Y50.7024 Z-0.4478 F500
G01 X110.9888 Y50.8019 Z-0.4858 F500
G01 Y55.4794 F500
G01 X111.0267 Y55.5789 Z-0.4478 F500
G01 X111.4745 Y56.0268 Z0.0000 F500
G01 X111.0373 Y55.5896 Z-0.4372 F500
