;Project right
;Created by Estlcam version 11 build 11,244
;Machining time about 00:44:04 hours

G90
M03 S30000
G00 Z30.0000 F480


;No. 1: Ausschnitt 6
G00 X462.3784 Y40.7613 F2100
G00 Z0.5000 F480
G01 Z0.0000 F100 S30000
G01 Z-2.0000 F100
G01 X464.6784 F900
G01 X464.8222 Y45.2613 F900
G01 X462.2347 F900
G01 Y49.7613 F900
G01 X464.8222 F900
G01 X464.6784 Y54.2613 F900
G01 X462.3784 F900
G01 Y58.7613 F900
G01 X464.6784 F900
G01 Y63.2613 F900
G01 X462.3784 F900
G01 Y67.7613 F900
G01 X464.6784 F900
G01 Y72.2613 F900
G01 X462.3784 F900
G01 Y76.7613 F900
G01 X464.6784 F900
G01 Y81.2613 F900
G01 X462.3784 F900
G01 Y85.7613 F900
G01 X464.6784 F900
G01 Y90.2613 F900
G01 X462.3784 F900
G01 Y94.7613 F900
G01 X464.6784 F900
G01 Y99.2613 F900
G01 X462.3784 F900
G01 Y103.7613 F900
G01 X464.6784 F900
G01 Y108.2613 F900
G01 X462.3784 F900
G01 Y112.7613 F900
G01 X464.6784 F900
G01 Y117.2613 F900
G01 X462.3784 F900
G01 Y121.7613 F900
G01 X464.6784 F900
G01 Y126.2613 F900
G01 X462.3784 F900
G01 Y130.7613 F900
G01 X464.6784 F900
G01 Y135.2613 F900
G01 X462.3784 F900
G01 Y139.7613 F900
G01 X464.6784 F900
G01 Y144.2613 F900
G01 X462.3784 F900
G01 X461.7784 Y144.2121 F900
G01 Y147.7613 F900
G01 X460.8997 Y148.6399 F900
G01 X461.7784 Y147.7613 F900
G01 X465.2784 F900
G01 X466.1571 Y148.6399 F900
G01 X465.2784 Y147.7613 F900
G01 Y50.7613 F900
G03 X468.2784 Y47.7613 I3.0000 J0.0000 F900
G01 X505.2784 F900
G01 X506.1571 Y48.6399 F900
G01 X505.2784 Y47.7613 F900
G01 Y47.2613 F900
G01 X506.1571 Y46.3826 F900
G01 X505.2784 Y47.2613 F900
G01 X468.2784 F900
G03 X465.2784 Y44.2613 I0.0000 J-3.0000 F900
G01 Y37.2613 F900
G01 X466.1571 Y36.3826 F900
G01 X465.2784 Y37.2613 F900
G01 X461.7784 F900
G01 X460.8997 Y36.3826 F900
G01 X461.7784 Y37.2613 F900
G01 Y44.2613 F900
G03 X458.7784 Y47.2613 I-3.0000 J0.0000 F900
G01 X135.0941 F900
G01 X134.7028 Y46.7091 F900
G01 X135.0941 Y47.2613 F900
G01 X134.9184 Y47.7613 F900
G01 X133.1322 Y49.0269 F900
G01 X134.9184 Y47.7613 F900
G01 X458.7784 F900
G03 X461.7784 Y50.7613 I0.0000 J3.0000 F900
G01 Y144.2121 F900
G01 X462.3784 Y144.2613 F900
G01 Z-4.0000 F100
G01 X464.6784 F900
G01 Y139.7613 F900
G01 X462.3784 F900
G01 Y135.2613 F900
G01 X464.6784 F900
G01 Y130.7613 F900
G01 X462.3784 F900
G01 Y126.2613 F900
G01 X464.6784 F900
G01 Y121.7613 F900
G01 X462.3784 F900
G01 Y117.2613 F900
G01 X464.6784 F900
G01 Y112.7613 F900
G01 X462.3784 F900
G01 Y108.2613 F900
G01 X464.6784 F900
G01 Y103.7613 F900
G01 X462.3784 F900
G01 Y99.2613 F900
G01 X464.6784 F900
G01 Y94.7613 F900
G01 X462.3784 F900
G01 Y90.2613 F900
G01 X464.6784 F900
G01 Y85.7613 F900
G01 X462.3784 F900
G01 Y81.2613 F900
G01 X464.6784 F900
G01 Y76.7613 F900
G01 X462.3784 F900
G01 Y72.2613 F900
G01 X464.6784 F900
G01 Y67.7613 F900
G01 X462.3784 F900
G01 Y63.2613 F900
G01 X464.6784 F900
G01 Y58.7613 F900
G01 X462.3784 F900
G01 Y54.2613 F900
G01 X464.6784 F900
G01 X464.8222 Y49.7613 F900
G01 X462.2347 F900
G01 Y45.2613 F900
G01 X464.8222 F900
G01 X464.6784 Y40.7613 F900
G01 X461.7784 F900
G01 Y44.2613 F900
G03 X458.7784 Y47.2613 I-3.0000 J0.0000 F900
G01 X135.0941 F900
G01 X134.7028 Y46.7091 F900
G01 X135.0941 Y47.2613 F900
G01 X134.9184 Y47.7613 F900
G01 X133.1322 Y49.0269 F900
G01 X134.9184 Y47.7613 F900
G01 X458.7784 F900
G03 X461.7784 Y50.7613 I0.0000 J3.0000 F900
G01 Y147.7613 F900
G01 X460.8997 Y148.6399 F900
G01 X461.7784 Y147.7613 F900
G01 X465.2784 F900
G01 X466.1571 Y148.6399 F900
G01 X465.2784 Y147.7613 F900
G01 Y50.7613 F900
G03 X468.2784 Y47.7613 I3.0000 J0.0000 F900
G01 X505.2784 F900
G01 X506.1571 Y48.6399 F900
G01 X505.2784 Y47.7613 F900
G01 Y47.2613 F900
G01 X506.1571 Y46.3826 F900
G01 X505.2784 Y47.2613 F900
G01 X468.2784 F900
G03 X465.2784 Y44.2613 I0.0000 J-3.0000 F900
G01 Y37.2613 F900
G01 X466.1571 Y36.3826 F900
G01 X465.2784 Y37.2613 F900
G01 X461.7784 F900
G01 X460.8997 Y36.3826 F900
G01 X461.7784 Y37.2613 F900
G01 Y40.7613 F900
G01 X462.3784 F900
G01 Z-5.0000 F100
G01 X464.6784 F900
G01 X464.8222 Y45.2613 F900
G01 X462.2347 F900
G01 Y49.7613 F900
G01 X464.8222 F900
G01 X464.6784 Y54.2613 F900
G01 X462.3784 F900
G01 Y58.7613 F900
G01 X464.6784 F900
G01 Y63.2613 F900
G01 X462.3784 F900
G01 Y67.7613 F900
G01 X464.6784 F900
G01 Y72.2613 F900
G01 X462.3784 F900
G01 Y76.7613 F900
G01 X464.6784 F900
G01 Y81.2613 F900
G01 X462.3784 F900
G01 Y85.7613 F900
G01 X464.6784 F900
G01 Y90.2613 F900
G01 X462.3784 F900
G01 Y94.7613 F900
G01 X464.6784 F900
G01 Y99.2613 F900
G01 X462.3784 F900
G01 Y103.7613 F900
G01 X464.6784 F900
G01 Y108.2613 F900
G01 X462.3784 F900
G01 Y112.7613 F900
G01 X464.6784 F900
G01 Y117.2613 F900
G01 X462.3784 F900
G01 Y121.7613 F900
G01 X464.6784 F900
G01 Y126.2613 F900
G01 X462.3784 F900
G01 Y130.7613 F900
G01 X464.6784 F900
G01 Y135.2613 F900
G01 X462.3784 F900
G01 Y139.7613 F900
G01 X464.6784 F900
G01 Y144.2613 F900
G01 X462.3784 F900
G01 X461.7784 Y144.2121 F900
G01 Y147.7613 F900
G01 X460.8997 Y148.6399 F900
G01 X461.7784 Y147.7613 F900
G01 X465.2784 F900
G01 X466.1571 Y148.6399 F900
G01 X465.2784 Y147.7613 F900
G01 Y50.7613 F900
G03 X468.2784 Y47.7613 I3.0000 J0.0000 F900
G01 X505.2784 F900
G01 X506.1571 Y48.6399 F900
G01 X505.2784 Y47.7613 F900
G01 Y47.2613 F900
G01 X506.1571 Y46.3826 F900
G01 X505.2784 Y47.2613 F900
G01 X468.2784 F900
G03 X465.2784 Y44.2613 I0.0000 J-3.0000 F900
G01 Y37.2613 F900
G01 X466.1571 Y36.3826 F900
G01 X465.2784 Y37.2613 F900
G01 X461.7784 F900
G01 X460.8997 Y36.3826 F900
G01 X461.7784 Y37.2613 F900
G01 Y44.2613 F900
G03 X458.7784 Y47.2613 I-3.0000 J0.0000 F900
G01 X135.0941 F900
G01 X134.7028 Y46.7091 F900
G01 X135.0941 Y47.2613 F900
G01 X134.9184 Y47.7613 F900
G01 X133.1322 Y49.0269 F900
G01 X134.9184 Y47.7613 F900
G01 X458.7784 F900
G03 X461.7784 Y50.7613 I0.0000 J3.0000 F900
G01 Y144.2121 F900
G01 X462.3784 Y144.2613 F900
G00 Z30.0000 F480


;No. 2: Ausschnitt 5
G00 X504.6784 Y155.2613 Z30.0000 F2100
G00 Z0.5000 F480
G01 Z0.0000 F100
G01 Z-2.0000 F100
G01 X63.5390 F900
G01 X66.1371 Y150.7613 F900
G01 X69.3498 F900
G01 X68.7352 Y146.2613 F900
G01 X71.3910 F900
G01 X71.3332 Y141.7613 F900
G01 X73.9891 F900
G01 X73.9313 Y137.2613 F900
G01 X76.5872 F900
G01 X76.5294 Y132.7613 F900
G01 X79.1853 F900
G01 X79.1275 Y128.2613 F900
G01 X81.7834 F900
G01 X81.7255 Y123.7613 F900
G01 X84.3815 F900
G01 X84.3236 Y119.2613 F900
G01 X86.9796 F900
G01 X86.9217 Y114.7613 F900
G01 X89.5777 F900
G01 X89.5197 Y110.2613 F900
G01 X92.1758 F900
G01 X92.1178 Y105.7613 F900
G01 X94.7739 F900
G01 X94.7159 Y101.2613 F900
G01 X97.3721 F900
G01 X97.3140 Y96.7613 F900
G01 X99.9702 F900
G01 X99.9120 Y92.2613 F900
G01 X102.5683 F900
G01 X102.5101 Y87.7613 F900
G01 X105.1664 F900
G01 X105.1082 Y83.2613 F900
G01 X107.7645 F900
G01 X107.7063 Y78.7613 F900
G01 X110.3626 F900
G01 X110.3043 Y74.2613 F900
G01 X112.9607 F900
G01 X112.9024 Y69.7613 F900
G01 X115.5588 F900
G01 X115.5005 Y65.2613 F900
G01 X118.1569 F900
G01 X118.0986 Y60.7613 F900
G01 X120.7550 F900
G01 X120.6966 Y56.2613 F900
G01 X123.3531 F900
G01 X123.2947 Y51.7613 F900
G01 X125.9512 F900
G01 X125.8928 Y47.2613 F900
G01 X128.0985 F900
G00 Z30.0000 F480
G00 X504.6784 Y155.2613 F2100
G00 Z0.5000 F480
G01 Z-2.0000 F100
G01 Y159.7613 F900
G01 X60.9409 F900
G01 X60.4784 Y159.3624 F900
G01 X59.6708 Y160.7613 F900
G01 X57.0727 Y162.2613 F900
G01 X59.6708 Y160.7613 F900
G01 X505.2784 F900
G01 X506.1571 Y161.6399 F900
G01 X505.2784 Y160.7613 F900
G01 Y153.7613 F900
G01 X506.1571 Y152.8826 F900
G01 X505.2784 Y153.7613 F900
G01 X72.9498 F900
G03 X70.3517 Y149.2613 I0.0000 J-3.0000 F900
G01 X127.9469 Y49.5026 F900
G01 X130.1348 Y43.2762 F900
G01 X133.5455 Y37.2613 F900
G01 X136.1434 Y35.7613 F900
G01 X133.5455 Y37.2613 F900
G01 X130.9735 F900
G01 X130.7414 Y36.8593 F900
G01 X130.9735 Y37.2613 F900
G01 X60.4784 Y159.3624 F900
G01 X60.9409 Y159.7613 F900
G01 Z-4.0000 F100
G01 X504.6784 F900
G01 Y155.2613 F900
G01 X63.5390 F900
G01 X66.1371 Y150.7613 F900
G01 X69.3498 F900
G01 X68.7352 Y146.2613 F900
G01 X71.3910 F900
G01 X71.3332 Y141.7613 F900
G01 X73.9891 F900
G01 X73.9313 Y137.2613 F900
G01 X76.5872 F900
G01 X76.5294 Y132.7613 F900
G01 X79.1853 F900
G01 X79.1275 Y128.2613 F900
G01 X81.7834 F900
G01 X81.7255 Y123.7613 F900
G01 X84.3815 F900
G01 X84.3236 Y119.2613 F900
G01 X86.9796 F900
G01 X86.9217 Y114.7613 F900
G01 X89.5777 F900
G01 X89.5197 Y110.2613 F900
G01 X92.1758 F900
G01 X92.1178 Y105.7613 F900
G01 X94.7739 F900
G01 X94.7159 Y101.2613 F900
G01 X97.3721 F900
G01 X97.3140 Y96.7613 F900
G01 X99.9702 F900
G01 X99.9120 Y92.2613 F900
G01 X102.5683 F900
G01 X102.5101 Y87.7613 F900
G01 X105.1664 F900
G01 X105.1082 Y83.2613 F900
G01 X107.7645 F900
G01 X107.7063 Y78.7613 F900
G01 X110.3626 F900
G01 X110.3043 Y74.2613 F900
G01 X112.9607 F900
G01 X112.9024 Y69.7613 F900
G01 X115.5588 F900
G01 X115.5005 Y65.2613 F900
G01 X118.1569 F900
G01 X118.0986 Y60.7613 F900
G01 X120.7550 F900
G01 X120.6966 Y56.2613 F900
G01 X123.3531 F900
G01 X123.2947 Y51.7613 F900
G01 X125.9512 F900
G01 X125.8928 Y47.2613 F900
G01 X128.0985 F900
G01 X128.6781 Y47.4217 F900
G01 X130.1348 Y43.2762 F900
G01 X133.5455 Y37.2613 F900
G01 X136.1434 Y35.7613 F900
G01 X133.5455 Y37.2613 F900
G01 X130.9735 F900
G01 X130.7414 Y36.8593 F900
G01 X130.9735 Y37.2613 F900
G01 X59.6708 Y160.7613 F900
G01 X57.0727 Y162.2613 F900
G01 X59.6708 Y160.7613 F900
G01 X505.2784 F900
G01 X506.1571 Y161.6399 F900
G01 X505.2784 Y160.7613 F900
G01 Y153.7613 F900
G01 X506.1571 Y152.8826 F900
G01 X505.2784 Y153.7613 F900
G01 X72.9498 F900
G03 X70.3517 Y149.2613 I0.0000 J-3.0000 F900
G01 X127.9469 Y49.5026 F900
G01 X128.6781 Y47.4217 F900
G01 X128.0985 Y47.2613 F900
G01 Z-5.0000 F100
G01 X125.8928 F900
G01 X125.9512 Y51.7613 F900
G01 X123.2947 F900
G01 X123.3531 Y56.2613 F900
G01 X120.6966 F900
G01 X120.7550 Y60.7613 F900
G01 X118.0986 F900
G01 X118.1569 Y65.2613 F900
G01 X115.5005 F900
G01 X115.5588 Y69.7613 F900
G01 X112.9024 F900
G01 X112.9607 Y74.2613 F900
G01 X110.3043 F900
G01 X110.3626 Y78.7613 F900
G01 X107.7063 F900
G01 X107.7645 Y83.2613 F900
G01 X105.1082 F900
G01 X105.1664 Y87.7613 F900
G01 X102.5101 F900
G01 X102.5683 Y92.2613 F900
G01 X99.9120 F900
G01 X99.9702 Y96.7613 F900
G01 X97.3140 F900
G01 X97.3721 Y101.2613 F900
G01 X94.7159 F900
G01 X94.7739 Y105.7613 F900
G01 X92.1178 F900
G01 X92.1758 Y110.2613 F900
G01 X89.5197 F900
G01 X89.5777 Y114.7613 F900
G01 X86.9217 F900
G01 X86.9796 Y119.2613 F900
G01 X84.3236 F900
G01 X84.3815 Y123.7613 F900
G01 X81.7255 F900
G01 X81.7834 Y128.2613 F900
G01 X79.1275 F900
G01 X79.1853 Y132.7613 F900
G01 X76.5294 F900
G01 X76.5872 Y137.2613 F900
G01 X73.9313 F900
G01 X73.9891 Y141.7613 F900
G01 X71.3332 F900
G01 X71.3910 Y146.2613 F900
G01 X68.7352 F900
G01 X69.3498 Y150.7613 F900
G01 X66.1371 F900
G01 X63.5390 Y155.2613 F900
G01 X504.6784 F900
G01 Y159.7613 F900
G01 X60.9409 F900
G01 X60.4784 Y159.3624 F900
G01 X59.6708 Y160.7613 F900
G01 X57.0727 Y162.2613 F900
G01 X59.6708 Y160.7613 F900
G01 X505.2784 F900
G01 X506.1571 Y161.6399 F900
G01 X505.2784 Y160.7613 F900
G01 Y153.7613 F900
G01 X506.1571 Y152.8826 F900
G01 X505.2784 Y153.7613 F900
G01 X72.9498 F900
G03 X70.3517 Y149.2613 I0.0000 J-3.0000 F900
G01 X127.9469 Y49.5026 F900
G01 X130.1348 Y43.2762 F900
G01 X133.5455 Y37.2613 F900
G01 X136.1434 Y35.7613 F900
G01 X133.5455 Y37.2613 F900
G01 X130.9735 F900
G01 X130.7414 Y36.8593 F900
G01 X130.9735 Y37.2613 F900
G01 X60.4784 Y159.3624 F900
G01 X60.9409 Y159.7613 F900
G00 Z30.0000 F480


;No. 3: Teil 2
G00 X86.1161 Y191.7613 Z30.0000 F2100
G00 Z0.5000 F480
G01 Z0.0000 F100
G01 Z-2.0000 F100
G01 X65.2653 F900
G03 X56.2784 Y182.7744 I0.0128 J-8.9997 F900
G02 X56.2742 Y179.6043 I-45.6357 J-1.5242 F900
G02 X53.2653 Y176.7613 I-2.9960 J0.1571 F900
G01 X39.6576 F900
G03 X31.8700 Y163.2726 I0.0129 J-8.9999 F900
G01 X105.4952 Y35.7499 F900
G03 X113.2698 Y31.2613 I7.7873 J4.5107 F900
G01 X130.7258 F900
G01 X139.7258 F900
G01 X457.6386 F900
G01 X466.6386 F900
G01 X502.2915 F900
G03 X511.2784 Y40.2482 I-0.0128 J8.9997 F900
G01 Y43.8209 F900
G01 Y52.8209 F900
G01 Y150.2552 F900
G01 Y159.2552 F900
G01 Y167.7744 F900
G03 X502.2915 Y176.7613 I-8.9997 J-0.0128 F900
G01 X484.2915 F900
G02 X481.2784 Y179.7744 I-0.0127 J3.0003 F900
G03 X481.2662 Y183.2323 I-50.0912 J1.5520 F900
G03 X472.2915 Y191.7613 I-8.9876 J-0.4709 F900
G01 X457.7784 F900
G01 X448.7784 F900
G01 X434.2653 F900
G03 X425.2784 Y182.7744 I0.0128 J-8.9997 F900
G02 X425.2742 Y179.6043 I-45.6357 J-1.5242 F900
G02 X422.2653 Y176.7613 I-2.9960 J0.1571 F900
G01 X115.2915 F900
G02 X112.2784 Y179.7744 I-0.0127 J3.0003 F900
G03 X112.2662 Y183.2323 I-50.0912 J1.5520 F900
G03 X103.2915 Y191.7613 I-8.9876 J-0.4709 F900
G01 X95.1161 F900
G01 X86.1161 F900
G01 Z-4.0000 F100
G01 X65.2653 F900
G03 X56.2784 Y182.7744 I0.0128 J-8.9997 F900
G02 X56.2742 Y179.6043 I-45.6357 J-1.5242 F900
G02 X53.2653 Y176.7613 I-2.9960 J0.1571 F900
G01 X39.6576 F900
G03 X31.8700 Y163.2726 I0.0129 J-8.9999 F900
G01 X105.4952 Y35.7499 F900
G03 X113.2698 Y31.2613 I7.7873 J4.5107 F900
G01 X130.7258 F900
G01 X139.7258 F900
G01 X457.6386 F900
G01 X466.6386 F900
G01 X502.2915 F900
G03 X511.2784 Y40.2482 I-0.0128 J8.9997 F900
G01 Y43.8209 F900
G01 Y52.8209 F900
G01 Y150.2552 F900
G01 Y159.2552 F900
G01 Y167.7744 F900
G03 X502.2915 Y176.7613 I-8.9997 J-0.0128 F900
G01 X484.2915 F900
G02 X481.2784 Y179.7744 I-0.0127 J3.0003 F900
G03 X481.2662 Y183.2323 I-50.0912 J1.5520 F900
G03 X472.2915 Y191.7613 I-8.9876 J-0.4709 F900
G01 X457.7784 F900
G01 X448.7784 F900
G01 X434.2653 F900
G03 X425.2784 Y182.7744 I0.0128 J-8.9997 F900
G02 X425.2742 Y179.6043 I-45.6357 J-1.5242 F900
G02 X422.2653 Y176.7613 I-2.9960 J0.1571 F900
G01 X115.2915 F900
G02 X112.2784 Y179.7744 I-0.0127 J3.0003 F900
G03 X112.2662 Y183.2323 I-50.0912 J1.5520 F900
G03 X103.2915 Y191.7613 I-8.9876 J-0.4709 F900
G01 X95.1161 F900
G01 X86.1161 F900
G01 Z-6.0000 F100
G01 X65.2653 F900
G03 X56.2784 Y182.7744 I0.0128 J-8.9997 F900
G02 X56.2742 Y179.6043 I-45.6357 J-1.5242 F900
G02 X53.2653 Y176.7613 I-2.9960 J0.1571 F900
G01 X39.6576 F900
G03 X31.8700 Y163.2726 I0.0129 J-8.9999 F900
G01 X105.4952 Y35.7499 F900
G03 X113.2698 Y31.2613 I7.7873 J4.5107 F900
G01 X130.7258 F900
G01 X139.7258 F900
G01 X457.6386 F900
G01 X466.6386 F900
G01 X502.2915 F900
G03 X511.2784 Y40.2482 I-0.0128 J8.9997 F900
G01 Y43.8209 F900
G01 Y52.8209 F900
G01 Y150.2552 F900
G01 Y159.2552 F900
G01 Y167.7744 F900
G03 X502.2915 Y176.7613 I-8.9997 J-0.0128 F900
G01 X484.2915 F900
G02 X481.2784 Y179.7744 I-0.0127 J3.0003 F900
G03 X481.2662 Y183.2323 I-50.0912 J1.5520 F900
G03 X472.2915 Y191.7613 I-8.9876 J-0.4709 F900
G01 X457.7784 F900
G01 X448.7784 F900
G01 X434.2653 F900
G03 X425.2784 Y182.7744 I0.0128 J-8.9997 F900
G02 X425.2742 Y179.6043 I-45.6357 J-1.5242 F900
G02 X422.2653 Y176.7613 I-2.9960 J0.1571 F900
G01 X115.2915 F900
G02 X112.2784 Y179.7744 I-0.0127 J3.0003 F900
G03 X112.2662 Y183.2323 I-50.0912 J1.5520 F900
G03 X103.2915 Y191.7613 I-8.9876 J-0.4709 F900
G01 X95.1161 F900
G01 X86.1161 F900
G01 Z-8.0000 F100
G01 X65.2653 F900
G03 X56.2784 Y182.7744 I0.0128 J-8.9997 F900
G02 X56.2742 Y179.6043 I-45.6357 J-1.5242 F900
G02 X53.2653 Y176.7613 I-2.9960 J0.1571 F900
G01 X39.6576 F900
G03 X31.8700 Y163.2726 I0.0129 J-8.9999 F900
G01 X105.4952 Y35.7499 F900
G03 X113.2698 Y31.2613 I7.7873 J4.5107 F900
G01 X130.7258 F900
G01 X139.7258 F900
G01 X457.6386 F900
G01 X466.6386 F900
G01 X502.2915 F900
G03 X511.2784 Y40.2482 I-0.0128 J8.9997 F900
G01 Y43.8209 F900
G01 Y52.8209 F900
G01 Y150.2552 F900
G01 Y159.2552 F900
G01 Y167.7744 F900
G03 X502.2915 Y176.7613 I-8.9997 J-0.0128 F900
G01 X484.2915 F900
G02 X481.2784 Y179.7744 I-0.0127 J3.0003 F900
G03 X481.2662 Y183.2323 I-50.0912 J1.5520 F900
G03 X472.2915 Y191.7613 I-8.9876 J-0.4709 F900
G01 X457.7784 F900
G01 X448.7784 F900
G01 X434.2653 F900
G03 X425.2784 Y182.7744 I0.0128 J-8.9997 F900
G02 X425.2742 Y179.6043 I-45.6357 J-1.5242 F900
G02 X422.2653 Y176.7613 I-2.9960 J0.1571 F900
G01 X115.2915 F900
G02 X112.2784 Y179.7744 I-0.0127 J3.0003 F900
G03 X112.2662 Y183.2323 I-50.0912 J1.5520 F900
G03 X103.2915 Y191.7613 I-8.9876 J-0.4709 F900
G01 X95.1161 F900
G01 X86.1161 F900
G01 Z-10.0000 F100
G01 X65.2653 F900
G03 X56.2784 Y182.7744 I0.0128 J-8.9997 F900
G02 X56.2742 Y179.6043 I-45.6357 J-1.5242 F900
G02 X53.2653 Y176.7613 I-2.9960 J0.1571 F900
G01 X39.6576 F900
G03 X31.8700 Y163.2726 I0.0129 J-8.9999 F900
G01 X105.4952 Y35.7499 F900
G03 X113.2698 Y31.2613 I7.7873 J4.5107 F900
G01 X130.7258 F900
G00 Z-9.0000 F480
G01 X139.7258 F900
G01 Z-10.0000 F100
G01 X457.6386 F900
G00 Z-9.0000 F480
G01 X466.6386 F900
G01 Z-10.0000 F100
G01 X502.2915 F900
G03 X511.2784 Y40.2482 I-0.0128 J8.9997 F900
G01 Y43.8209 F900
G00 Z-9.0000 F480
G01 Y52.8209 F900
G01 Z-10.0000 F100
G01 Y150.2552 F900
G00 Z-9.0000 F480
G01 Y159.2552 F900
G01 Z-10.0000 F100
G01 Y167.7744 F900
G03 X502.2915 Y176.7613 I-8.9997 J-0.0128 F900
G01 X484.2915 F900
G02 X481.2784 Y179.7744 I-0.0127 J3.0003 F900
G03 X481.2662 Y183.2323 I-50.0912 J1.5520 F900
G03 X472.2915 Y191.7613 I-8.9876 J-0.4709 F900
G01 X457.7784 F900
G00 Z-9.0000 F480
G01 X448.7784 F900
G01 Z-10.0000 F100
G01 X434.2653 F900
G03 X425.2784 Y182.7744 I0.0128 J-8.9997 F900
G02 X425.2742 Y179.6043 I-45.6357 J-1.5242 F900
G02 X422.2653 Y176.7613 I-2.9960 J0.1571 F900
G01 X115.2915 F900
G02 X112.2784 Y179.7744 I-0.0127 J3.0003 F900
G03 X112.2662 Y183.2323 I-50.0912 J1.5520 F900
G03 X103.2915 Y191.7613 I-8.9876 J-0.4709 F900
G01 X95.1161 F900
G00 Z-9.0000 F480
G01 X86.1161 F900
G00 Z-9.5000 F480
G01 Z-10.0000 F100
G01 Z-12.0000 F100
G01 X65.2653 F900
G03 X56.2784 Y182.7744 I0.0128 J-8.9997 F900
G02 X56.2742 Y179.6043 I-45.6357 J-1.5242 F900
G02 X53.2653 Y176.7613 I-2.9960 J0.1571 F900
G01 X39.6576 F900
G03 X31.8700 Y163.2726 I0.0129 J-8.9999 F900
G01 X105.4952 Y35.7499 F900
G03 X113.2698 Y31.2613 I7.7873 J4.5107 F900
G01 X130.7258 F900
G00 Z-9.0000 F480
G01 X139.7258 F900
G00 Z-9.5000 F480
G01 Z-10.0000 F100
G01 Z-12.0000 F100
G01 X457.6386 F900
G00 Z-9.0000 F480
G01 X466.6386 F900
G00 Z-9.5000 F480
G01 Z-10.0000 F100
G01 Z-12.0000 F100
G01 X502.2915 F900
G03 X511.2784 Y40.2482 I-0.0128 J8.9997 F900
G01 Y43.8209 F900
G00 Z-9.0000 F480
G01 Y52.8209 F900
G00 Z-9.5000 F480
G01 Z-10.0000 F100
G01 Z-12.0000 F100
G01 Y150.2552 F900
G00 Z-9.0000 F480
G01 Y159.2552 F900
G00 Z-9.5000 F480
G01 Z-10.0000 F100
G01 Z-12.0000 F100
G01 Y167.7744 F900
G03 X502.2915 Y176.7613 I-8.9997 J-0.0128 F900
G01 X484.2915 F900
G02 X481.2784 Y179.7744 I-0.0127 J3.0003 F900
G03 X481.2662 Y183.2323 I-50.0912 J1.5520 F900
G03 X472.2915 Y191.7613 I-8.9876 J-0.4709 F900
G01 X457.7784 F900
G00 Z-9.0000 F480
G01 X448.7784 F900
G00 Z-9.5000 F480
G01 Z-10.0000 F100
G01 Z-12.0000 F100
G01 X434.2653 F900
G03 X425.2784 Y182.7744 I0.0128 J-8.9997 F900
G02 X425.2742 Y179.6043 I-45.6357 J-1.5242 F900
G02 X422.2653 Y176.7613 I-2.9960 J0.1571 F900
G01 X115.2915 F900
G02 X112.2784 Y179.7744 I-0.0127 J3.0003 F900
G03 X112.2662 Y183.2323 I-50.0912 J1.5520 F900
G03 X103.2915 Y191.7613 I-8.9876 J-0.4709 F900
G01 X95.1161 F900
G00 Z-9.0000 F480
G01 X86.1161 F900
G00 Z-11.5000 F480
G01 Z-12.0000 F100
G01 Z-13.0000 F100
G01 X65.2653 F900
G03 X56.2784 Y182.7744 I0.0128 J-8.9997 F900
G02 X56.2742 Y179.6043 I-45.6357 J-1.5242 F900
G02 X53.2653 Y176.7613 I-2.9960 J0.1571 F900
G01 X39.6576 F900
G03 X31.8700 Y163.2726 I0.0129 J-8.9999 F900
G01 X105.4952 Y35.7499 F900
G03 X113.2698 Y31.2613 I7.7873 J4.5107 F900
G01 X130.7258 F900
G00 Z-9.0000 F480
G01 X139.7258 F900
G00 Z-11.5000 F480
G01 Z-12.0000 F100
G01 Z-13.0000 F100
G01 X457.6386 F900
G00 Z-9.0000 F480
G01 X466.6386 F900
G00 Z-11.5000 F480
G01 Z-12.0000 F100
G01 Z-13.0000 F100
G01 X502.2915 F900
G03 X511.2784 Y40.2482 I-0.0128 J8.9997 F900
G01 Y43.8209 F900
G00 Z-9.0000 F480
G01 Y52.8209 F900
G00 Z-11.5000 F480
G01 Z-12.0000 F100
G01 Z-13.0000 F100
G01 Y150.2552 F900
G00 Z-9.0000 F480
G01 Y159.2552 F900
G00 Z-11.5000 F480
G01 Z-12.0000 F100
G01 Z-13.0000 F100
G01 Y167.7744 F900
G03 X502.2915 Y176.7613 I-8.9997 J-0.0128 F900
G01 X484.2915 F900
G02 X481.2784 Y179.7744 I-0.0127 J3.0003 F900
G03 X481.2662 Y183.2323 I-50.0912 J1.5520 F900
G03 X472.2915 Y191.7613 I-8.9876 J-0.4709 F900
G01 X457.7784 F900
G00 Z-9.0000 F480
G01 X448.7784 F900
G00 Z-11.5000 F480
G01 Z-12.0000 F100
G01 Z-13.0000 F100
G01 X434.2653 F900
G03 X425.2784 Y182.7744 I0.0128 J-8.9997 F900
G02 X425.2742 Y179.6043 I-45.6357 J-1.5242 F900
G02 X422.2653 Y176.7613 I-2.9960 J0.1571 F900
G01 X115.2915 F900
G02 X112.2784 Y179.7744 I-0.0127 J3.0003 F900
G03 X112.2662 Y183.2323 I-50.0912 J1.5520 F900
G03 X103.2915 Y191.7613 I-8.9876 J-0.4709 F900
G01 X95.1161 F900
G00 Z-9.0000 F480
G01 X86.1161 F900
G00 Z30.0000 F480
G00 X0.0000 Y0.0000 F2100

M05
