;Project top
;Created by Estlcam version 11 build 11,244
;Machining time about 00:35:58 hours

G90
M03 S30000
G00 Z30.0000 F480


;No. 1: Teil 1
G00 X365.2307 Y24.7133 F2100
G00 Z0.5000 F480
G01 Z0.0000 F100 S30000
G01 Z-2.0000 F100
G01 X444.3756 F900
G03 X447.3756 Y27.7133 I0.0000 J3.0000 F900
G01 Y94.8510 F900
G01 Y103.8510 F900
G01 Y289.2188 F900
G01 Y298.2188 F900
G01 Y366.0233 F900
G03 X444.3756 Y369.0233 I-3.0000 J0.0000 F900
G01 X339.8928 F900
G01 X330.8928 F900
G01 X115.8531 F900
G01 X106.8531 F900
G01 X32.3756 F900
G03 X29.3756 Y366.0233 I0.0000 J-3.0000 F900
G01 Y257.7533 F900
G01 Y248.7533 F900
G01 Y119.8538 F900
G01 Y110.8538 F900
G01 Y27.7133 F900
G03 X32.3756 Y24.7133 I3.0000 J0.0000 F900
G01 X142.5261 F900
G01 X151.5261 F900
G01 X356.2307 F900
G01 X365.2307 F900
G01 Z-4.0000 F100
G01 X444.3756 F900
G03 X447.3756 Y27.7133 I0.0000 J3.0000 F900
G01 Y94.8510 F900
G00 Z-3.0000 F480
G01 Y103.8510 F900
G01 Z-4.0000 F100
G01 Y289.2188 F900
G00 Z-3.0000 F480
G01 Y298.2188 F900
G01 Z-4.0000 F100
G01 Y366.0233 F900
G03 X444.3756 Y369.0233 I-3.0000 J0.0000 F900
G01 X339.8928 F900
G00 Z-3.0000 F480
G01 X330.8928 F900
G01 Z-4.0000 F100
G01 X115.8531 F900
G00 Z-3.0000 F480
G01 X106.8531 F900
G01 Z-4.0000 F100
G01 X32.3756 F900
G03 X29.3756 Y366.0233 I0.0000 J-3.0000 F900
G01 Y257.7533 F900
G00 Z-3.0000 F480
G01 Y248.7533 F900
G01 Z-4.0000 F100
G01 Y119.8538 F900
G00 Z-3.0000 F480
G01 Y110.8538 F900
G01 Z-4.0000 F100
G01 Y27.7133 F900
G03 X32.3756 Y24.7133 I3.0000 J0.0000 F900
G01 X142.5261 F900
G00 Z-3.0000 F480
G01 X151.5261 F900
G01 Z-4.0000 F100
G01 X356.2307 F900
G00 Z-3.0000 F480
G01 X365.2307 F900
G00 Z-3.5000 F480
G01 Z-4.0000 F100
G01 Z-6.0000 F100
G01 X444.3756 F900
G03 X447.3756 Y27.7133 I0.0000 J3.0000 F900
G01 Y94.8510 F900
G00 Z-3.0000 F480
G01 Y103.8510 F900
G00 Z-3.5000 F480
G01 Z-4.0000 F100
G01 Z-6.0000 F100
G01 Y289.2188 F900
G00 Z-3.0000 F480
G01 Y298.2188 F900
G00 Z-3.5000 F480
G01 Z-4.0000 F100
G01 Z-6.0000 F100
G01 Y366.0233 F900
G03 X444.3756 Y369.0233 I-3.0000 J0.0000 F900
G01 X339.8928 F900
G00 Z-3.0000 F480
G01 X330.8928 F900
G00 Z-3.5000 F480
G01 Z-4.0000 F100
G01 Z-6.0000 F100
G01 X115.8531 F900
G00 Z-3.0000 F480
G01 X106.8531 F900
G00 Z-3.5000 F480
G01 Z-4.0000 F100
G01 Z-6.0000 F100
G01 X32.3756 F900
G03 X29.3756 Y366.0233 I0.0000 J-3.0000 F900
G01 Y257.7533 F900
G00 Z-3.0000 F480
G01 Y248.7533 F900
G00 Z-3.5000 F480
G01 Z-4.0000 F100
G01 Z-6.0000 F100
G01 Y119.8538 F900
G00 Z-3.0000 F480
G01 Y110.8538 F900
G00 Z-3.5000 F480
G01 Z-4.0000 F100
G01 Z-6.0000 F100
G01 Y27.7133 F900
G03 X32.3756 Y24.7133 I3.0000 J0.0000 F900
G01 X142.5261 F900
G00 Z-3.0000 F480
G01 X151.5261 F900
G00 Z-3.5000 F480
G01 Z-4.0000 F100
G01 Z-6.0000 F100
G01 X356.2307 F900
G00 Z-3.0000 F480
G01 X365.2307 F900
G00 Z-5.5000 F480
G01 Z-6.0000 F100
G01 Z-7.0000 F100
G01 X444.3756 F900
G03 X447.3756 Y27.7133 I0.0000 J3.0000 F900
G01 Y94.8510 F900
G00 Z-3.0000 F480
G01 Y103.8510 F900
G00 Z-5.5000 F480
G01 Z-6.0000 F100
G01 Z-7.0000 F100
G01 Y289.2188 F900
G00 Z-3.0000 F480
G01 Y298.2188 F900
G00 Z-5.5000 F480
G01 Z-6.0000 F100
G01 Z-7.0000 F100
G01 Y366.0233 F900
G03 X444.3756 Y369.0233 I-3.0000 J0.0000 F900
G01 X339.8928 F900
G00 Z-3.0000 F480
G01 X330.8928 F900
G00 Z-5.5000 F480
G01 Z-6.0000 F100
G01 Z-7.0000 F100
G01 X115.8531 F900
G00 Z-3.0000 F480
G01 X106.8531 F900
G00 Z-5.5000 F480
G01 Z-6.0000 F100
G01 Z-7.0000 F100
G01 X32.3756 F900
G03 X29.3756 Y366.0233 I0.0000 J-3.0000 F900
G01 Y257.7533 F900
G00 Z-3.0000 F480
G01 Y248.7533 F900
G00 Z-5.5000 F480
G01 Z-6.0000 F100
G01 Z-7.0000 F100
G01 Y119.8538 F900
G00 Z-3.0000 F480
G01 Y110.8538 F900
G00 Z-5.5000 F480
G01 Z-6.0000 F100
G01 Z-7.0000 F100
G01 Y27.7133 F900
G03 X32.3756 Y24.7133 I3.0000 J0.0000 F900
G01 X142.5261 F900
G00 Z-3.0000 F480
G01 X151.5261 F900
G00 Z-5.5000 F480
G01 Z-6.0000 F100
G01 Z-7.0000 F100
G01 X356.2307 F900
G00 Z-3.0000 F480
G01 X365.2307 F900
G00 Z30.0000 F480
G00 X0.0000 Y0.0000 F2100

M05
