;Project Frame NeoPixel 2x2 x 16x16-frame and back
;Created by Estlcam version 11 build 11,244
;Machining time about 01:10:45 hours

G90
M03 S30000
G00 Z30.0000 F480


;No. 1: Ausschnitt 2
G00 X66.9523 Y350.9873 F2100
G00 Z0.5000 F480
G01 Z0.0000 F100 S30000
G01 Z-2.0000 F100
G01 X66.7075 F900
G01 Y424.7322 F900
G01 X66.9523 F900
G01 Y350.9873 F900
G01 Z-4.0000 F100
G01 X66.7075 F900
G01 Y424.7322 F900
G01 X66.9523 F900
G01 Y350.9873 F900
G01 Z-6.0000 F100
G01 X66.7075 F900
G01 Y424.7322 F900
G01 X66.9523 F900
G01 Y350.9873 F900
G01 Z-8.0000 F100
G01 X66.7075 F900
G01 Y424.7322 F900
G01 X66.9523 F900
G01 Y350.9873 F900
G01 Z-10.0000 F100
G01 X66.7075 F900
G01 Y424.7322 F900
G01 X66.9523 F900
G01 Y350.9873 F900
G00 Z30.0000 F480


;No. 2: Ausschnitt 1
G00 X345.2293 Y553.3598 Z30.0000 F2100
G00 Z0.5000 F480
G01 Z0.0000 F100
G01 Z-2.0000 F100
G01 Y411.4679 F900
G01 X203.3374 F900
G01 X194.3374 F900
G01 X52.4455 F900
G01 Y547.1794 F900
G01 Y556.1794 F900
G01 Y704.2517 F900
G01 X194.3374 F900
G01 X203.3374 F900
G01 X345.2293 F900
G01 Y562.3598 F900
G01 Y553.3598 F900
G01 Z-4.0000 F100
G01 Y411.4679 F900
G01 X203.3374 F900
G01 X194.3374 F900
G01 X52.4455 F900
G01 Y547.1794 F900
G01 Y556.1794 F900
G01 Y704.2517 F900
G01 X194.3374 F900
G01 X203.3374 F900
G01 X345.2293 F900
G01 Y562.3598 F900
G01 Y553.3598 F900
G01 Z-6.0000 F100
G01 Y411.4679 F900
G01 X203.3374 F900
G01 X194.3374 F900
G01 X52.4455 F900
G01 Y547.1794 F900
G01 Y556.1794 F900
G01 Y704.2517 F900
G01 X194.3374 F900
G01 X203.3374 F900
G01 X345.2293 F900
G01 Y562.3598 F900
G01 Y553.3598 F900
G01 Z-8.0000 F100
G01 Y411.4679 F900
G01 X203.3374 F900
G00 Z-7.0000 F480
G01 X194.3374 F900
G01 Z-8.0000 F100
G01 X52.4455 F900
G01 Y547.1794 F900
G00 Z-7.0000 F480
G01 Y556.1794 F900
G01 Z-8.0000 F100
G01 Y704.2517 F900
G01 X194.3374 F900
G00 Z-7.0000 F480
G01 X203.3374 F900
G01 Z-8.0000 F100
G01 X345.2293 F900
G01 Y562.3598 F900
G00 Z-7.0000 F480
G01 Y553.3598 F900
G00 Z-7.5000 F480
G01 Z-8.0000 F100
G01 Z-10.0000 F100
G01 Y411.4679 F900
G01 X203.3374 F900
G00 Z-7.0000 F480
G01 X194.3374 F900
G00 Z-7.5000 F480
G01 Z-8.0000 F100
G01 Z-10.0000 F100
G01 X52.4455 F900
G01 Y547.1794 F900
G00 Z-7.0000 F480
G01 Y556.1794 F900
G00 Z-7.5000 F480
G01 Z-8.0000 F100
G01 Z-10.0000 F100
G01 Y704.2517 F900
G01 X194.3374 F900
G00 Z-7.0000 F480
G01 X203.3374 F900
G00 Z-7.5000 F480
G01 Z-8.0000 F100
G01 Z-10.0000 F100
G01 X345.2293 F900
G01 Y562.3598 F900
G00 Z-7.0000 F480
G01 Y553.3598 F900
G00 Z30.0000 F480


;No. 3: Teil 2
G00 X203.3374 Y385.5490 Z30.0000 F2100
G00 Z0.5000 F480
G01 Z0.0000 F100
G01 Z-2.0000 F100
G01 X368.1482 F900
G03 X371.1482 Y388.5490 I0.0000 J3.0000 F900
G01 Y553.3598 F900
G01 Y562.3598 F900
G01 Y727.1706 F900
G03 X368.1482 Y730.1706 I-3.0000 J0.0000 F900
G01 X203.3374 F900
G01 X194.3374 F900
G01 X29.5266 F900
G03 X26.5266 Y727.1706 I0.0000 J-3.0000 F900
G01 Y562.3598 F900
G01 Y553.3598 F900
G01 Y388.5490 F900
G03 X29.5266 Y385.5490 I3.0000 J0.0000 F900
G01 X194.3374 F900
G01 X203.3374 F900
G01 Z-4.0000 F100
G01 X368.1482 F900
G03 X371.1482 Y388.5490 I0.0000 J3.0000 F900
G01 Y553.3598 F900
G01 Y562.3598 F900
G01 Y727.1706 F900
G03 X368.1482 Y730.1706 I-3.0000 J0.0000 F900
G01 X203.3374 F900
G01 X194.3374 F900
G01 X29.5266 F900
G03 X26.5266 Y727.1706 I0.0000 J-3.0000 F900
G01 Y562.3598 F900
G01 Y553.3598 F900
G01 Y388.5490 F900
G03 X29.5266 Y385.5490 I3.0000 J0.0000 F900
G01 X194.3374 F900
G01 X203.3374 F900
G01 Z-6.0000 F100
G01 X368.1482 F900
G03 X371.1482 Y388.5490 I0.0000 J3.0000 F900
G01 Y553.3598 F900
G01 Y562.3598 F900
G01 Y727.1706 F900
G03 X368.1482 Y730.1706 I-3.0000 J0.0000 F900
G01 X203.3374 F900
G01 X194.3374 F900
G01 X29.5266 F900
G03 X26.5266 Y727.1706 I0.0000 J-3.0000 F900
G01 Y562.3598 F900
G01 Y553.3598 F900
G01 Y388.5490 F900
G03 X29.5266 Y385.5490 I3.0000 J0.0000 F900
G01 X194.3374 F900
G01 X203.3374 F900
G01 Z-8.0000 F100
G01 X368.1482 F900
G03 X371.1482 Y388.5490 I0.0000 J3.0000 F900
G01 Y553.3598 F900
G00 Z-7.0000 F480
G01 Y562.3598 F900
G01 Z-8.0000 F100
G01 Y727.1706 F900
G03 X368.1482 Y730.1706 I-3.0000 J0.0000 F900
G01 X203.3374 F900
G00 Z-7.0000 F480
G01 X194.3374 F900
G01 Z-8.0000 F100
G01 X29.5266 F900
G03 X26.5266 Y727.1706 I0.0000 J-3.0000 F900
G01 Y562.3598 F900
G00 Z-7.0000 F480
G01 Y553.3598 F900
G01 Z-8.0000 F100
G01 Y388.5490 F900
G03 X29.5266 Y385.5490 I3.0000 J0.0000 F900
G01 X194.3374 F900
G00 Z-7.0000 F480
G01 X203.3374 F900
G00 Z-7.5000 F480
G01 Z-8.0000 F100
G01 Z-10.0000 F100
G01 X368.1482 F900
G03 X371.1482 Y388.5490 I0.0000 J3.0000 F900
G01 Y553.3598 F900
G00 Z-7.0000 F480
G01 Y562.3598 F900
G00 Z-7.5000 F480
G01 Z-8.0000 F100
G01 Z-10.0000 F100
G01 Y727.1706 F900
G03 X368.1482 Y730.1706 I-3.0000 J0.0000 F900
G01 X203.3374 F900
G00 Z-7.0000 F480
G01 X194.3374 F900
G00 Z-7.5000 F480
G01 Z-8.0000 F100
G01 Z-10.0000 F100
G01 X29.5266 F900
G03 X26.5266 Y727.1706 I0.0000 J-3.0000 F900
G01 Y562.3598 F900
G00 Z-7.0000 F480
G01 Y553.3598 F900
G00 Z-7.5000 F480
G01 Z-8.0000 F100
G01 Z-10.0000 F100
G01 Y388.5490 F900
G03 X29.5266 Y385.5490 I3.0000 J0.0000 F900
G01 X194.3374 F900
G00 Z-7.0000 F480
G01 X203.3374 F900
G00 Z30.0000 F480


;No. 4: Teil 3
G00 X203.3374 Y25.5489 Z30.0000 F2100
G00 Z0.5000 F480
G01 Z0.0000 F100
G01 Z-2.0000 F100
G01 X368.1482 F900
G03 X371.1482 Y28.5489 I0.0000 J3.0000 F900
G01 Y193.3597 F900
G01 Y202.3597 F900
G01 Y367.1706 F900
G03 X368.1482 Y370.1706 I-3.0000 J0.0000 F900
G01 X203.3374 F900
G01 X194.3374 F900
G01 X29.5266 F900
G03 X26.5266 Y367.1706 I0.0000 J-3.0000 F900
G01 Y202.3597 F900
G01 Y193.3597 F900
G01 Y28.5489 F900
G03 X29.5266 Y25.5489 I3.0000 J0.0000 F900
G01 X194.3374 F900
G01 X203.3374 F900
G01 Z-4.0000 F100
G01 X368.1482 F900
G03 X371.1482 Y28.5489 I0.0000 J3.0000 F900
G01 Y193.3597 F900
G01 Y202.3597 F900
G01 Y367.1706 F900
G03 X368.1482 Y370.1706 I-3.0000 J0.0000 F900
G01 X203.3374 F900
G01 X194.3374 F900
G01 X29.5266 F900
G03 X26.5266 Y367.1706 I0.0000 J-3.0000 F900
G01 Y202.3597 F900
G01 Y193.3597 F900
G01 Y28.5489 F900
G03 X29.5266 Y25.5489 I3.0000 J0.0000 F900
G01 X194.3374 F900
G01 X203.3374 F900
G01 Z-6.0000 F100
G01 X368.1482 F900
G03 X371.1482 Y28.5489 I0.0000 J3.0000 F900
G01 Y193.3597 F900
G01 Y202.3597 F900
G01 Y367.1706 F900
G03 X368.1482 Y370.1706 I-3.0000 J0.0000 F900
G01 X203.3374 F900
G01 X194.3374 F900
G01 X29.5266 F900
G03 X26.5266 Y367.1706 I0.0000 J-3.0000 F900
G01 Y202.3597 F900
G01 Y193.3597 F900
G01 Y28.5489 F900
G03 X29.5266 Y25.5489 I3.0000 J0.0000 F900
G01 X194.3374 F900
G01 X203.3374 F900
G01 Z-8.0000 F100
G01 X368.1482 F900
G03 X371.1482 Y28.5489 I0.0000 J3.0000 F900
G01 Y193.3597 F900
G00 Z-7.0000 F480
G01 Y202.3597 F900
G01 Z-8.0000 F100
G01 Y367.1706 F900
G03 X368.1482 Y370.1706 I-3.0000 J0.0000 F900
G01 X203.3374 F900
G00 Z-7.0000 F480
G01 X194.3374 F900
G01 Z-8.0000 F100
G01 X29.5266 F900
G03 X26.5266 Y367.1706 I0.0000 J-3.0000 F900
G01 Y202.3597 F900
G00 Z-7.0000 F480
G01 Y193.3597 F900
G01 Z-8.0000 F100
G01 Y28.5489 F900
G03 X29.5266 Y25.5489 I3.0000 J0.0000 F900
G01 X194.3374 F900
G00 Z-7.0000 F480
G01 X203.3374 F900
G00 Z-7.5000 F480
G01 Z-8.0000 F100
G01 Z-10.0000 F100
G01 X368.1482 F900
G03 X371.1482 Y28.5489 I0.0000 J3.0000 F900
G01 Y193.3597 F900
G00 Z-7.0000 F480
G01 Y202.3597 F900
G00 Z-7.5000 F480
G01 Z-8.0000 F100
G01 Z-10.0000 F100
G01 Y367.1706 F900
G03 X368.1482 Y370.1706 I-3.0000 J0.0000 F900
G01 X203.3374 F900
G00 Z-7.0000 F480
G01 X194.3374 F900
G00 Z-7.5000 F480
G01 Z-8.0000 F100
G01 Z-10.0000 F100
G01 X29.5266 F900
G03 X26.5266 Y367.1706 I0.0000 J-3.0000 F900
G01 Y202.3597 F900
G00 Z-7.0000 F480
G01 Y193.3597 F900
G00 Z-7.5000 F480
G01 Z-8.0000 F100
G01 Z-10.0000 F100
G01 Y28.5489 F900
G03 X29.5266 Y25.5489 I3.0000 J0.0000 F900
G01 X194.3374 F900
G00 Z-7.0000 F480
G01 X203.3374 F900
G00 Z30.0000 F480
G00 X0.0000 Y0.0000 F2100

M05
