;Project Frame NeoPixel 2x2 x 16x16-front
;Created by Estlcam version 11 build 11,244
;Machining time about 02:14:59 hours

G90
M03 S30000
G00 Z30.0000 F480


;No. 1: Ausschnitt 1
G00 X61.3149 Y306.5805 F2100
G00 Z0.5000 F480
G01 Z0.0000 F100 S30000
G01 Z-2.0000 F100
G01 X153.9339 F900
G01 Y311.0805 F900
G01 X61.3149 F900
G01 X60.7149 Y311.0617 F900
G01 Y315.7400 F900
G01 X154.5339 F900
G01 Y301.9210 F900
G01 X60.7149 F900
G01 Y311.0617 F900
G01 X61.3149 Y311.0805 F900
G01 Z-4.0000 F100
G01 X153.9339 F900
G01 Y306.5805 F900
G01 X61.3149 F900
G01 X60.7149 Y306.5993 F900
G01 Y315.7400 F900
G01 X154.5339 F900
G01 Y301.9210 F900
G01 X60.7149 F900
G01 Y306.5993 F900
G01 X61.3149 Y306.5805 F900
G01 Z-6.0000 F100
G01 X153.9339 F900
G01 Y311.0805 F900
G01 X61.3149 F900
G01 X60.7149 Y311.0617 F900
G01 Y315.7400 F900
G01 X154.5339 F900
G01 Y301.9210 F900
G01 X60.7149 F900
G01 Y311.0617 F900
G01 X61.3149 Y311.0805 F900
G01 Z-8.0000 F100
G01 X153.9339 F900
G01 Y306.5805 F900
G01 X61.3149 F900
G01 X60.7149 Y306.5993 F900
G01 Y315.7400 F900
G01 X154.5339 F900
G01 Y301.9210 F900
G01 X60.7149 F900
G01 Y306.5993 F900
G01 X61.3149 Y306.5805 F900
G01 Z-10.0000 F100
G01 X153.9339 F900
G01 Y311.0805 F900
G01 X61.3149 F900
G01 X60.7149 Y311.0617 F900
G01 Y315.7400 F900
G01 X154.5339 F900
G01 Y301.9210 F900
G01 X60.7149 F900
G01 Y311.0617 F900
G01 X61.3149 Y311.0805 F900
G00 Z30.0000 F480


;No. 2: Ausschnitt 2
G00 X221.3149 Y311.0805 Z30.0000 F2100
G00 Z0.5000 F480
G01 Z0.0000 F100
G01 Z-2.0000 F100
G01 X313.9339 F900
G01 Y306.5805 F900
G01 X221.3149 F900
G01 X220.7149 Y306.5993 F900
G01 Y315.7400 F900
G01 X314.5339 F900
G01 Y301.9210 F900
G01 X220.7149 F900
G01 Y306.5993 F900
G01 X221.3149 Y306.5805 F900
G01 Z-4.0000 F100
G01 X313.9339 F900
G01 Y311.0805 F900
G01 X221.3149 F900
G01 X220.7149 Y311.0617 F900
G01 Y315.7400 F900
G01 X314.5339 F900
G01 Y301.9210 F900
G01 X220.7149 F900
G01 Y311.0617 F900
G01 X221.3149 Y311.0805 F900
G01 Z-6.0000 F100
G01 X313.9339 F900
G01 Y306.5805 F900
G01 X221.3149 F900
G01 X220.7149 Y306.5993 F900
G01 Y315.7400 F900
G01 X314.5339 F900
G01 Y301.9210 F900
G01 X220.7149 F900
G01 Y306.5993 F900
G01 X221.3149 Y306.5805 F900
G01 Z-8.0000 F100
G01 X313.9339 F900
G01 Y311.0805 F900
G01 X221.3149 F900
G01 X220.7149 Y311.0617 F900
G01 Y315.7400 F900
G01 X314.5339 F900
G01 Y301.9210 F900
G01 X220.7149 F900
G01 Y311.0617 F900
G01 X221.3149 Y311.0805 F900
G01 Z-10.0000 F100
G01 X313.9339 F900
G01 Y306.5805 F900
G01 X221.3149 F900
G01 X220.7149 Y306.5993 F900
G01 Y315.7400 F900
G01 X314.5339 F900
G01 Y301.9210 F900
G01 X220.7149 F900
G01 Y306.5993 F900
G01 X221.3149 Y306.5805 F900
G00 Z30.0000 F480


;No. 3: Ausschnitt 3
G00 X153.9339 Y231.0805 Z30.0000 F2100
G00 Z0.5000 F480
G01 Z0.0000 F100
G01 Z-2.0000 F100
G01 X61.3149 F900
G01 Y226.5805 F900
G01 X153.9339 F900
G01 X154.5339 Y226.5993 F900
G01 Y221.9210 F900
G01 X60.7149 F900
G01 Y235.7400 F900
G01 X154.5339 F900
G01 Y226.5993 F900
G01 X153.9339 Y226.5805 F900
G01 Z-4.0000 F100
G01 X61.3149 F900
G01 Y231.0805 F900
G01 X153.9339 F900
G01 X154.5339 Y231.0617 F900
G01 Y221.9210 F900
G01 X60.7149 F900
G01 Y235.7400 F900
G01 X154.5339 F900
G01 Y231.0617 F900
G01 X153.9339 Y231.0805 F900
G01 Z-6.0000 F100
G01 X61.3149 F900
G01 Y226.5805 F900
G01 X153.9339 F900
G01 X154.5339 Y226.5993 F900
G01 Y221.9210 F900
G01 X60.7149 F900
G01 Y235.7400 F900
G01 X154.5339 F900
G01 Y226.5993 F900
G01 X153.9339 Y226.5805 F900
G01 Z-8.0000 F100
G01 X61.3149 F900
G01 Y231.0805 F900
G01 X153.9339 F900
G01 X154.5339 Y231.0617 F900
G01 Y221.9210 F900
G01 X60.7149 F900
G01 Y235.7400 F900
G01 X154.5339 F900
G01 Y231.0617 F900
G01 X153.9339 Y231.0805 F900
G01 Z-10.0000 F100
G01 X61.3149 F900
G01 Y226.5805 F900
G01 X153.9339 F900
G01 X154.5339 Y226.5993 F900
G01 Y221.9210 F900
G01 X60.7149 F900
G01 Y235.7400 F900
G01 X154.5339 F900
G01 Y226.5993 F900
G01 X153.9339 Y226.5805 F900
G00 Z30.0000 F480


;No. 4: Ausschnitt 4
G00 X221.3149 Y226.5805 Z30.0000 F2100
G00 Z0.5000 F480
G01 Z0.0000 F100
G01 Z-2.0000 F100
G01 X313.9339 F900
G01 Y231.0805 F900
G01 X221.3149 F900
G01 X220.7149 Y231.0617 F900
G01 Y235.7400 F900
G01 X314.5339 F900
G01 Y221.9210 F900
G01 X220.7149 F900
G01 Y231.0617 F900
G01 X221.3149 Y231.0805 F900
G01 Z-4.0000 F100
G01 X313.9339 F900
G01 Y226.5805 F900
G01 X221.3149 F900
G01 X220.7149 Y226.5993 F900
G01 Y235.7400 F900
G01 X314.5339 F900
G01 Y221.9210 F900
G01 X220.7149 F900
G01 Y226.5993 F900
G01 X221.3149 Y226.5805 F900
G01 Z-6.0000 F100
G01 X313.9339 F900
G01 Y231.0805 F900
G01 X221.3149 F900
G01 X220.7149 Y231.0617 F900
G01 Y235.7400 F900
G01 X314.5339 F900
G01 Y221.9210 F900
G01 X220.7149 F900
G01 Y231.0617 F900
G01 X221.3149 Y231.0805 F900
G01 Z-8.0000 F100
G01 X313.9339 F900
G01 Y226.5805 F900
G01 X221.3149 F900
G01 X220.7149 Y226.5993 F900
G01 Y235.7400 F900
G01 X314.5339 F900
G01 Y221.9210 F900
G01 X220.7149 F900
G01 Y226.5993 F900
G01 X221.3149 Y226.5805 F900
G01 Z-10.0000 F100
G01 X313.9339 F900
G01 Y231.0805 F900
G01 X221.3149 F900
G01 X220.7149 Y231.0617 F900
G01 Y235.7400 F900
G01 X314.5339 F900
G01 Y221.9210 F900
G01 X220.7149 F900
G01 Y231.0617 F900
G01 X221.3149 Y231.0805 F900
G00 Z30.0000 F480


;No. 5: Ausschnitt 8
G00 X221.3149 Y71.0805 Z30.0000 F2100
G00 Z0.5000 F480
G01 Z0.0000 F100
G01 Z-2.0000 F100
G01 X313.9339 F900
G01 Y66.5805 F900
G01 X221.3149 F900
G01 X220.7149 Y66.5993 F900
G01 Y75.7400 F900
G01 X314.5339 F900
G01 Y61.9210 F900
G01 X220.7149 F900
G01 Y66.5993 F900
G01 X221.3149 Y66.5805 F900
G01 Z-4.0000 F100
G01 X313.9339 F900
G01 Y71.0805 F900
G01 X221.3149 F900
G01 X220.7149 Y71.0617 F900
G01 Y75.7400 F900
G01 X314.5339 F900
G01 Y61.9210 F900
G01 X220.7149 F900
G01 Y71.0617 F900
G01 X221.3149 Y71.0805 F900
G01 Z-6.0000 F100
G01 X313.9339 F900
G01 Y66.5805 F900
G01 X221.3149 F900
G01 X220.7149 Y66.5993 F900
G01 Y75.7400 F900
G01 X314.5339 F900
G01 Y61.9210 F900
G01 X220.7149 F900
G01 Y66.5993 F900
G01 X221.3149 Y66.5805 F900
G01 Z-8.0000 F100
G01 X313.9339 F900
G01 Y71.0805 F900
G01 X221.3149 F900
G01 X220.7149 Y71.0617 F900
G01 Y75.7400 F900
G01 X314.5339 F900
G01 Y61.9210 F900
G01 X220.7149 F900
G01 Y71.0617 F900
G01 X221.3149 Y71.0805 F900
G01 Z-10.0000 F100
G01 X313.9339 F900
G01 Y66.5805 F900
G01 X221.3149 F900
G01 X220.7149 Y66.5993 F900
G01 Y75.7400 F900
G01 X314.5339 F900
G01 Y61.9210 F900
G01 X220.7149 F900
G01 Y66.5993 F900
G01 X221.3149 Y66.5805 F900
G00 Z30.0000 F480


;No. 6: Ausschnitt 9
G00 X153.9339 Y66.5805 Z30.0000 F2100
G00 Z0.5000 F480
G01 Z0.0000 F100
G01 Z-2.0000 F100
G01 X61.3149 F900
G01 Y71.0805 F900
G01 X153.9339 F900
G01 X154.5339 Y71.0617 F900
G01 Y61.9210 F900
G01 X60.7149 F900
G01 Y75.7400 F900
G01 X154.5339 F900
G01 Y71.0617 F900
G01 X153.9339 Y71.0805 F900
G01 Z-4.0000 F100
G01 X61.3149 F900
G01 Y66.5805 F900
G01 X153.9339 F900
G01 X154.5339 Y66.5993 F900
G01 Y61.9210 F900
G01 X60.7149 F900
G01 Y75.7400 F900
G01 X154.5339 F900
G01 Y66.5993 F900
G01 X153.9339 Y66.5805 F900
G01 Z-6.0000 F100
G01 X61.3149 F900
G01 Y71.0805 F900
G01 X153.9339 F900
G01 X154.5339 Y71.0617 F900
G01 Y61.9210 F900
G01 X60.7149 F900
G01 Y75.7400 F900
G01 X154.5339 F900
G01 Y71.0617 F900
G01 X153.9339 Y71.0805 F900
G01 Z-8.0000 F100
G01 X61.3149 F900
G01 Y66.5805 F900
G01 X153.9339 F900
G01 X154.5339 Y66.5993 F900
G01 Y61.9210 F900
G01 X60.7149 F900
G01 Y75.7400 F900
G01 X154.5339 F900
G01 Y66.5993 F900
G01 X153.9339 Y66.5805 F900
G01 Z-10.0000 F100
G01 X61.3149 F900
G01 Y71.0805 F900
G01 X153.9339 F900
G01 X154.5339 Y71.0617 F900
G01 Y61.9210 F900
G01 X60.7149 F900
G01 Y75.7400 F900
G01 X154.5339 F900
G01 Y71.0617 F900
G01 X153.9339 Y71.0805 F900
G00 Z30.0000 F480


;No. 7: Ausschnitt 10
G00 X153.9339 Y146.5805 Z30.0000 F2100
G00 Z0.5000 F480
G01 Z0.0000 F100
G01 Z-2.0000 F100
G01 X61.3149 F900
G01 Y151.0805 F900
G01 X153.9339 F900
G01 X154.5339 Y151.0617 F900
G01 Y141.9210 F900
G01 X60.7149 F900
G01 Y155.7400 F900
G01 X154.5339 F900
G01 Y151.0617 F900
G01 X153.9339 Y151.0805 F900
G01 Z-4.0000 F100
G01 X61.3149 F900
G01 Y146.5805 F900
G01 X153.9339 F900
G01 X154.5339 Y146.5993 F900
G01 Y141.9210 F900
G01 X60.7149 F900
G01 Y155.7400 F900
G01 X154.5339 F900
G01 Y146.5993 F900
G01 X153.9339 Y146.5805 F900
G01 Z-6.0000 F100
G01 X61.3149 F900
G01 Y151.0805 F900
G01 X153.9339 F900
G01 X154.5339 Y151.0617 F900
G01 Y141.9210 F900
G01 X60.7149 F900
G01 Y155.7400 F900
G01 X154.5339 F900
G01 Y151.0617 F900
G01 X153.9339 Y151.0805 F900
G01 Z-8.0000 F100
G01 X61.3149 F900
G01 Y146.5805 F900
G01 X153.9339 F900
G01 X154.5339 Y146.5993 F900
G01 Y141.9210 F900
G01 X60.7149 F900
G01 Y155.7400 F900
G01 X154.5339 F900
G01 Y146.5993 F900
G01 X153.9339 Y146.5805 F900
G01 Z-10.0000 F100
G01 X61.3149 F900
G01 Y151.0805 F900
G01 X153.9339 F900
G01 X154.5339 Y151.0617 F900
G01 Y141.9210 F900
G01 X60.7149 F900
G01 Y155.7400 F900
G01 X154.5339 F900
G01 Y151.0617 F900
G01 X153.9339 Y151.0805 F900
G00 Z30.0000 F480


;No. 8: Ausschnitt 11
G00 X221.3149 Y151.0805 Z30.0000 F2100
G00 Z0.5000 F480
G01 Z0.0000 F100
G01 Z-2.0000 F100
G01 X313.9339 F900
G01 Y146.5805 F900
G01 X221.3149 F900
G01 X220.7149 Y146.5993 F900
G01 Y155.7400 F900
G01 X314.5339 F900
G01 Y141.9210 F900
G01 X220.7149 F900
G01 Y146.5993 F900
G01 X221.3149 Y146.5805 F900
G01 Z-4.0000 F100
G01 X313.9339 F900
G01 Y151.0805 F900
G01 X221.3149 F900
G01 X220.7149 Y151.0617 F900
G01 Y155.7400 F900
G01 X314.5339 F900
G01 Y141.9210 F900
G01 X220.7149 F900
G01 Y151.0617 F900
G01 X221.3149 Y151.0805 F900
G01 Z-6.0000 F100
G01 X313.9339 F900
G01 Y146.5805 F900
G01 X221.3149 F900
G01 X220.7149 Y146.5993 F900
G01 Y155.7400 F900
G01 X314.5339 F900
G01 Y141.9210 F900
G01 X220.7149 F900
G01 Y146.5993 F900
G01 X221.3149 Y146.5805 F900
G01 Z-8.0000 F100
G01 X313.9339 F900
G01 Y151.0805 F900
G01 X221.3149 F900
G01 X220.7149 Y151.0617 F900
G01 Y155.7400 F900
G01 X314.5339 F900
G01 Y141.9210 F900
G01 X220.7149 F900
G01 Y151.0617 F900
G01 X221.3149 Y151.0805 F900
G01 Z-10.0000 F100
G01 X313.9339 F900
G01 Y146.5805 F900
G01 X221.3149 F900
G01 X220.7149 Y146.5993 F900
G01 Y155.7400 F900
G01 X314.5339 F900
G01 Y141.9210 F900
G01 X220.7149 F900
G01 Y146.5993 F900
G01 X221.3149 Y146.5805 F900
G00 Z30.0000 F480


;No. 9: Ausschnitt 12
G00 X343.7001 Y146.0805 Z30.0000 F2100
G00 Z0.5000 F480
G01 Z0.0000 F100
G01 Z-2.0000 F100
G01 X31.5487 F900
G01 Y141.5805 F900
G01 X343.7001 F900
G01 Y137.0805 F900
G01 X31.5487 F900
G01 Y132.5805 F900
G01 X343.7001 F900
G01 Y128.0805 F900
G01 X31.5487 F900
G01 Y123.5805 F900
G01 X343.7001 F900
G01 Y119.0805 F900
G01 X31.5487 F900
G01 Y114.5805 F900
G01 X343.7001 F900
G01 Y110.0805 F900
G01 X31.5487 F900
G01 Y105.5805 F900
G01 X343.7001 F900
G01 Y101.0805 F900
G01 X31.5487 F900
G01 Y96.5805 F900
G01 X343.7001 F900
G01 Y92.0805 F900
G01 X31.5487 F900
G01 Y87.5805 F900
G01 X343.7001 F900
G01 Y83.0805 F900
G01 X31.5487 F900
G01 Y78.5805 F900
G01 X343.7001 F900
G01 Y74.0805 F900
G01 X31.5487 F900
G01 Y69.5805 F900
G01 X343.7001 F900
G01 Y65.0805 F900
G01 X31.5487 F900
G01 Y60.5805 F900
G01 X343.7001 F900
G01 Y56.0805 F900
G01 X31.5487 F900
G01 Y51.5805 F900
G01 X343.7001 F900
G01 Y47.0805 F900
G01 X31.5487 F900
G01 Y42.5805 F900
G01 X343.7001 F900
G01 Y38.0805 F900
G01 X31.5487 F900
G01 Y33.5805 F900
G01 X343.7001 F900
G00 Z30.0000 F480
G00 Y146.0805 F2100
G00 Z0.5000 F480
G01 Z-2.0000 F100
G01 Y150.5805 F900
G01 X31.5487 F900
G01 Y155.0805 F900
G01 X343.7001 F900
G01 Y159.5805 F900
G01 X31.5487 F900
G01 Y164.0805 F900
G01 X343.7001 F900
G01 Y168.5805 F900
G01 X31.5487 F900
G01 Y173.0805 F900
G01 X343.7001 F900
G01 Y177.5805 F900
G01 X31.5487 F900
G01 Y182.0805 F900
G01 X343.7001 F900
G01 Y186.5805 F900
G01 X31.5487 F900
G01 Y191.0805 F900
G01 X343.7001 F900
G01 Y195.5805 F900
G01 X31.5487 F900
G01 Y200.0805 F900
G01 X343.7001 F900
G01 Y204.5805 F900
G01 X31.5487 F900
G01 Y209.0805 F900
G01 X343.7001 F900
G01 Y213.5805 F900
G01 X31.5487 F900
G01 Y218.0805 F900
G01 X343.7001 F900
G01 Y222.5805 F900
G01 X31.5487 F900
G01 Y227.0805 F900
G01 X343.7001 F900
G01 Y231.5805 F900
G01 X31.5487 F900
G01 Y236.0805 F900
G01 X343.7001 F900
G01 Y240.5805 F900
G01 X31.5487 F900
G01 Y245.0805 F900
G01 X343.7001 F900
G01 Y249.5805 F900
G01 X31.5487 F900
G01 Y254.0805 F900
G01 X343.7001 F900
G01 Y258.5805 F900
G01 X31.5487 F900
G01 Y263.0805 F900
G01 X343.7001 F900
G01 Y267.5805 F900
G01 X31.5487 F900
G01 Y272.0805 F900
G01 X343.7001 F900
G01 Y276.5805 F900
G01 X31.5487 F900
G01 Y281.0805 F900
G01 X343.7001 F900
G01 Y285.5805 F900
G01 X31.5487 F900
G01 Y290.0805 F900
G01 X343.7001 F900
G01 Y294.5805 F900
G01 X31.5487 F900
G01 Y299.0805 F900
G01 X343.7001 F900
G01 Y303.5805 F900
G01 X31.5487 F900
G01 Y308.0805 F900
G01 X343.7001 F900
G01 Y312.5805 F900
G01 X31.5487 F900
G01 Y317.0805 F900
G01 X343.7001 F900
G01 Y321.5805 F900
G01 X31.5487 F900
G01 Y326.0805 F900
G01 X343.7001 F900
G01 Y330.5805 F900
G01 X31.5487 F900
G01 Y335.0805 F900
G01 X343.7001 F900
G01 Y339.5805 F900
G01 X31.5487 F900
G01 Y344.0805 F900
G01 X343.7001 F900
G01 X344.3001 Y343.9600 F900
G01 Y32.1548 F900
G01 X345.1788 Y31.2762 F900
G01 X344.3001 Y32.1548 F900
G01 X30.9487 F900
G01 X30.0700 Y31.2762 F900
G01 X30.9487 Y32.1548 F900
G01 Y345.5062 F900
G01 X30.0700 Y346.3849 F900
G01 X30.9487 Y345.5062 F900
G01 X344.3001 F900
G01 X345.1788 Y346.3849 F900
G01 X344.3001 Y345.5062 F900
G01 Y343.9600 F900
G01 X343.7001 Y344.0805 F900
G01 Z-4.0000 F100
G01 X31.5487 F900
G01 Y339.5805 F900
G01 X343.7001 F900
G01 Y335.0805 F900
G01 X31.5487 F900
G01 Y330.5805 F900
G01 X343.7001 F900
G01 Y326.0805 F900
G01 X31.5487 F900
G01 Y321.5805 F900
G01 X343.7001 F900
G01 Y317.0805 F900
G01 X31.5487 F900
G01 Y312.5805 F900
G01 X343.7001 F900
G01 Y308.0805 F900
G01 X31.5487 F900
G01 Y303.5805 F900
G01 X343.7001 F900
G01 Y299.0805 F900
G01 X31.5487 F900
G01 Y294.5805 F900
G01 X343.7001 F900
G01 Y290.0805 F900
G01 X31.5487 F900
G01 Y285.5805 F900
G01 X343.7001 F900
G01 Y281.0805 F900
G01 X31.5487 F900
G01 Y276.5805 F900
G01 X343.7001 F900
G01 Y272.0805 F900
G01 X31.5487 F900
G01 Y267.5805 F900
G01 X343.7001 F900
G01 Y263.0805 F900
G01 X31.5487 F900
G01 Y258.5805 F900
G01 X343.7001 F900
G01 Y254.0805 F900
G01 X31.5487 F900
G01 Y249.5805 F900
G01 X343.7001 F900
G01 Y245.0805 F900
G01 X31.5487 F900
G01 Y240.5805 F900
G01 X343.7001 F900
G01 Y236.0805 F900
G01 X31.5487 F900
G01 Y231.5805 F900
G01 X343.7001 F900
G01 Y227.0805 F900
G01 X31.5487 F900
G01 Y222.5805 F900
G01 X343.7001 F900
G01 Y218.0805 F900
G01 X31.5487 F900
G01 Y213.5805 F900
G01 X343.7001 F900
G01 Y209.0805 F900
G01 X31.5487 F900
G01 Y204.5805 F900
G01 X343.7001 F900
G01 Y200.0805 F900
G01 X31.5487 F900
G01 Y195.5805 F900
G01 X343.7001 F900
G01 Y191.0805 F900
G01 X31.5487 F900
G01 Y186.5805 F900
G01 X343.7001 F900
G01 Y182.0805 F900
G01 X31.5487 F900
G01 Y177.5805 F900
G01 X343.7001 F900
G01 Y173.0805 F900
G01 X31.5487 F900
G01 Y168.5805 F900
G01 X343.7001 F900
G01 Y164.0805 F900
G01 X31.5487 F900
G01 Y159.5805 F900
G01 X343.7001 F900
G01 Y155.0805 F900
G01 X31.5487 F900
G01 Y150.5805 F900
G01 X343.7001 F900
G01 Y146.0805 F900
G01 X31.5487 F900
G01 Y141.5805 F900
G01 X343.7001 F900
G01 Y137.0805 F900
G01 X31.5487 F900
G01 Y132.5805 F900
G01 X343.7001 F900
G01 Y128.0805 F900
G01 X31.5487 F900
G01 Y123.5805 F900
G01 X343.7001 F900
G01 Y119.0805 F900
G01 X31.5487 F900
G01 Y114.5805 F900
G01 X343.7001 F900
G01 Y110.0805 F900
G01 X31.5487 F900
G01 Y105.5805 F900
G01 X343.7001 F900
G01 Y101.0805 F900
G01 X31.5487 F900
G01 Y96.5805 F900
G01 X343.7001 F900
G01 Y92.0805 F900
G01 X31.5487 F900
G01 Y87.5805 F900
G01 X343.7001 F900
G01 Y83.0805 F900
G01 X31.5487 F900
G01 Y78.5805 F900
G01 X343.7001 F900
G01 Y74.0805 F900
G01 X31.5487 F900
G01 Y69.5805 F900
G01 X343.7001 F900
G01 Y65.0805 F900
G01 X31.5487 F900
G01 Y60.5805 F900
G01 X343.7001 F900
G01 Y56.0805 F900
G01 X31.5487 F900
G01 Y51.5805 F900
G01 X343.7001 F900
G01 Y47.0805 F900
G01 X31.5487 F900
G01 Y42.5805 F900
G01 X343.7001 F900
G01 Y38.0805 F900
G01 X31.5487 F900
G01 Y33.5805 F900
G01 X343.7001 F900
G01 X344.3001 Y33.7010 F900
G01 Y32.1548 F900
G01 X345.1788 Y31.2762 F900
G01 X344.3001 Y32.1548 F900
G01 X30.9487 F900
G01 X30.0700 Y31.2762 F900
G01 X30.9487 Y32.1548 F900
G01 Y345.5062 F900
G01 X30.0700 Y346.3849 F900
G01 X30.9487 Y345.5062 F900
G01 X344.3001 F900
G01 X345.1788 Y346.3849 F900
G01 X344.3001 Y345.5062 F900
G01 Y33.7010 F900
G01 X343.7001 Y33.5805 F900
G00 Z30.0000 F480


;No. 10: Teil 1
G00 X192.1244 Y16.5197 Z30.0000 F2100
G00 Z0.5000 F480
G01 Z0.0000 F100
G01 Z-2.0000 F100
G01 X356.9352 F900
G03 X359.9352 Y19.5197 I0.0000 J3.0000 F900
G01 Y184.3305 F900
G01 Y193.3305 F900
G01 Y358.1413 F900
G03 X356.9352 Y361.1413 I-3.0000 J0.0000 F900
G01 X192.5794 F900
G01 X183.5794 F900
G01 X18.3136 F900
G03 X15.3136 Y358.1413 I0.0000 J-3.0000 F900
G01 Y193.3305 F900
G01 Y184.3305 F900
G01 Y19.5197 F900
G03 X18.3136 Y16.5197 I3.0000 J0.0000 F900
G01 X183.1244 F900
G01 X192.1244 F900
G01 Z-4.0000 F100
G01 X356.9352 F900
G03 X359.9352 Y19.5197 I0.0000 J3.0000 F900
G01 Y184.3305 F900
G01 Y193.3305 F900
G01 Y358.1413 F900
G03 X356.9352 Y361.1413 I-3.0000 J0.0000 F900
G01 X192.5794 F900
G01 X183.5794 F900
G01 X18.3136 F900
G03 X15.3136 Y358.1413 I0.0000 J-3.0000 F900
G01 Y193.3305 F900
G01 Y184.3305 F900
G01 Y19.5197 F900
G03 X18.3136 Y16.5197 I3.0000 J0.0000 F900
G01 X183.1244 F900
G01 X192.1244 F900
G01 Z-6.0000 F100
G01 X356.9352 F900
G03 X359.9352 Y19.5197 I0.0000 J3.0000 F900
G01 Y184.3305 F900
G01 Y193.3305 F900
G01 Y358.1413 F900
G03 X356.9352 Y361.1413 I-3.0000 J0.0000 F900
G01 X192.5794 F900
G01 X183.5794 F900
G01 X18.3136 F900
G03 X15.3136 Y358.1413 I0.0000 J-3.0000 F900
G01 Y193.3305 F900
G01 Y184.3305 F900
G01 Y19.5197 F900
G03 X18.3136 Y16.5197 I3.0000 J0.0000 F900
G01 X183.1244 F900
G01 X192.1244 F900
G01 Z-8.0000 F100
G01 X356.9352 F900
G03 X359.9352 Y19.5197 I0.0000 J3.0000 F900
G01 Y184.3305 F900
G00 Z-7.0000 F480
G01 Y193.3305 F900
G01 Z-8.0000 F100
G01 Y358.1413 F900
G03 X356.9352 Y361.1413 I-3.0000 J0.0000 F900
G01 X192.5794 F900
G00 Z-7.0000 F480
G01 X183.5794 F900
G01 Z-8.0000 F100
G01 X18.3136 F900
G03 X15.3136 Y358.1413 I0.0000 J-3.0000 F900
G01 Y193.3305 F900
G00 Z-7.0000 F480
G01 Y184.3305 F900
G01 Z-8.0000 F100
G01 Y19.5197 F900
G03 X18.3136 Y16.5197 I3.0000 J0.0000 F900
G01 X183.1244 F900
G00 Z-7.0000 F480
G01 X192.1244 F900
G00 Z-7.5000 F480
G01 Z-8.0000 F100
G01 Z-10.0000 F100
G01 X356.9352 F900
G03 X359.9352 Y19.5197 I0.0000 J3.0000 F900
G01 Y184.3305 F900
G00 Z-7.0000 F480
G01 Y193.3305 F900
G00 Z-7.5000 F480
G01 Z-8.0000 F100
G01 Z-10.0000 F100
G01 Y358.1413 F900
G03 X356.9352 Y361.1413 I-3.0000 J0.0000 F900
G01 X192.5794 F900
G00 Z-7.0000 F480
G01 X183.5794 F900
G00 Z-7.5000 F480
G01 Z-8.0000 F100
G01 Z-10.0000 F100
G01 X18.3136 F900
G03 X15.3136 Y358.1413 I0.0000 J-3.0000 F900
G01 Y193.3305 F900
G00 Z-7.0000 F480
G01 Y184.3305 F900
G00 Z-7.5000 F480
G01 Z-8.0000 F100
G01 Z-10.0000 F100
G01 Y19.5197 F900
G03 X18.3136 Y16.5197 I3.0000 J0.0000 F900
G01 X183.1244 F900
G00 Z-7.0000 F480
G01 X192.1244 F900
G00 Z30.0000 F480
G00 X0.0000 Y0.0000 F2100

M05
